luts/chrome.cube
TITLE "chrome"
LUT_3D_SIZE 16
DOMAIN_MIN 0.0 0.0 0.0
DOMAIN_MAX 1.0 1.0 1.0
0.003922 0.007843 0.007843
0.043137 0.007843 0.007843
0.098039 0.003922 0.007843
0.156863 0.003922 0.003922
0.266667 0.000000 0.003922
0.407843 0.000000 0.000000
0.556863 0.000000 0.000000
0.682353 0.000000 0.000000
0.792157 0.000000 0.000000
0.882353 0.000000 0.000000
0.937255 0.000000 0.000000
0.992157 0.000000 0.000000
1.000000 0.000000 0.000000
1.000000 0.000000 0.000000
1.000000 0.011765 0.000000
1.000000 0.113725 0.000000
0.003922 0.031373 0.007843
0.039216 0.031373 0.007843
0.090196 0.035294 0.007843
0.149020 0.039216 0.003922
0.262745 0.043137 0.003922
0.400000 0.039216 0.000000
0.549020 0.031373 0.000000
0.678431 0.019608 0.000000
0.788235 0.011765 0.000000
0.874510 0.023529 0.000000
0.933333 0.039216 0.000000
0.988235 0.058824 0.000000
1.000000 0.074510 0.000000
1.000000 0.094118 0.000000
1.000000 0.109804 0.000000
1.000000 0.168627 0.000000
0.003922 0.070588 0.011765
0.031373 0.070588 0.011765
0.078431 0.078431 0.007843
0.129412 0.086275 0.003922
0.250980 0.098039 0.000000
0.388235 0.090196 0.000000
0.537255 0.074510 0.000000
0.666667 0.054902 0.000000
0.776471 0.039216 0.000000
0.866667 0.066667 0.000000
0.929412 0.090196 0.000000
0.980392 0.121569 0.000000
1.000000 0.149020 0.000000
1.000000 0.176471 0.000000
1.000000 0.196078 0.000000
1.000000 0.231373 0.000000
0.000000 0.109804 0.015686
0.019608 0.117647 0.015686
0.050980 0.125490 0.007843
0.098039 0.137255 0.000000
0.231373 0.152941 0.000000
0.364706 0.149020 0.000000
0.517647 0.133333 0.000000
0.650980 0.105882 0.000000
0.756863 0.090196 0.000000
0.854902 0.121569 0.000000
0.917647 0.152941 0.000000
0.972549 0.192157 0.000000
1.000000 0.223529 0.000000
1.000000 0.262745 0.000000
1.000000 0.286275 0.000000
1.000000 0.309804 0.000000
0.000000 0.180392 0.007843
0.003922 0.188235 0.007843
0.011765 0.196078 0.003922
0.039216 0.211765 0.000000
0.176471 0.235294 0.000000
0.337255 0.266667 0.000000
0.498039 0.278431 0.000000
0.631373 0.274510 0.000000
0.741176 0.270588 0.000000
0.831373 0.290196 0.000000
0.898039 0.309804 0.000000
0.956863 0.325490 0.000000
0.996078 0.345098 0.000000
1.000000 0.364706 0.000000
1.000000 0.380392 0.000000
1.000000 0.392157 0.000000
0.000000 0.270588 0.003922
0.000000 0.274510 0.003922
0.000000 0.278431 0.000000
0.007843 0.290196 0.000000
0.094118 0.313725 0.000000
0.266667 0.349020 0.000000
0.454902 0.388235 0.000000
0.607843 0.407843 0.000000
0.717647 0.411765 0.000000
0.807843 0.419608 0.000000
0.878431 0.427451 0.000000
0.933333 0.439216 0.000000
0.988235 0.447059 0.000000
1.000000 0.458824 0.000000
1.000000 0.462745 0.000000
1.000000 0.466667 0.000000
0.000000 0.368627 0.000000
0.000000 0.368627 0.000000
0.000000 0.372549 0.000000
0.000000 0.376471 0.000000
0.019608 0.400000 0.000000
0.184314 0.427451 0.000000
0.380392 0.466667 0.000000
0.568627 0.513725 0.000000
0.690196 0.525490 0.000000
0.780392 0.529412 0.000000
0.850980 0.533333 0.000000
0.913725 0.529412 0.000000
0.972549 0.533333 0.000000
1.000000 0.537255 0.000000
1.000000 0.541176 0.000000
1.000000 0.541176 0.000000
0.000000 0.474510 0.000000
0.000000 0.470588 0.000000
0.000000 0.466667 0.000000
0.000000 0.462745 0.000000
0.003922 0.478431 0.000000
0.094118 0.501961 0.000000
0.301961 0.533333 0.000000
0.486275 0.564706 0.000000
0.647059 0.600000 0.000000
0.752941 0.615686 0.000000
0.827451 0.615686 0.000000
0.890196 0.611765 0.000000
0.952941 0.607843 0.000000
1.000000 0.607843 0.000000
1.000000 0.607843 0.000000
1.000000 0.603922 0.000000
0.000000 0.560784 0.000000
0.000000 0.556863 0.000000
0.000000 0.556863 0.000000
0.000000 0.549020 0.000000
0.000000 0.552941 0.000000
0.031373 0.568627 0.000000
0.243137 0.592157 0.000000
0.427451 0.619608 0.000000
0.580392 0.639216 0.000000
0.709804 0.670588 0.000000
0.803922 0.686275 0.000000
0.870588 0.682353 0.000000
0.933333 0.678431 0.000000
0.992157 0.674510 0.000000
1.000000 0.670588 0.000000
1.000000 0.662745 0.000000
0.000000 0.635294 0.000000
0.000000 0.631373 0.000000
0.000000 0.631373 0.000000
0.000000 0.627451 0.000000
0.000000 0.619608 0.000000
0.023529 0.631373 0.000000
0.211765 0.647059 0.000000
0.392157 0.666667 0.000000
0.537255 0.686275 0.000000
0.654902 0.701961 0.000000
0.760784 0.725490 0.000000
0.850980 0.745098 0.000000
0.917647 0.741176 0.000000
0.980392 0.737255 0.000000
1.000000 0.729412 0.000000
1.000000 0.721569 0.000000
0.000000 0.701961 0.000000
0.000000 0.698039 0.000000
0.000000 0.698039 0.000000
0.000000 0.694118 0.000000
0.000000 0.690196 0.000000
0.023529 0.690196 0.000000
0.211765 0.698039 0.000000
0.380392 0.713725 0.000000
0.509804 0.725490 0.000000
0.619608 0.745098 0.000000
0.713725 0.760784 0.000000
0.811765 0.780392 0.000000
0.901961 0.796078 0.000000
0.964706 0.792157 0.000000
1.000000 0.788235 0.000000
1.000000 0.776471 0.000000
0.000000 0.760784 0.039216
0.000000 0.756863 0.035294
0.000000 0.756863 0.027451
0.000000 0.752941 0.019608
0.003922 0.749020 0.011765
0.070588 0.749020 0.000000
0.247059 0.752941 0.000000
0.388235 0.760784 0.000000
0.498039 0.772549 0.000000
0.596078 0.784314 0.000000
0.682353 0.796078 0.000000
0.772549 0.811765 0.000000
0.854902 0.827451 0.000000
0.949020 0.843137 0.000000
1.000000 0.839216 0.000000
1.000000 0.831373 0.000000
0.000000 0.811765 0.164706
0.000000 0.811765 0.164706
0.000000 0.811765 0.160784
0.007843 0.807843 0.156863
0.082353 0.807843 0.152941
0.200000 0.803922 0.141176
0.301961 0.800000 0.125490
0.407843 0.807843 0.101961
0.501961 0.815686 0.066667
0.584314 0.827451 0.015686
0.662745 0.839216 0.000000
0.741176 0.850980 0.000000
0.819608 0.862745 0.000000
0.901961 0.870588 0.000000
0.992157 0.890196 0.000000
1.000000 0.882353 0.000000
0.011765 0.866667 0.282353
0.062745 0.862745 0.282353
0.117647 0.862745 0.282353
0.176471 0.862745 0.278431
0.247059 0.862745 0.274510
0.309804 0.858824 0.270588
0.372549 0.854902 0.262745
0.443137 0.858824 0.250980
0.513725 0.866667 0.239216
0.584314 0.874510 0.211765
0.650980 0.882353 0.180392
0.725490 0.890196 0.121569
0.796078 0.898039 0.039216
0.870588 0.905882 0.000000
0.949020 0.913725 0.000000
1.000000 0.925490 0.000000
0.282353 0.921569 0.415686
0.294118 0.921569 0.415686
0.313725 0.921569 0.415686
0.337255 0.921569 0.415686
0.368627 0.921569 0.415686
0.407843 0.917647 0.411765
0.443137 0.917647 0.407843
0.490196 0.917647 0.407843
0.545098 0.921569 0.396078
0.600000 0.925490 0.380392
0.658824 0.933333 0.364706
0.717647 0.937255 0.333333
0.780392 0.945098 0.294118
0.850980 0.949020 0.231373
0.921569 0.952941 0.105882
0.984314 0.956863 0.000000
0.447059 0.976471 0.564706
0.450980 0.976471 0.564706
0.458824 0.972549 0.564706
0.474510 0.972549 0.568627
0.494118 0.976471 0.568627
0.517647 0.976471 0.572549
0.545098 0.972549 0.572549
0.572549 0.972549 0.572549
0.611765 0.976471 0.572549
0.650980 0.980392 0.560784
0.690196 0.984314 0.549020
0.737255 0.988235 0.533333
0.788235 0.988235 0.498039
0.843137 0.992157 0.462745
0.901961 0.992157 0.403922
0.960784 0.996078 0.294118
0.003922 0.007843 0.066667
0.047059 0.007843 0.066667
0.098039 0.003922 0.062745
0.156863 0.003922 0.058824
0.270588 0.000000 0.050980
0.407843 0.000000 0.043137
0.552941 0.000000 0.039216
0.682353 0.000000 0.031373
0.792157 0.000000 0.023529
0.882353 0.000000 0.031373
0.937255 0.000000 0.027451
0.988235 0.000000 0.023529
1.000000 0.000000 0.011765
1.000000 0.000000 0.007843
1.000000 0.023529 0.000000
1.000000 0.121569 0.000000
0.003922 0.031373 0.062745
0.043137 0.031373 0.062745
0.094118 0.035294 0.058824
0.149020 0.039216 0.054902
0.266667 0.043137 0.050980
0.400000 0.039216 0.043137
0.549020 0.027451 0.039216
0.678431 0.019608 0.031373
0.788235 0.011765 0.023529
0.874510 0.023529 0.027451
0.933333 0.039216 0.027451
0.988235 0.058824 0.019608
1.000000 0.074510 0.011765
1.000000 0.094118 0.007843
1.000000 0.117647 0.000000
1.000000 0.172549 0.000000
0.003922 0.070588 0.058824
0.035294 0.074510 0.058824
0.082353 0.082353 0.054902
0.137255 0.090196 0.050980
0.254902 0.098039 0.047059
0.388235 0.090196 0.039216
0.537255 0.074510 0.035294
0.670588 0.050980 0.031373
0.776471 0.035294 0.027451
0.866667 0.062745 0.023529
0.925490 0.090196 0.019608
0.980392 0.121569 0.015686
1.000000 0.149020 0.007843
1.000000 0.180392 0.003922
1.000000 0.200000 0.000000
1.000000 0.235294 0.000000
0.000000 0.113725 0.050980
0.019608 0.121569 0.050980
0.054902 0.129412 0.047059
0.105882 0.141176 0.043137
0.235294 0.152941 0.039216
0.368627 0.149020 0.039216
0.517647 0.129412 0.035294
0.654902 0.105882 0.031373
0.760784 0.086275 0.027451
0.854902 0.121569 0.019608
0.917647 0.152941 0.011765
0.972549 0.192157 0.007843
1.000000 0.223529 0.000000
1.000000 0.262745 0.000000
1.000000 0.290196 0.000000
1.000000 0.313725 0.000000
0.000000 0.192157 0.047059
0.007843 0.196078 0.047059
0.019608 0.203922 0.043137
0.054902 0.215686 0.039216
0.184314 0.235294 0.035294
0.345098 0.262745 0.031373
0.501961 0.278431 0.027451
0.635294 0.274510 0.023529
0.741176 0.270588 0.015686
0.831373 0.290196 0.011765
0.898039 0.309804 0.003922
0.956863 0.329412 0.003922
0.996078 0.345098 0.000000
1.000000 0.368627 0.000000
1.000000 0.380392 0.000000
1.000000 0.392157 0.000000
0.000000 0.278431 0.047059
0.000000 0.282353 0.047059
0.003922 0.286275 0.043137
0.015686 0.298039 0.039216
0.109804 0.317647 0.031373
0.278431 0.349020 0.023529
0.462745 0.388235 0.011765
0.611765 0.407843 0.007843
0.717647 0.407843 0.003922
0.807843 0.419608 0.003922
0.878431 0.427451 0.000000
0.933333 0.439216 0.000000
0.988235 0.450980 0.000000
1.000000 0.458824 0.000000
1.000000 0.462745 0.000000
1.000000 0.466667 0.000000
0.000000 0.376471 0.043137
0.000000 0.376471 0.043137
0.000000 0.380392 0.039216
0.000000 0.384314 0.035294
0.035294 0.403922 0.031373
0.196078 0.431373 0.023529
0.388235 0.466667 0.007843
0.572549 0.513725 0.000000
0.694118 0.525490 0.000000
0.780392 0.529412 0.000000
0.850980 0.533333 0.000000
0.913725 0.529412 0.000000
0.972549 0.533333 0.000000
1.000000 0.537255 0.000000
1.000000 0.541176 0.000000
1.000000 0.541176 0.000000
0.000000 0.478431 0.035294
0.000000 0.478431 0.035294
0.000000 0.478431 0.035294
0.000000 0.470588 0.031373
0.003922 0.482353 0.031373
0.113725 0.505882 0.019608
0.313725 0.533333 0.007843
0.494118 0.564706 0.000000
0.650980 0.600000 0.000000
0.756863 0.615686 0.000000
0.827451 0.615686 0.000000
0.890196 0.611765 0.000000
0.952941 0.607843 0.000000
1.000000 0.607843 0.000000
1.000000 0.607843 0.000000
1.000000 0.603922 0.000000
0.000000 0.564706 0.039216
0.000000 0.564706 0.039216
0.000000 0.560784 0.035294
0.000000 0.556863 0.035294
0.000000 0.556863 0.031373
0.050980 0.568627 0.023529
0.254902 0.592157 0.011765
0.435294 0.619608 0.000000
0.584314 0.639216 0.000000
0.713725 0.670588 0.000000
0.803922 0.686275 0.000000
0.870588 0.682353 0.000000
0.933333 0.678431 0.000000
0.992157 0.674510 0.000000
1.000000 0.670588 0.000000
1.000000 0.662745 0.000000
0.000000 0.639216 0.047059
0.000000 0.635294 0.047059
0.000000 0.635294 0.043137
0.000000 0.631373 0.043137
0.000000 0.623529 0.039216
0.035294 0.631373 0.031373
0.223529 0.647059 0.023529
0.400000 0.666667 0.011765
0.537255 0.686275 0.000000
0.654902 0.701961 0.000000
0.764706 0.729412 0.000000
0.854902 0.745098 0.000000
0.917647 0.741176 0.000000
0.980392 0.737255 0.000000
1.000000 0.729412 0.000000
1.000000 0.721569 0.000000
0.000000 0.701961 0.062745
0.000000 0.701961 0.062745
0.000000 0.701961 0.058824
0.000000 0.698039 0.058824
0.000000 0.694118 0.054902
0.043137 0.690196 0.047059
0.223529 0.701961 0.039216
0.384314 0.713725 0.031373
0.509804 0.725490 0.019608
0.619608 0.745098 0.003922
0.717647 0.760784 0.000000
0.811765 0.780392 0.000000
0.901961 0.796078 0.000000
0.964706 0.792157 0.000000
1.000000 0.788235 0.000000
1.000000 0.776471 0.000000
0.000000 0.760784 0.101961
0.000000 0.760784 0.098039
0.000000 0.756863 0.094118
0.000000 0.756863 0.090196
0.011765 0.752941 0.082353
0.098039 0.749020 0.074510
0.254902 0.752941 0.066667
0.392157 0.760784 0.062745
0.501961 0.772549 0.054902
0.596078 0.784314 0.039216
0.686275 0.796078 0.023529
0.772549 0.811765 0.003922
0.858824 0.827451 0.000000
0.949020 0.843137 0.000000
1.000000 0.839216 0.000000
1.000000 0.831373 0.000000
0.000000 0.811765 0.196078
0.000000 0.811765 0.196078
0.003922 0.811765 0.192157
0.015686 0.807843 0.188235
0.105882 0.807843 0.184314
0.211765 0.803922 0.176471
0.309804 0.800000 0.164706
0.411765 0.807843 0.145098
0.501961 0.815686 0.117647
0.588235 0.827451 0.090196
0.662745 0.839216 0.070588
0.741176 0.850980 0.050980
0.819608 0.862745 0.027451
0.901961 0.870588 0.000000
0.992157 0.890196 0.000000
1.000000 0.882353 0.000000
0.047059 0.866667 0.301961
0.086275 0.866667 0.301961
0.133333 0.862745 0.298039
0.188235 0.862745 0.298039
0.254902 0.862745 0.294118
0.313725 0.858824 0.286275
0.376471 0.854902 0.282353
0.443137 0.858824 0.274510
0.517647 0.866667 0.258824
0.584314 0.874510 0.235294
0.650980 0.882353 0.207843
0.725490 0.890196 0.164706
0.796078 0.898039 0.109804
0.870588 0.905882 0.066667
0.949020 0.913725 0.015686
1.000000 0.925490 0.000000
0.290196 0.921569 0.427451
0.301961 0.921569 0.427451
0.317647 0.921569 0.427451
0.341176 0.921569 0.427451
0.372549 0.921569 0.423529
0.407843 0.917647 0.419608
0.447059 0.917647 0.419608
0.494118 0.917647 0.415686
0.545098 0.921569 0.407843
0.600000 0.925490 0.396078
0.658824 0.933333 0.376471
0.721569 0.937255 0.352941
0.780392 0.945098 0.313725
0.850980 0.949020 0.254902
0.921569 0.952941 0.152941
0.984314 0.956863 0.047059
0.450980 0.976471 0.572549
0.454902 0.976471 0.572549
0.462745 0.972549 0.572549
0.474510 0.972549 0.572549
0.498039 0.976471 0.576471
0.517647 0.976471 0.576471
0.545098 0.976471 0.576471
0.576471 0.972549 0.580392
0.611765 0.976471 0.576471
0.650980 0.980392 0.568627
0.690196 0.984314 0.552941
0.741176 0.988235 0.537255
0.788235 0.988235 0.509804
0.843137 0.992157 0.474510
0.901961 0.992157 0.419608
0.960784 0.996078 0.313725
0.003922 0.007843 0.129412
0.047059 0.007843 0.129412
0.101961 0.003922 0.125490
0.160784 0.003922 0.121569
0.274510 0.000000 0.109804
0.407843 0.000000 0.098039
0.552941 0.000000 0.086275
0.678431 0.000000 0.078431
0.788235 0.000000 0.066667
0.878431 0.000000 0.074510
0.937255 0.000000 0.070588
0.988235 0.000000 0.058824
1.000000 0.000000 0.043137
1.000000 0.000000 0.023529
1.000000 0.043137 0.000000
1.000000 0.137255 0.000000
0.003922 0.035294 0.125490
0.043137 0.035294 0.121569
0.098039 0.039216 0.121569
0.156863 0.039216 0.117647
0.270588 0.039216 0.105882
0.403922 0.035294 0.098039
0.549020 0.027451 0.086275
0.674510 0.019608 0.078431
0.784314 0.011765 0.066667
0.874510 0.019608 0.070588
0.933333 0.039216 0.066667
0.988235 0.058824 0.054902
1.000000 0.078431 0.035294
1.000000 0.098039 0.019608
1.000000 0.125490 0.000000
1.000000 0.184314 0.000000
0.000000 0.078431 0.113725
0.035294 0.082353 0.113725
0.086275 0.086275 0.113725
0.145098 0.090196 0.109804
0.262745 0.094118 0.101961
0.392157 0.086275 0.094118
0.541176 0.070588 0.086275
0.670588 0.047059 0.078431
0.776471 0.027451 0.066667
0.866667 0.058824 0.066667
0.925490 0.086275 0.058824
0.980392 0.125490 0.043137
1.000000 0.152941 0.023529
1.000000 0.184314 0.011765
1.000000 0.207843 0.000000
1.000000 0.243137 0.000000
0.000000 0.121569 0.094118
0.027451 0.125490 0.094118
0.066667 0.133333 0.098039
0.121569 0.145098 0.098039
0.243137 0.152941 0.094118
0.376471 0.145098 0.090196
0.529412 0.125490 0.086275
0.658824 0.098039 0.078431
0.760784 0.078431 0.066667
0.854902 0.113725 0.054902
0.917647 0.149020 0.043137
0.972549 0.192157 0.023529
1.000000 0.227451 0.003922
1.000000 0.266667 0.000000
1.000000 0.294118 0.000000
1.000000 0.317647 0.000000
0.000000 0.203922 0.098039
0.011765 0.207843 0.098039
0.035294 0.211765 0.098039
0.078431 0.223529 0.094118
0.203922 0.243137 0.086275
0.356863 0.262745 0.074510
0.509804 0.274510 0.070588
0.643137 0.270588 0.062745
0.745098 0.270588 0.043137
0.835294 0.290196 0.027451
0.898039 0.305882 0.011765
0.956863 0.329412 0.007843
0.996078 0.349020 0.000000
1.000000 0.368627 0.000000
1.000000 0.384314 0.000000
1.000000 0.396078 0.000000
0.000000 0.294118 0.105882
0.003922 0.298039 0.101961
0.007843 0.301961 0.101961
0.023529 0.309804 0.094118
0.137255 0.325490 0.078431
0.294118 0.352941 0.058824
0.474510 0.392157 0.031373
0.619608 0.407843 0.019608
0.721569 0.407843 0.011765
0.811765 0.415686 0.003922
0.878431 0.427451 0.000000
0.933333 0.439216 0.000000
0.988235 0.450980 0.000000
1.000000 0.462745 0.000000
1.000000 0.466667 0.000000
1.000000 0.470588 0.000000
0.000000 0.392157 0.098039
0.000000 0.392157 0.098039
0.000000 0.396078 0.094118
0.003922 0.396078 0.086275
0.058824 0.411765 0.078431
0.219608 0.435294 0.054902
0.400000 0.470588 0.015686
0.576471 0.509804 0.000000
0.694118 0.525490 0.000000
0.784314 0.525490 0.000000
0.854902 0.529412 0.000000
0.913725 0.529412 0.000000
0.972549 0.537255 0.000000
1.000000 0.541176 0.000000
1.000000 0.541176 0.000000
1.000000 0.541176 0.000000
0.000000 0.494118 0.090196
0.000000 0.494118 0.086275
0.000000 0.490196 0.086275
0.000000 0.486275 0.082353
0.007843 0.490196 0.074510
0.145098 0.505882 0.054902
0.329412 0.537255 0.019608
0.501961 0.568627 0.000000
0.658824 0.603922 0.000000
0.756863 0.615686 0.000000
0.827451 0.615686 0.000000
0.890196 0.611765 0.000000
0.952941 0.611765 0.000000
1.000000 0.611765 0.000000
1.000000 0.611765 0.000000
1.000000 0.607843 0.000000
0.000000 0.576471 0.090196
0.000000 0.572549 0.090196
0.000000 0.568627 0.086275
0.000000 0.564706 0.082353
0.003922 0.560784 0.074510
0.086275 0.572549 0.062745
0.274510 0.596078 0.035294
0.447059 0.619608 0.003922
0.588235 0.643137 0.000000
0.717647 0.674510 0.000000
0.807843 0.686275 0.000000
0.874510 0.682353 0.000000
0.933333 0.678431 0.000000
0.992157 0.674510 0.000000
1.000000 0.670588 0.000000
1.000000 0.662745 0.000000
0.000000 0.647059 0.101961
0.000000 0.643137 0.101961
0.000000 0.643137 0.098039
0.000000 0.639216 0.094118
0.000000 0.631373 0.090196
0.058824 0.635294 0.078431
0.243137 0.647059 0.062745
0.411765 0.670588 0.031373
0.545098 0.686275 0.003922
0.658824 0.705882 0.000000
0.764706 0.729412 0.000000
0.854902 0.745098 0.000000
0.917647 0.741176 0.000000
0.980392 0.737255 0.000000
1.000000 0.729412 0.000000
1.000000 0.721569 0.000000
0.000000 0.709804 0.125490
0.000000 0.705882 0.125490
0.000000 0.705882 0.121569
0.000000 0.701961 0.117647
0.003922 0.698039 0.113725
0.074510 0.694118 0.105882
0.243137 0.701961 0.094118
0.396078 0.713725 0.078431
0.517647 0.729412 0.050980
0.623529 0.745098 0.015686
0.717647 0.760784 0.000000
0.815686 0.780392 0.000000
0.901961 0.796078 0.000000
0.964706 0.792157 0.000000
1.000000 0.788235 0.000000
1.000000 0.776471 0.000000
0.000000 0.764706 0.168627
0.000000 0.760784 0.164706
0.000000 0.760784 0.164706
0.000000 0.756863 0.156863
0.023529 0.752941 0.152941
0.137255 0.749020 0.145098
0.270588 0.752941 0.133333
0.396078 0.760784 0.125490
0.505882 0.772549 0.109804
0.600000 0.784314 0.090196
0.686275 0.796078 0.054902
0.772549 0.811765 0.007843
0.858824 0.827451 0.000000
0.949020 0.843137 0.000000
1.000000 0.839216 0.000000
1.000000 0.831373 0.000000
0.000000 0.815686 0.239216
0.003922 0.815686 0.239216
0.011765 0.811765 0.239216
0.035294 0.811765 0.235294
0.137255 0.807843 0.227451
0.235294 0.803922 0.219608
0.325490 0.803922 0.215686
0.415686 0.807843 0.200000
0.505882 0.815686 0.180392
0.588235 0.827451 0.160784
0.666667 0.839216 0.137255
0.741176 0.850980 0.113725
0.819608 0.862745 0.062745
0.905882 0.870588 0.003922
0.992157 0.890196 0.000000
1.000000 0.882353 0.000000
0.090196 0.866667 0.329412
0.117647 0.866667 0.329412
0.160784 0.866667 0.329412
0.211765 0.862745 0.329412
0.266667 0.862745 0.325490
0.325490 0.858824 0.317647
0.384314 0.858824 0.309804
0.447059 0.858824 0.301961
0.517647 0.866667 0.294118
0.588235 0.874510 0.274510
0.654902 0.882353 0.254902
0.725490 0.890196 0.219608
0.796078 0.898039 0.180392
0.870588 0.905882 0.129412
0.949020 0.913725 0.039216
1.000000 0.925490 0.000000
0.305882 0.925490 0.447059
0.313725 0.925490 0.447059
0.325490 0.921569 0.447059
0.352941 0.921569 0.447059
0.380392 0.921569 0.443137
0.415686 0.921569 0.439216
0.454902 0.917647 0.435294
0.494118 0.917647 0.435294
0.549020 0.921569 0.431373
0.603922 0.925490 0.415686
0.658824 0.933333 0.400000
0.721569 0.937255 0.376471
0.780392 0.945098 0.345098
0.850980 0.949020 0.294118
0.921569 0.952941 0.215686
0.984314 0.956863 0.094118
0.454902 0.976471 0.580392
0.458824 0.976471 0.580392
0.466667 0.976471 0.580392
0.482353 0.972549 0.584314
0.501961 0.976471 0.584314
0.521569 0.976471 0.588235
0.549020 0.976471 0.588235
0.576471 0.972549 0.588235
0.611765 0.976471 0.588235
0.650980 0.980392 0.580392
0.694118 0.984314 0.568627
0.741176 0.984314 0.552941
0.792157 0.988235 0.521569
0.843137 0.992157 0.490196
0.901961 0.992157 0.439216
0.956863 0.992157 0.345098
0.000000 0.007843 0.200000
0.047059 0.007843 0.196078
0.105882 0.003922 0.192157
0.164706 0.000000 0.188235
0.278431 0.000000 0.172549
0.407843 0.000000 0.160784
0.549020 0.000000 0.149020
0.678431 0.000000 0.133333
0.788235 0.000000 0.117647
0.874510 0.000000 0.129412
0.933333 0.000000 0.117647
0.988235 0.000000 0.105882
1.000000 0.000000 0.086275
1.000000 0.000000 0.066667
1.000000 0.070588 0.027451
1.000000 0.156863 0.023529
0.000000 0.043137 0.192157
0.043137 0.043137 0.188235
0.101961 0.043137 0.188235
0.160784 0.043137 0.180392
0.274510 0.039216 0.168627
0.403922 0.035294 0.156863
0.545098 0.023529 0.149020
0.674510 0.011765 0.133333
0.784314 0.007843 0.117647
0.870588 0.019608 0.125490
0.929412 0.035294 0.113725
0.984314 0.062745 0.101961
1.000000 0.078431 0.082353
1.000000 0.105882 0.058824
1.000000 0.141176 0.027451
1.000000 0.196078 0.023529
0.000000 0.086275 0.172549
0.039216 0.090196 0.172549
0.094118 0.090196 0.172549
0.152941 0.098039 0.172549
0.270588 0.094118 0.164706
0.400000 0.082353 0.156863
0.541176 0.066667 0.145098
0.670588 0.039216 0.133333
0.776471 0.019608 0.117647
0.866667 0.050980 0.117647
0.925490 0.086275 0.105882
0.980392 0.125490 0.090196
1.000000 0.156863 0.062745
1.000000 0.188235 0.047059
1.000000 0.219608 0.023529
1.000000 0.254902 0.023529
0.000000 0.137255 0.149020
0.035294 0.137255 0.149020
0.082353 0.145098 0.152941
0.141176 0.152941 0.156863
0.258824 0.149020 0.152941
0.392157 0.141176 0.145098
0.537255 0.121569 0.141176
0.666667 0.086275 0.133333
0.768627 0.062745 0.117647
0.854902 0.105882 0.105882
0.917647 0.149020 0.090196
0.972549 0.196078 0.066667
1.000000 0.235294 0.035294
1.000000 0.278431 0.027451
1.000000 0.301961 0.023529
1.000000 0.325490 0.023529
0.000000 0.223529 0.152941
0.023529 0.223529 0.152941
0.058824 0.227451 0.152941
0.105882 0.235294 0.152941
0.227451 0.250980 0.141176
0.372549 0.262745 0.129412
0.525490 0.274510 0.125490
0.650980 0.266667 0.113725
0.749020 0.266667 0.094118
0.839216 0.290196 0.070588
0.898039 0.305882 0.047059
0.956863 0.329412 0.035294
0.996078 0.349020 0.027451
1.000000 0.376471 0.023529
1.000000 0.388235 0.023529
1.000000 0.403922 0.019608
0.000000 0.317647 0.164706
0.007843 0.321569 0.164706
0.015686 0.325490 0.156863
0.047059 0.329412 0.149020
0.168627 0.337255 0.137255
0.321569 0.360784 0.113725
0.494118 0.392157 0.074510
0.627451 0.403922 0.058824
0.729412 0.403922 0.043137
0.811765 0.415686 0.035294
0.882353 0.431373 0.027451
0.937255 0.439216 0.023529
0.988235 0.454902 0.023529
1.000000 0.462745 0.023529
1.000000 0.470588 0.023529
1.000000 0.474510 0.019608
0.000000 0.419608 0.160784
0.000000 0.419608 0.156863
0.003922 0.419608 0.152941
0.015686 0.419608 0.145098
0.094118 0.423529 0.133333
0.250980 0.439216 0.105882
0.423529 0.474510 0.050980
0.588235 0.509804 0.023529
0.701961 0.521569 0.023529
0.784314 0.525490 0.023529
0.854902 0.529412 0.023529
0.913725 0.529412 0.023529
0.972549 0.537255 0.023529
1.000000 0.545098 0.023529
1.000000 0.545098 0.023529
1.000000 0.545098 0.019608
0.000000 0.513725 0.149020
0.000000 0.513725 0.149020
0.000000 0.509804 0.145098
0.000000 0.505882 0.141176
0.023529 0.498039 0.129412
0.184314 0.513725 0.105882
