luts/chrome.cube
TITLE "chrome"
LUT_3D_SIZE 6
DOMAIN_MIN 0.0 0.0 0.0
DOMAIN_MAX 1.0 1.0 1.0
0.003922 0.007843 0.007843
0.156863 0.003922 0.003922
0.556863 0.000000 0.000000
0.882353 0.000000 0.000000
1.000000 0.000000 0.000000
1.000000 0.113725 0.000000
0.000000 0.109804 0.015686
0.098039 0.137255 0.000000
0.517647 0.133333 0.000000
0.854902 0.121569 0.000000
1.000000 0.223529 0.000000
1.000000 0.309804 0.000000
0.000000 0.368627 0.000000
0.000000 0.376471 0.000000
0.380392 0.466667 0.000000
0.780392 0.529412 0.000000
0.972549 0.533333 0.000000
1.000000 0.541176 0.000000
0.000000 0.635294 0.000000
0.000000 0.627451 0.000000
0.211765 0.647059 0.000000
0.654902 0.701961 0.000000
0.917647 0.741176 0.000000
1.000000 0.721569 0.000000
0.000000 0.811765 0.164706
0.007843 0.807843 0.156863
0.301961 0.800000 0.125490
0.584314 0.827451 0.015686
0.819608 0.862745 0.000000
1.000000 0.882353 0.000000
0.447059 0.976471 0.564706
0.474510 0.972549 0.568627
0.545098 0.972549 0.572549
0.650980 0.980392 0.560784
0.788235 0.988235 0.498039
0.960784 0.996078 0.294118
0.000000 0.007843 0.200000
0.164706 0.000000 0.188235
0.549020 0.000000 0.149020
0.874510 0.000000 0.129412
1.000000 0.000000 0.086275
1.000000 0.156863 0.023529
0.000000 0.137255 0.149020
0.141176 0.152941 0.156863
0.537255 0.121569 0.141176
0.854902 0.105882 0.105882
1.000000 0.235294 0.035294
1.000000 0.325490 0.023529
0.000000 0.419608 0.160784
0.015686 0.419608 0.145098
0.423529 0.474510 0.050980
0.784314 0.525490 0.023529
0.972549 0.537255 0.023529
1.000000 0.545098 0.019608
0.000000 0.654902 0.164706
0.000000 0.647059 0.156863
0.274510 0.650980 0.113725
0.666667 0.705882 0.023529
0.917647 0.741176 0.023529
1.000000 0.721569 0.027451
0.000000 0.815686 0.298039
0.066667 0.815686 0.290196
0.349020 0.807843 0.278431
0.592157 0.827451 0.231373
0.823529 0.862745 0.117647
1.000000 0.882353 0.019608
0.462745 0.976471 0.600000
0.490196 0.976471 0.600000
0.552941 0.976471 0.603922
0.654902 0.980392 0.596078
0.792157 0.988235 0.549020
0.956863 0.992157 0.388235
0.000000 0.000000 0.552941
0.066667 0.000000 0.549020
0.584314 0.000000 0.560784
0.862745 0.000000 0.521569
1.000000 0.000000 0.466667
1.000000 0.054902 0.423529
0.000000 0.149020 0.498039
0.098039 0.152941 0.509804
0.572549 0.082353 0.537255
0.850980 0.027451 0.509804
1.000000 0.160784 0.466667
1.000000 0.376471 0.466667
0.000000 0.466667 0.462745
0.101961 0.482353 0.478431
0.498039 0.494118 0.486275
0.780392 0.517647 0.490196
0.952941 0.560784 0.498039
1.000000 0.576471 0.482353
0.200000 0.694118 0.513725
0.317647 0.690196 0.513725
0.435294 0.678431 0.470588
0.682353 0.713725 0.462745
0.905882 0.737255 0.482353
1.000000 0.733333 0.498039
0.317647 0.827451 0.545098
0.337255 0.827451 0.529412
0.439216 0.819608 0.505882
0.600000 0.823529 0.482353
0.823529 0.862745 0.474510
1.000000 0.878431 0.450980
0.501961 0.976471 0.678431
0.521569 0.976471 0.678431
0.580392 0.976471 0.678431
0.666667 0.976471 0.674510
0.796078 0.988235 0.647059
0.956863 0.992157 0.564706
0.000000 0.000000 0.780392
0.192157 0.000000 0.784314
0.603922 0.000000 0.792157
0.850980 0.000000 0.796078
0.996078 0.000000 0.764706
1.000000 0.043137 0.717647
0.000000 0.152941 0.764706
0.219608 0.141176 0.764706
0.596078 0.113725 0.780392
0.831373 0.149020 0.788235
0.988235 0.196078 0.756863
1.000000 0.329412 0.717647
0.000000 0.462745 0.725490
0.078431 0.474510 0.733333
0.529412 0.501961 0.745098
0.772549 0.541176 0.764706
0.941176 0.556863 0.749020
1.000000 0.580392 0.725490
0.254902 0.709804 0.713725
0.364706 0.713725 0.713725
0.545098 0.717647 0.721569
0.709804 0.729412 0.729412
0.898039 0.745098 0.741176
1.000000 0.752941 0.741176
0.494118 0.850980 0.741176
0.521569 0.847059 0.741176
0.596078 0.843137 0.741176
0.650980 0.831373 0.701961
0.831373 0.862745 0.709804
1.000000 0.874510 0.717647
0.623529 0.976471 0.803922
0.631373 0.976471 0.800000
0.639216 0.976471 0.784314
0.698039 0.976471 0.768627
0.807843 0.984314 0.760784
0.956863 0.992157 0.725490
0.270588 0.000000 0.921569
0.407843 0.000000 0.921569
0.635294 0.000000 0.925490
0.827451 0.000000 0.929412
0.988235 0.137255 0.929412
1.000000 0.203922 0.898039
0.305882 0.172549 0.913725
0.423529 0.168627 0.913725
0.631373 0.192157 0.917647
0.811765 0.282353 0.921569
0.972549 0.364706 0.925490
1.000000 0.376471 0.894118
0.254902 0.486275 0.894118
0.400000 0.501961 0.898039
0.588235 0.521569 0.898039
0.768627 0.568627 0.905882
0.937255 0.603922 0.913725
1.000000 0.596078 0.890196
0.262745 0.701961 0.870588
0.349020 0.701961 0.870588
0.517647 0.701961 0.870588
0.721569 0.733333 0.886275
0.905882 0.760784 0.898039
1.000000 0.752941 0.886275
0.490196 0.858824 0.866667
0.525490 0.858824 0.866667
0.611765 0.862745 0.866667
0.733333 0.866667 0.870588
0.866667 0.878431 0.878431
1.000000 0.886275 0.886275
0.678431 0.980392 0.894118
0.694118 0.980392 0.894118
0.733333 0.980392 0.898039
0.792157 0.980392 0.898039
0.839216 0.980392 0.874510
0.968627 0.992157 0.866667
0.537255 0.160784 1.000000
0.584314 0.172549 1.000000
0.686275 0.215686 1.000000
0.811765 0.298039 1.000000
0.945098 0.411765 1.000000
1.000000 0.454902 1.000000
0.541176 0.341176 1.000000
0.584314 0.349020 1.000000
0.678431 0.376471 1.000000
0.800000 0.431373 1.000000
0.937255 0.505882 1.000000
1.000000 0.529412 1.000000
0.533333 0.584314 1.000000
0.572549 0.584314 1.000000
0.662745 0.600000 1.000000
0.784314 0.619608 1.000000
0.917647 0.654902 1.000000
1.000000 0.658824 1.000000
0.486275 0.725490 1.000000
0.525490 0.729412 1.000000
0.631373 0.741176 1.000000
0.768627 0.756863 1.000000
0.901961 0.776471 1.000000
1.000000 0.788235 1.000000
0.541176 0.870588 0.996078
0.564706 0.866667 0.996078
0.627451 0.866667 0.996078
0.729412 0.862745 0.996078
0.886275 0.882353 0.996078
1.000000 0.898039 0.992157
0.690196 0.984314 0.988235
0.705882 0.984314 0.988235
0.749020 0.984314 0.988235
0.815686 0.988235 0.988235
0.898039 0.988235 0.988235
0.988235 0.992157 0.992157
