luts/D1.cube
TITLE "D1"
LUT_3D_SIZE 16
DOMAIN_MIN 0.0 0.0 0.0
DOMAIN_MAX 1.0 1.0 1.0
0.011765 0.011765 0.011765
0.023529 0.023529 0.023529
0.043137 0.043137 0.043137
0.058824 0.058824 0.058824
0.082353 0.082353 0.082353
0.101961 0.101961 0.101961
0.125490 0.125490 0.125490
0.152941 0.152941 0.152941
0.176471 0.176471 0.176471
0.203922 0.203922 0.203922
0.231373 0.231373 0.231373
0.258824 0.258824 0.258824
0.290196 0.290196 0.290196
0.317647 0.317647 0.317647
0.349020 0.349020 0.349020
0.376471 0.376471 0.376471
0.043137 0.043137 0.043137
0.058824 0.058824 0.058824
0.082353 0.082353 0.082353
0.101961 0.101961 0.101961
0.125490 0.125490 0.125490
0.152941 0.152941 0.152941
0.176471 0.176471 0.176471
0.203922 0.203922 0.203922
0.231373 0.231373 0.231373
0.258824 0.258824 0.258824
0.290196 0.290196 0.290196
0.317647 0.317647 0.317647
0.349020 0.349020 0.349020
0.376471 0.376471 0.376471
0.407843 0.407843 0.407843
0.439216 0.439216 0.439216
0.082353 0.082353 0.082353
0.101961 0.101961 0.101961
0.125490 0.125490 0.125490
0.152941 0.152941 0.152941
0.176471 0.176471 0.176471
0.203922 0.203922 0.203922
0.231373 0.231373 0.231373
0.258824 0.258824 0.258824
0.290196 0.290196 0.290196
0.317647 0.317647 0.317647
0.349020 0.349020 0.349020
0.376471 0.376471 0.376471
0.407843 0.407843 0.407843
0.439216 0.439216 0.439216
0.466667 0.466667 0.466667
0.494118 0.494118 0.494118
0.125490 0.125490 0.125490
0.152941 0.152941 0.152941
0.176471 0.176471 0.176471
0.203922 0.203922 0.203922
0.231373 0.231373 0.231373
0.258824 0.258824 0.258824
0.290196 0.290196 0.290196
0.317647 0.317647 0.317647
0.349020 0.349020 0.349020
0.376471 0.376471 0.376471
0.407843 0.407843 0.407843
0.439216 0.439216 0.439216
0.466667 0.466667 0.466667
0.494118 0.494118 0.494118
0.525490 0.525490 0.525490
0.552941 0.552941 0.552941
0.176471 0.176471 0.176471
0.203922 0.203922 0.203922
0.231373 0.231373 0.231373
0.258824 0.258824 0.258824
0.290196 0.290196 0.290196
0.317647 0.317647 0.317647
0.349020 0.349020 0.349020
0.376471 0.376471 0.376471
0.407843 0.407843 0.407843
0.439216 0.439216 0.439216
0.466667 0.466667 0.466667
0.494118 0.494118 0.494118
0.525490 0.525490 0.525490
0.552941 0.552941 0.552941
0.580392 0.580392 0.580392
0.607843 0.607843 0.607843
0.231373 0.231373 0.231373
0.258824 0.258824 0.258824
0.290196 0.290196 0.290196
0.317647 0.317647 0.317647
0.349020 0.349020 0.349020
0.376471 0.376471 0.376471
0.407843 0.407843 0.407843
0.439216 0.439216 0.439216
0.466667 0.466667 0.466667
0.494118 0.494118 0.494118
0.525490 0.525490 0.525490
0.552941 0.552941 0.552941
0.580392 0.580392 0.580392
0.607843 0.607843 0.607843
0.635294 0.635294 0.635294
0.658824 0.658824 0.658824
0.290196 0.290196 0.290196
0.317647 0.317647 0.317647
0.349020 0.349020 0.349020
0.376471 0.376471 0.376471
0.407843 0.407843 0.407843
0.439216 0.439216 0.439216
0.466667 0.466667 0.466667
0.494118 0.494118 0.494118
0.525490 0.525490 0.525490
0.552941 0.552941 0.552941
0.580392 0.580392 0.580392
0.607843 0.607843 0.607843
0.635294 0.635294 0.635294
0.658824 0.658824 0.658824
0.682353 0.682353 0.682353
0.705882 0.705882 0.705882
0.349020 0.349020 0.349020
0.376471 0.376471 0.376471
0.407843 0.407843 0.407843
0.439216 0.439216 0.439216
0.466667 0.466667 0.466667
0.494118 0.494118 0.494118
0.525490 0.525490 0.525490
0.552941 0.552941 0.552941
0.580392 0.580392 0.580392
0.607843 0.607843 0.607843
0.635294 0.635294 0.635294
0.658824 0.658824 0.658824
0.682353 0.682353 0.682353
0.705882 0.705882 0.705882
0.729412 0.729412 0.729412
0.752941 0.752941 0.752941
0.407843 0.407843 0.407843
0.439216 0.439216 0.439216
0.466667 0.466667 0.466667
0.494118 0.494118 0.494118
0.525490 0.525490 0.525490
0.552941 0.552941 0.552941
0.580392 0.580392 0.580392
0.607843 0.607843 0.607843
0.635294 0.635294 0.635294
0.658824 0.658824 0.658824
0.682353 0.682353 0.682353
0.705882 0.705882 0.705882
0.729412 0.729412 0.729412
0.752941 0.752941 0.752941
0.772549 0.772549 0.772549
0.792157 0.792157 0.792157
0.466667 0.466667 0.466667
0.494118 0.494118 0.494118
0.525490 0.525490 0.525490
0.552941 0.552941 0.552941
0.580392 0.580392 0.580392
0.607843 0.607843 0.607843
0.635294 0.635294 0.635294
0.658824 0.658824 0.658824
0.682353 0.682353 0.682353
0.705882 0.705882 0.705882
0.729412 0.729412 0.729412
0.752941 0.752941 0.752941
0.772549 0.772549 0.772549
0.792157 0.792157 0.792157
0.811765 0.811765 0.811765
0.831373 0.831373 0.831373
0.525490 0.525490 0.525490
0.552941 0.552941 0.552941
0.580392 0.580392 0.580392
0.607843 0.607843 0.607843
0.635294 0.635294 0.635294
0.658824 0.658824 0.658824
0.682353 0.682353 0.682353
0.705882 0.705882 0.705882
0.729412 0.729412 0.729412
0.752941 0.752941 0.752941
0.772549 0.772549 0.772549
0.792157 0.792157 0.792157
0.811765 0.811765 0.811765
0.831373 0.831373 0.831373
0.847059 0.847059 0.847059
0.862745 0.862745 0.862745
0.580392 0.580392 0.580392
0.607843 0.607843 0.607843
0.635294 0.635294 0.635294
0.658824 0.658824 0.658824
0.682353 0.682353 0.682353
0.705882 0.705882 0.705882
0.729412 0.729412 0.729412
0.752941 0.752941 0.752941
0.772549 0.772549 0.772549
0.792157 0.792157 0.792157
0.811765 0.811765 0.811765
0.831373 0.831373 0.831373
0.847059 0.847059 0.847059
0.862745 0.862745 0.862745
0.878431 0.878431 0.878431
0.894118 0.894118 0.894118
0.635294 0.635294 0.635294
0.658824 0.658824 0.658824
0.682353 0.682353 0.682353
0.705882 0.705882 0.705882
0.729412 0.729412 0.729412
0.752941 0.752941 0.752941
0.772549 0.772549 0.772549
0.792157 0.792157 0.792157
0.811765 0.811765 0.811765
0.831373 0.831373 0.831373
0.847059 0.847059 0.847059
0.862745 0.862745 0.862745
0.878431 0.878431 0.878431
0.894118 0.894118 0.894118
0.905882 0.905882 0.905882
0.917647 0.917647 0.917647
0.682353 0.682353 0.682353
0.705882 0.705882 0.705882
0.729412 0.729412 0.729412
0.752941 0.752941 0.752941
0.772549 0.772549 0.772549
0.792157 0.792157 0.792157
0.811765 0.811765 0.811765
0.831373 0.831373 0.831373
0.847059 0.847059 0.847059
0.862745 0.862745 0.862745
0.878431 0.878431 0.878431
0.894118 0.894118 0.894118
0.905882 0.905882 0.905882
0.917647 0.917647 0.917647
0.929412 0.929412 0.929412
0.937255 0.937255 0.937255
0.729412 0.729412 0.729412
0.752941 0.752941 0.752941
0.772549 0.772549 0.772549
0.792157 0.792157 0.792157
0.811765 0.811765 0.811765
0.831373 0.831373 0.831373
0.847059 0.847059 0.847059
0.862745 0.862745 0.862745
0.878431 0.878431 0.878431
0.894118 0.894118 0.894118
0.905882 0.905882 0.905882
0.917647 0.917647 0.917647
0.929412 0.929412 0.929412
0.937255 0.937255 0.937255
0.949020 0.949020 0.949020
0.956863 0.956863 0.956863
0.772549 0.772549 0.772549
0.792157 0.792157 0.792157
0.811765 0.811765 0.811765
0.831373 0.831373 0.831373
0.847059 0.847059 0.847059
0.862745 0.862745 0.862745
0.878431 0.878431 0.878431
0.894118 0.894118 0.894118
0.905882 0.905882 0.905882
0.917647 0.917647 0.917647
0.929412 0.929412 0.929412
0.937255 0.937255 0.937255
0.949020 0.949020 0.949020
0.956863 0.956863 0.956863
0.964706 0.964706 0.964706
0.972549 0.972549 0.972549
0.015686 0.015686 0.015686
0.031373 0.031373 0.031373
0.047059 0.047059 0.047059
0.066667 0.066667 0.066667
0.086275 0.086275 0.086275
0.109804 0.109804 0.109804
0.133333 0.133333 0.133333
0.160784 0.160784 0.160784
0.188235 0.188235 0.188235
0.211765 0.211765 0.211765
0.243137 0.243137 0.243137
0.270588 0.270588 0.270588
0.298039 0.298039 0.298039
0.329412 0.329412 0.329412
0.356863 0.356863 0.356863
0.388235 0.388235 0.388235
0.047059 0.047059 0.047059
0.066667 0.066667 0.066667
0.086275 0.086275 0.086275
0.109804 0.109804 0.109804
0.133333 0.133333 0.133333
0.160784 0.160784 0.160784
0.188235 0.188235 0.188235
0.211765 0.211765 0.211765
0.243137 0.243137 0.243137
0.270588 0.270588 0.270588
0.298039 0.298039 0.298039
0.329412 0.329412 0.329412
0.356863 0.356863 0.356863
0.388235 0.388235 0.388235
0.415686 0.415686 0.415686
0.447059 0.447059 0.447059
0.086275 0.086275 0.086275
0.109804 0.109804 0.109804
0.133333 0.133333 0.133333
0.160784 0.160784 0.160784
0.188235 0.188235 0.188235
0.211765 0.211765 0.211765
0.243137 0.243137 0.243137
0.270588 0.270588 0.270588
0.298039 0.298039 0.298039
0.329412 0.329412 0.329412
0.356863 0.356863 0.356863
0.388235 0.388235 0.388235
0.415686 0.415686 0.415686
0.447059 0.447059 0.447059
0.474510 0.474510 0.474510
0.505882 0.505882 0.505882
0.133333 0.133333 0.133333
0.160784 0.160784 0.160784
0.188235 0.188235 0.188235
0.211765 0.211765 0.211765
0.243137 0.243137 0.243137
0.270588 0.270588 0.270588
0.298039 0.298039 0.298039
0.329412 0.329412 0.329412
0.356863 0.356863 0.356863
0.388235 0.388235 0.388235
0.415686 0.415686 0.415686
0.447059 0.447059 0.447059
0.474510 0.474510 0.474510
0.505882 0.505882 0.505882
0.533333 0.533333 0.533333
0.560784 0.560784 0.560784
0.188235 0.188235 0.188235
0.211765 0.211765 0.211765
0.243137 0.243137 0.243137
0.270588 0.270588 0.270588
0.298039 0.298039 0.298039
0.329412 0.329412 0.329412
0.356863 0.356863 0.356863
0.388235 0.388235 0.388235
0.415686 0.415686 0.415686
0.447059 0.447059 0.447059
0.474510 0.474510 0.474510
0.505882 0.505882 0.505882
0.533333 0.533333 0.533333
0.560784 0.560784 0.560784
0.588235 0.588235 0.588235
0.615686 0.615686 0.615686
0.243137 0.243137 0.243137
0.270588 0.270588 0.270588
0.298039 0.298039 0.298039
0.329412 0.329412 0.329412
0.356863 0.356863 0.356863
0.388235 0.388235 0.388235
0.415686 0.415686 0.415686
0.447059 0.447059 0.447059
0.474510 0.474510 0.474510
0.505882 0.505882 0.505882
0.533333 0.533333 0.533333
0.560784 0.560784 0.560784
0.588235 0.588235 0.588235
0.615686 0.615686 0.615686
0.643137 0.643137 0.643137
0.666667 0.666667 0.666667
0.298039 0.298039 0.298039
0.329412 0.329412 0.329412
0.356863 0.356863 0.356863
0.388235 0.388235 0.388235
0.415686 0.415686 0.415686
0.447059 0.447059 0.447059
0.474510 0.474510 0.474510
0.505882 0.505882 0.505882
0.533333 0.533333 0.533333
0.560784 0.560784 0.560784
0.588235 0.588235 0.588235
0.615686 0.615686 0.615686
0.643137 0.643137 0.643137
0.666667 0.666667 0.666667
0.690196 0.690196 0.690196
0.713725 0.713725 0.713725
0.356863 0.356863 0.356863
0.388235 0.388235 0.388235
0.415686 0.415686 0.415686
0.447059 0.447059 0.447059
0.474510 0.474510 0.474510
0.505882 0.505882 0.505882
0.533333 0.533333 0.533333
0.560784 0.560784 0.560784
0.588235 0.588235 0.588235
0.615686 0.615686 0.615686
0.643137 0.643137 0.643137
0.666667 0.666667 0.666667
0.690196 0.690196 0.690196
0.713725 0.713725 0.713725
0.737255 0.737255 0.737255
0.760784 0.760784 0.760784
0.415686 0.415686 0.415686
0.447059 0.447059 0.447059
0.474510 0.474510 0.474510
0.505882 0.505882 0.505882
0.533333 0.533333 0.533333
0.560784 0.560784 0.560784
0.588235 0.588235 0.588235
0.615686 0.615686 0.615686
0.643137 0.643137 0.643137
0.666667 0.666667 0.666667
0.690196 0.690196 0.690196
0.713725 0.713725 0.713725
0.737255 0.737255 0.737255
0.760784 0.760784 0.760784
0.780392 0.780392 0.780392
0.800000 0.800000 0.800000
0.474510 0.474510 0.474510
0.505882 0.505882 0.505882
0.533333 0.533333 0.533333
0.560784 0.560784 0.560784
0.588235 0.588235 0.588235
0.615686 0.615686 0.615686
0.643137 0.643137 0.643137
0.666667 0.666667 0.666667
0.690196 0.690196 0.690196
0.713725 0.713725 0.713725
0.737255 0.737255 0.737255
0.760784 0.760784 0.760784
0.780392 0.780392 0.780392
0.800000 0.800000 0.800000
0.819608 0.819608 0.819608
0.835294 0.835294 0.835294
0.533333 0.533333 0.533333
0.560784 0.560784 0.560784
0.588235 0.588235 0.588235
0.615686 0.615686 0.615686
0.643137 0.643137 0.643137
0.666667 0.666667 0.666667
0.690196 0.690196 0.690196
0.713725 0.713725 0.713725
0.737255 0.737255 0.737255
0.760784 0.760784 0.760784
0.780392 0.780392 0.780392
0.800000 0.800000 0.800000
0.819608 0.819608 0.819608
0.835294 0.835294 0.835294
0.854902 0.854902 0.854902
0.870588 0.870588 0.870588
0.588235 0.588235 0.588235
0.615686 0.615686 0.615686
0.643137 0.643137 0.643137
0.666667 0.666667 0.666667
0.690196 0.690196 0.690196
0.713725 0.713725 0.713725
0.737255 0.737255 0.737255
0.760784 0.760784 0.760784
0.780392 0.780392 0.780392
0.800000 0.800000 0.800000
0.819608 0.819608 0.819608
0.835294 0.835294 0.835294
0.854902 0.854902 0.854902
0.870588 0.870588 0.870588
0.882353 0.882353 0.882353
0.898039 0.898039 0.898039
0.643137 0.643137 0.643137
0.666667 0.666667 0.666667
0.690196 0.690196 0.690196
0.713725 0.713725 0.713725
0.737255 0.737255 0.737255
0.760784 0.760784 0.760784
0.780392 0.780392 0.780392
0.800000 0.800000 0.800000
0.819608 0.819608 0.819608
0.835294 0.835294 0.835294
0.854902 0.854902 0.854902
0.870588 0.870588 0.870588
0.882353 0.882353 0.882353
0.898039 0.898039 0.898039
0.909804 0.909804 0.909804
0.921569 0.921569 0.921569
0.690196 0.690196 0.690196
0.713725 0.713725 0.713725
0.737255 0.737255 0.737255
0.760784 0.760784 0.760784
0.780392 0.780392 0.780392
0.800000 0.800000 0.800000
0.819608 0.819608 0.819608
0.835294 0.835294 0.835294
0.854902 0.854902 0.854902
0.870588 0.870588 0.870588
0.882353 0.882353 0.882353
0.898039 0.898039 0.898039
0.909804 0.909804 0.909804
0.921569 0.921569 0.921569
0.933333 0.933333 0.933333
0.941176 0.941176 0.941176
0.737255 0.737255 0.737255
0.760784 0.760784 0.760784
0.780392 0.780392 0.780392
0.800000 0.800000 0.800000
0.819608 0.819608 0.819608
0.835294 0.835294 0.835294
0.854902 0.854902 0.854902
0.870588 0.870588 0.870588
0.882353 0.882353 0.882353
0.898039 0.898039 0.898039
0.909804 0.909804 0.909804
0.921569 0.921569 0.921569
0.933333 0.933333 0.933333
0.941176 0.941176 0.941176
0.952941 0.952941 0.952941
0.960784 0.960784 0.960784
0.780392 0.780392 0.780392
0.800000 0.800000 0.800000
0.819608 0.819608 0.819608
0.835294 0.835294 0.835294
0.854902 0.854902 0.854902
0.870588 0.870588 0.870588
0.882353 0.882353 0.882353
0.898039 0.898039 0.898039
0.909804 0.909804 0.909804
0.921569 0.921569 0.921569
0.933333 0.933333 0.933333
0.941176 0.941176 0.941176
0.952941 0.952941 0.952941
0.960784 0.960784 0.960784
0.968627 0.968627 0.968627
0.972549 0.972549 0.972549
0.019608 0.019608 0.019608
0.035294 0.035294 0.035294
0.054902 0.054902 0.054902
0.074510 0.074510 0.074510
0.094118 0.094118 0.094118
0.117647 0.117647 0.117647
0.141176 0.141176 0.141176
0.168627 0.168627 0.168627
0.196078 0.196078 0.196078
0.223529 0.223529 0.223529
0.250980 0.250980 0.250980
0.278431 0.278431 0.278431
0.309804 0.309804 0.309804
0.337255 0.337255 0.337255
0.368627 0.368627 0.368627
0.396078 0.396078 0.396078
0.054902 0.054902 0.054902
0.074510 0.074510 0.074510
0.094118 0.094118 0.094118
0.117647 0.117647 0.117647
0.141176 0.141176 0.141176
0.168627 0.168627 0.168627
0.196078 0.196078 0.196078
0.223529 0.223529 0.223529
0.250980 0.250980 0.250980
0.278431 0.278431 0.278431
0.309804 0.309804 0.309804
0.337255 0.337255 0.337255
0.368627 0.368627 0.368627
0.396078 0.396078 0.396078
0.427451 0.427451 0.427451
0.458824 0.458824 0.458824
0.094118 0.094118 0.094118
0.117647 0.117647 0.117647
0.141176 0.141176 0.141176
0.168627 0.168627 0.168627
0.196078 0.196078 0.196078
0.223529 0.223529 0.223529
0.250980 0.250980 0.250980
0.278431 0.278431 0.278431
0.309804 0.309804 0.309804
0.337255 0.337255 0.337255
0.368627 0.368627 0.368627
0.396078 0.396078 0.396078
0.427451 0.427451 0.427451
0.458824 0.458824 0.458824
0.486275 0.486275 0.486275
0.513725 0.513725 0.513725
0.141176 0.141176 0.141176
0.168627 0.168627 0.168627
0.196078 0.196078 0.196078
0.223529 0.223529 0.223529
0.250980 0.250980 0.250980
0.278431 0.278431 0.278431
0.309804 0.309804 0.309804
0.337255 0.337255 0.337255
0.368627 0.368627 0.368627
0.396078 0.396078 0.396078
0.427451 0.427451 0.427451
0.458824 0.458824 0.458824
0.486275 0.486275 0.486275
0.513725 0.513725 0.513725
0.545098 0.545098 0.545098
0.572549 0.572549 0.572549
0.196078 0.196078 0.196078
0.223529 0.223529 0.223529
0.250980 0.250980 0.250980
0.278431 0.278431 0.278431
0.309804 0.309804 0.309804
0.337255 0.337255 0.337255
0.368627 0.368627 0.368627
0.396078 0.396078 0.396078
0.427451 0.427451 0.427451
0.458824 0.458824 0.458824
0.486275 0.486275 0.486275
0.513725 0.513725 0.513725
0.545098 0.545098 0.545098
0.572549 0.572549 0.572549
0.600000 0.600000 0.600000
0.623529 0.623529 0.623529
0.250980 0.250980 0.250980
0.278431 0.278431 0.278431
0.309804 0.309804 0.309804
0.337255 0.337255 0.337255
0.368627 0.368627 0.368627
0.396078 0.396078 0.396078
0.427451 0.427451 0.427451
0.458824 0.458824 0.458824
0.486275 0.486275 0.486275
0.513725 0.513725 0.513725
0.545098 0.545098 0.545098
0.572549 0.572549 0.572549
0.600000 0.600000 0.600000
0.623529 0.623529 0.623529
0.650980 0.650980 0.650980
0.674510 0.674510 0.674510
0.309804 0.309804 0.309804
0.337255 0.337255 0.337255
0.368627 0.368627 0.368627
0.396078 0.396078 0.396078
0.427451 0.427451 0.427451
0.458824 0.458824 0.458824
0.486275 0.486275 0.486275
0.513725 0.513725 0.513725
0.545098 0.545098 0.545098
0.572549 0.572549 0.572549
0.600000 0.600000 0.600000
0.623529 0.623529 0.623529
0.650980 0.650980 0.650980
0.674510 0.674510 0.674510
0.698039 0.698039 0.698039
0.721569 0.721569 0.721569
0.368627 0.368627 0.368627
0.396078 0.396078 0.396078
0.427451 0.427451 0.427451
0.458824 0.458824 0.458824
0.486275 0.486275 0.486275
0.513725 0.513725 0.513725
0.545098 0.545098 0.545098
0.572549 0.572549 0.572549
0.600000 0.600000 0.600000
0.623529 0.623529 0.623529
0.650980 0.650980 0.650980
0.674510 0.674510 0.674510
0.698039 0.698039 0.698039
0.721569 0.721569 0.721569
0.745098 0.745098 0.745098
0.768627 0.768627 0.768627
0.427451 0.427451 0.427451
0.458824 0.458824 0.458824
0.486275 0.486275 0.486275
0.513725 0.513725 0.513725
0.545098 0.545098 0.545098
0.572549 0.572549 0.572549
0.600000 0.600000 0.600000
0.623529 0.623529 0.623529
0.650980 0.650980 0.650980
0.674510 0.674510 0.674510
0.698039 0.698039 0.698039
0.721569 0.721569 0.721569
0.745098 0.745098 0.745098
0.768627 0.768627 0.768627
0.788235 0.788235 0.788235
0.807843 0.807843 0.807843
0.486275 0.486275 0.486275
0.513725 0.513725 0.513725
0.545098 0.545098 0.545098
0.572549 0.572549 0.572549
0.600000 0.600000 0.600000
0.623529 0.623529 0.623529
0.650980 0.650980 0.650980
0.674510 0.674510 0.674510
0.698039 0.698039 0.698039
0.721569 0.721569 0.721569
0.745098 0.745098 0.745098
0.768627 0.768627 0.768627
0.788235 0.788235 0.788235
0.807843 0.807843 0.807843
0.823529 0.823529 0.823529
0.843137 0.843137 0.843137
0.545098 0.545098 0.545098
0.572549 0.572549 0.572549
0.600000 0.600000 0.600000
0.623529 0.623529 0.623529
0.650980 0.650980 0.650980
0.674510 0.674510 0.674510
0.698039 0.698039 0.698039
0.721569 0.721569 0.721569
0.745098 0.745098 0.745098
0.768627 0.768627 0.768627
0.788235 0.788235 0.788235
0.807843 0.807843 0.807843
0.823529 0.823529 0.823529
0.843137 0.843137 0.843137
0.858824 0.858824 0.858824
0.874510 0.874510 0.874510
0.600000 0.600000 0.600000
0.623529 0.623529 0.623529
0.650980 0.650980 0.650980
0.674510 0.674510 0.674510
0.698039 0.698039 0.698039
0.721569 0.721569 0.721569
0.745098 0.745098 0.745098
0.768627 0.768627 0.768627
0.788235 0.788235 0.788235
0.807843 0.807843 0.807843
0.823529 0.823529 0.823529
0.843137 0.843137 0.843137
0.858824 0.858824 0.858824
0.874510 0.874510 0.874510
0.886275 0.886275 0.886275
0.901961 0.901961 0.901961
0.650980 0.650980 0.650980
0.674510 0.674510 0.674510
0.698039 0.698039 0.698039
0.721569 0.721569 0.721569
0.745098 0.745098 0.745098
0.768627 0.768627 0.768627
0.788235 0.788235 0.788235
0.807843 0.807843 0.807843
0.823529 0.823529 0.823529
0.843137 0.843137 0.843137
0.858824 0.858824 0.858824
0.874510 0.874510 0.874510
0.886275 0.886275 0.886275
0.901961 0.901961 0.901961
0.913725 0.913725 0.913725
0.925490 0.925490 0.925490
0.698039 0.698039 0.698039
0.721569 0.721569 0.721569
0.745098 0.745098 0.745098
0.768627 0.768627 0.768627
0.788235 0.788235 0.788235
0.807843 0.807843 0.807843
0.823529 0.823529 0.823529
0.843137 0.843137 0.843137
0.858824 0.858824 0.858824
0.874510 0.874510 0.874510
0.886275 0.886275 0.886275
0.901961 0.901961 0.901961
0.913725 0.913725 0.913725
0.925490 0.925490 0.925490
0.937255 0.937255 0.937255
0.945098 0.945098 0.945098
0.745098 0.745098 0.745098
0.768627 0.768627 0.768627
0.788235 0.788235 0.788235
0.807843 0.807843 0.807843
0.823529 0.823529 0.823529
0.843137 0.843137 0.843137
0.858824 0.858824 0.858824
0.874510 0.874510 0.874510
0.886275 0.886275 0.886275
0.901961 0.901961 0.901961
0.913725 0.913725 0.913725
0.925490 0.925490 0.925490
0.937255 0.937255 0.937255
0.945098 0.945098 0.945098
0.952941 0.952941 0.952941
0.960784 0.960784 0.960784
0.788235 0.788235 0.788235
0.807843 0.807843 0.807843
0.823529 0.823529 0.823529
0.843137 0.843137 0.843137
0.858824 0.858824 0.858824
0.874510 0.874510 0.874510
0.886275 0.886275 0.886275
0.901961 0.901961 0.901961
0.913725 0.913725 0.913725
0.925490 0.925490 0.925490
0.937255 0.937255 0.937255
0.945098 0.945098 0.945098
0.952941 0.952941 0.952941
0.960784 0.960784 0.960784
0.968627 0.968627 0.968627
0.976471 0.976471 0.976471
0.023529 0.023529 0.023529
0.043137 0.043137 0.043137
0.058824 0.058824 0.058824
0.082353 0.082353 0.082353
0.101961 0.101961 0.101961
0.125490 0.125490 0.125490
0.152941 0.152941 0.152941
0.176471 0.176471 0.176471
0.203922 0.203922 0.203922
0.231373 0.231373 0.231373
0.258824 0.258824 0.258824
0.290196 0.290196 0.290196
0.317647 0.317647 0.317647
0.349020 0.349020 0.349020
0.376471 0.376471 0.376471
0.407843 0.407843 0.407843
0.058824 0.058824 0.058824
0.082353 0.082353 0.082353
0.101961 0.101961 0.101961
0.125490 0.125490 0.125490
0.152941 0.152941 0.152941
0.176471 0.176471 0.176471
0.203922 0.203922 0.203922
0.231373 0.231373 0.231373
0.258824 0.258824 0.258824
0.290196 0.290196 0.290196
0.317647 0.317647 0.317647
0.349020 0.349020 0.349020
0.376471 0.376471 0.376471
0.407843 0.407843 0.407843
0.439216 0.439216 0.439216
0.466667 0.466667 0.466667
0.101961 0.101961 0.101961
0.125490 0.125490 0.125490
0.152941 0.152941 0.152941
0.176471 0.176471 0.176471
0.203922 0.203922 0.203922
0.231373 0.231373 0.231373
0.258824 0.258824 0.258824
0.290196 0.290196 0.290196
0.317647 0.317647 0.317647
0.349020 0.349020 0.349020
0.376471 0.376471 0.376471
0.407843 0.407843 0.407843
0.439216 0.439216 0.439216
0.466667 0.466667 0.466667
0.494118 0.494118 0.494118
0.525490 0.525490 0.525490
0.152941 0.152941 0.152941
0.176471 0.176471 0.176471
0.203922 0.203922 0.203922
0.231373 0.231373 0.231373
0.258824 0.258824 0.258824
0.290196 0.290196 0.290196
0.317647 0.317647 0.317647
0.349020 0.349020 0.349020
0.376471 0.376471 0.376471
0.407843 0.407843 0.407843
0.439216 0.439216 0.439216
0.466667 0.466667 0.466667
0.494118 0.494118 0.494118
0.525490 0.525490 0.525490
0.552941 0.552941 0.552941
0.580392 0.580392 0.580392
0.203922 0.203922 0.203922
0.231373 0.231373 0.231373
0.258824 0.258824 0.258824
0.290196 0.290196 0.290196
0.317647 0.317647 0.317647
0.349020 0.349020 0.349020
0.376471 0.376471 0.376471
0.407843 0.407843 0.407843
0.439216 0.439216 0.439216
0.466667 0.466667 0.466667
0.494118 0.494118 0.494118
0.525490 0.525490 0.525490
0.552941 0.552941 0.552941
0.580392 0.580392 0.580392
0.607843 0.607843 0.607843
0.635294 0.635294 0.635294
0.258824 0.258824 0.258824
0.290196 0.290196 0.290196
0.317647 0.317647 0.317647
0.349020 0.349020 0.349020
0.376471 0.376471 0.376471
0.407843 0.407843 0.407843
0.439216 0.439216 0.439216
0.466667 0.466667 0.466667
0.494118 0.494118 0.494118
0.525490 0.525490 0.525490
0.552941 0.552941 0.552941
0.580392 0.580392 0.580392
0.607843 0.607843 0.607843
0.635294 0.635294 0.635294
0.658824 0.658824 0.658824
0.682353 0.682353 0.682353
0.317647 0.317647 0.317647
0.349020 0.349020 0.349020
0.376471 0.376471 0.376471
0.407843 0.407843 0.407843
0.439216 0.439216 0.439216
0.466667 0.466667 0.466667
0.494118 0.494118 0.494118
0.525490 0.525490 0.525490
0.552941 0.552941 0.552941
0.580392 0.580392 0.580392
0.607843 0.607843 0.607843
0.635294 0.635294 0.635294
0.658824 0.658824 0.658824
0.682353 0.682353 0.682353
0.705882 0.705882 0.705882
0.729412 0.729412 0.729412
0.376471 0.376471 0.376471
0.407843 0.407843 0.407843
0.439216 0.439216 0.439216
0.466667 0.466667 0.466667
0.494118 0.494118 0.494118
0.525490 0.525490 0.525490
