luts/D1.cube
TITLE "D1"
LUT_3D_SIZE 6
DOMAIN_MIN 0.0 0.0 0.0
DOMAIN_MAX 1.0 1.0 1.0
0.011765 0.011765 0.011765
0.058824 0.058824 0.058824
0.125490 0.125490 0.125490
0.203922 0.203922 0.203922
0.290196 0.290196 0.290196
0.376471 0.376471 0.376471
0.125490 0.125490 0.125490
0.203922 0.203922 0.203922
0.290196 0.290196 0.290196
0.376471 0.376471 0.376471
0.466667 0.466667 0.466667
0.552941 0.552941 0.552941
0.290196 0.290196 0.290196
0.376471 0.376471 0.376471
0.466667 0.466667 0.466667
0.552941 0.552941 0.552941
0.635294 0.635294 0.635294
0.705882 0.705882 0.705882
0.466667 0.466667 0.466667
0.552941 0.552941 0.552941
0.635294 0.635294 0.635294
0.705882 0.705882 0.705882
0.772549 0.772549 0.772549
0.831373 0.831373 0.831373
0.635294 0.635294 0.635294
0.705882 0.705882 0.705882
0.772549 0.772549 0.772549
0.831373 0.831373 0.831373
0.878431 0.878431 0.878431
0.917647 0.917647 0.917647
0.772549 0.772549 0.772549
0.831373 0.831373 0.831373
0.878431 0.878431 0.878431
0.917647 0.917647 0.917647
0.949020 0.949020 0.949020
0.972549 0.972549 0.972549
0.023529 0.023529 0.023529
0.082353 0.082353 0.082353
0.152941 0.152941 0.152941
0.231373 0.231373 0.231373
0.317647 0.317647 0.317647
0.407843 0.407843 0.407843
0.152941 0.152941 0.152941
0.231373 0.231373 0.231373
0.317647 0.317647 0.317647
0.407843 0.407843 0.407843
0.494118 0.494118 0.494118
0.580392 0.580392 0.580392
0.317647 0.317647 0.317647
0.407843 0.407843 0.407843
0.494118 0.494118 0.494118
0.580392 0.580392 0.580392
0.658824 0.658824 0.658824
0.729412 0.729412 0.729412
0.494118 0.494118 0.494118
0.580392 0.580392 0.580392
0.658824 0.658824 0.658824
0.729412 0.729412 0.729412
0.792157 0.792157 0.792157
0.847059 0.847059 0.847059
0.658824 0.658824 0.658824
0.729412 0.729412 0.729412
0.792157 0.792157 0.792157
0.847059 0.847059 0.847059
0.894118 0.894118 0.894118
0.929412 0.929412 0.929412
0.792157 0.792157 0.792157
0.847059 0.847059 0.847059
0.894118 0.894118 0.894118
0.929412 0.929412 0.929412
0.956863 0.956863 0.956863
0.980392 0.980392 0.980392
0.043137 0.043137 0.043137
0.101961 0.101961 0.101961
0.176471 0.176471 0.176471
0.258824 0.258824 0.258824
0.349020 0.349020 0.349020
0.439216 0.439216 0.439216
0.176471 0.176471 0.176471
0.258824 0.258824 0.258824
0.349020 0.349020 0.349020
0.439216 0.439216 0.439216
0.525490 0.525490 0.525490
0.607843 0.607843 0.607843
0.349020 0.349020 0.349020
0.439216 0.439216 0.439216
0.525490 0.525490 0.525490
0.607843 0.607843 0.607843
0.682353 0.682353 0.682353
0.752941 0.752941 0.752941
0.525490 0.525490 0.525490
0.607843 0.607843 0.607843
0.682353 0.682353 0.682353
0.752941 0.752941 0.752941
0.811765 0.811765 0.811765
0.862745 0.862745 0.862745
0.682353 0.682353 0.682353
0.752941 0.752941 0.752941
0.811765 0.811765 0.811765
0.862745 0.862745 0.862745
0.905882 0.905882 0.905882
0.937255 0.937255 0.937255
0.811765 0.811765 0.811765
0.862745 0.862745 0.862745
0.905882 0.905882 0.905882
0.937255 0.937255 0.937255
0.964706 0.964706 0.964706
0.984314 0.984314 0.984314
0.058824 0.058824 0.058824
0.125490 0.125490 0.125490
0.203922 0.203922 0.203922
0.290196 0.290196 0.290196
0.376471 0.376471 0.376471
0.466667 0.466667 0.466667
0.203922 0.203922 0.203922
0.290196 0.290196 0.290196
0.376471 0.376471 0.376471
0.466667 0.466667 0.466667
0.552941 0.552941 0.552941
0.635294 0.635294 0.635294
0.376471 0.376471 0.376471
0.466667 0.466667 0.466667
0.552941 0.552941 0.552941
0.635294 0.635294 0.635294
0.705882 0.705882 0.705882
0.772549 0.772549 0.772549
0.552941 0.552941 0.552941
0.635294 0.635294 0.635294
0.705882 0.705882 0.705882
0.772549 0.772549 0.772549
0.831373 0.831373 0.831373
0.878431 0.878431 0.878431
0.705882 0.705882 0.705882
0.772549 0.772549 0.772549
0.831373 0.831373 0.831373
0.878431 0.878431 0.878431
0.917647 0.917647 0.917647
0.949020 0.949020 0.949020
0.831373 0.831373 0.831373
0.878431 0.878431 0.878431
0.917647 0.917647 0.917647
0.949020 0.949020 0.949020
0.972549 0.972549 0.972549
0.992157 0.992157 0.992157
0.082353 0.082353 0.082353
0.152941 0.152941 0.152941
0.231373 0.231373 0.231373
0.317647 0.317647 0.317647
0.407843 0.407843 0.407843
0.494118 0.494118 0.494118
0.231373 0.231373 0.231373
0.317647 0.317647 0.317647
0.407843 0.407843 0.407843
0.494118 0.494118 0.494118
0.580392 0.580392 0.580392
0.658824 0.658824 0.658824
0.407843 0.407843 0.407843
0.494118 0.494118 0.494118
0.580392 0.580392 0.580392
0.658824 0.658824 0.658824
0.729412 0.729412 0.729412
0.792157 0.792157 0.792157
0.580392 0.580392 0.580392
0.658824 0.658824 0.658824
0.729412 0.729412 0.729412
0.792157 0.792157 0.792157
0.847059 0.847059 0.847059
0.894118 0.894118 0.894118
0.729412 0.729412 0.729412
0.792157 0.792157 0.792157
0.847059 0.847059 0.847059
0.894118 0.894118 0.894118
0.929412 0.929412 0.929412
0.956863 0.956863 0.956863
0.847059 0.847059 0.847059
0.894118 0.894118 0.894118
0.929412 0.929412 0.929412
0.956863 0.956863 0.956863
0.980392 0.980392 0.980392
0.996078 0.996078 0.996078
0.101961 0.101961 0.101961
0.176471 0.176471 0.176471
0.258824 0.258824 0.258824
0.349020 0.349020 0.349020
0.439216 0.439216 0.439216
0.525490 0.525490 0.525490
0.258824 0.258824 0.258824
0.349020 0.349020 0.349020
0.439216 0.439216 0.439216
0.525490 0.525490 0.525490
0.607843 0.607843 0.607843
0.682353 0.682353 0.682353
0.439216 0.439216 0.439216
0.525490 0.525490 0.525490
0.607843 0.607843 0.607843
0.682353 0.682353 0.682353
0.752941 0.752941 0.752941
0.811765 0.811765 0.811765
0.607843 0.607843 0.607843
0.682353 0.682353 0.682353
0.752941 0.752941 0.752941
0.811765 0.811765 0.811765
0.862745 0.862745 0.862745
0.905882 0.905882 0.905882
0.752941 0.752941 0.752941
0.811765 0.811765 0.811765
0.862745 0.862745 0.862745
0.905882 0.905882 0.905882
0.937255 0.937255 0.937255
0.964706 0.964706 0.964706
0.862745 0.862745 0.862745
0.905882 0.905882 0.905882
0.937255 0.937255 0.937255
0.964706 0.964706 0.964706
0.984314 0.984314 0.984314
1.000000 1.000000 1.000000
