luts/fade.cube
TITLE "fade"
LUT_3D_SIZE 16
DOMAIN_MIN 0.0 0.0 0.0
DOMAIN_MAX 1.0 1.0 1.0
0.000000 0.000000 0.000000
0.011765 0.000000 0.000000
0.043137 0.000000 0.000000
0.074510 0.000000 0.000000
0.113725 0.000000 0.000000
0.164706 0.000000 0.000000
0.215686 0.000000 0.000000
0.278431 0.000000 0.000000
0.345098 0.000000 0.000000
0.427451 0.000000 0.000000
0.517647 0.000000 0.003922
0.600000 0.000000 0.003922
0.678431 0.000000 0.003922
0.756863 0.000000 0.007843
0.827451 0.003922 0.011765
0.886275 0.003922 0.015686
0.015686 0.035294 0.011765
0.035294 0.035294 0.011765
0.066667 0.039216 0.011765
0.098039 0.039216 0.011765
0.137255 0.035294 0.011765
0.184314 0.035294 0.011765
0.235294 0.039216 0.011765
0.294118 0.039216 0.015686
0.360784 0.039216 0.015686
0.443137 0.039216 0.015686
0.529412 0.043137 0.019608
0.611765 0.043137 0.023529
0.686275 0.043137 0.027451
0.760784 0.039216 0.027451
0.831373 0.043137 0.035294
0.890196 0.043137 0.039216
0.050980 0.090196 0.031373
0.070588 0.090196 0.031373
0.098039 0.090196 0.031373
0.133333 0.090196 0.031373
0.172549 0.090196 0.035294
0.215686 0.090196 0.035294
0.266667 0.094118 0.039216
0.325490 0.094118 0.043137
0.392157 0.094118 0.043137
0.474510 0.094118 0.047059
0.552941 0.094118 0.050980
0.635294 0.098039 0.054902
0.701961 0.094118 0.058824
0.772549 0.094118 0.066667
0.843137 0.094118 0.074510
0.898039 0.094118 0.078431
0.086275 0.141176 0.058824
0.105882 0.141176 0.062745
0.133333 0.141176 0.062745
0.172549 0.141176 0.062745
0.211765 0.141176 0.066667
0.258824 0.141176 0.066667
0.309804 0.145098 0.070588
0.368627 0.145098 0.074510
0.439216 0.145098 0.078431
0.513725 0.145098 0.082353
0.588235 0.149020 0.086275
0.662745 0.152941 0.090196
0.725490 0.149020 0.098039
0.788235 0.149020 0.101961
0.850980 0.149020 0.113725
0.905882 0.145098 0.117647
0.133333 0.200000 0.090196
0.149020 0.200000 0.094118
0.172549 0.200000 0.094118
0.203922 0.203922 0.098039
0.243137 0.203922 0.101961
0.286275 0.203922 0.101961
0.337255 0.203922 0.105882
0.396078 0.203922 0.109804
0.466667 0.207843 0.113725
0.541176 0.207843 0.117647
0.611765 0.207843 0.121569
0.678431 0.211765 0.129412
0.745098 0.207843 0.133333
0.800000 0.207843 0.137255
0.858824 0.207843 0.145098
0.909804 0.203922 0.152941
0.180392 0.270588 0.133333
0.192157 0.270588 0.133333
0.211765 0.270588 0.133333
0.239216 0.270588 0.133333
0.278431 0.270588 0.137255
0.325490 0.270588 0.141176
0.372549 0.270588 0.141176
0.431373 0.274510 0.149020
0.501961 0.274510 0.149020
0.572549 0.278431 0.156863
0.635294 0.278431 0.160784
0.698039 0.278431 0.164706
0.756863 0.278431 0.168627
0.811765 0.278431 0.176471
0.866667 0.274510 0.184314
0.913725 0.274510 0.196078
0.227451 0.341176 0.168627
0.239216 0.341176 0.172549
0.254902 0.345098 0.172549
0.282353 0.345098 0.176471
0.321569 0.345098 0.176471
0.360784 0.345098 0.180392
0.411765 0.349020 0.180392
0.474510 0.352941 0.188235
0.537255 0.352941 0.192157
0.600000 0.352941 0.196078
0.658824 0.352941 0.200000
0.713725 0.352941 0.203922
0.772549 0.352941 0.207843
0.823529 0.356863 0.215686
0.878431 0.349020 0.223529
0.921569 0.352941 0.231373
0.286275 0.427451 0.215686
0.298039 0.427451 0.215686
0.313725 0.427451 0.215686
0.341176 0.431373 0.215686
0.376471 0.431373 0.215686
0.415686 0.427451 0.219608
0.462745 0.431373 0.223529
0.517647 0.439216 0.227451
0.572549 0.435294 0.231373
0.631373 0.439216 0.239216
0.682353 0.439216 0.239216
0.733333 0.439216 0.243137
0.784314 0.439216 0.250980
0.835294 0.439216 0.250980
0.882353 0.439216 0.262745
0.925490 0.439216 0.270588
0.360784 0.509804 0.258824
0.368627 0.509804 0.262745
0.384314 0.509804 0.258824
0.407843 0.509804 0.258824
0.439216 0.509804 0.262745
0.470588 0.513725 0.262745
0.517647 0.517647 0.266667
0.560784 0.513725 0.270588
0.611765 0.517647 0.274510
0.658824 0.517647 0.278431
0.705882 0.521569 0.282353
0.756863 0.517647 0.286275
0.800000 0.521569 0.294118
0.843137 0.521569 0.298039
0.890196 0.521569 0.305882
0.933333 0.521569 0.313725
0.443137 0.584314 0.305882
0.450980 0.584314 0.305882
0.462745 0.584314 0.305882
0.478431 0.584314 0.305882
0.501961 0.584314 0.309804
0.537255 0.584314 0.313725
0.568627 0.584314 0.313725
0.607843 0.588235 0.317647
0.647059 0.588235 0.321569
0.690196 0.592157 0.325490
0.733333 0.592157 0.329412
0.776471 0.592157 0.337255
0.815686 0.592157 0.341176
0.854902 0.596078 0.349020
0.894118 0.596078 0.356863
0.933333 0.596078 0.368627
0.521569 0.643137 0.356863
0.525490 0.647059 0.356863
0.537255 0.647059 0.356863
0.552941 0.647059 0.360784
0.568627 0.647059 0.360784
0.592157 0.647059 0.364706
0.623529 0.647059 0.364706
0.654902 0.650980 0.368627
0.690196 0.647059 0.372549
0.725490 0.654902 0.376471
0.756863 0.654902 0.384314
0.796078 0.654902 0.388235
0.827451 0.654902 0.392157
0.862745 0.658824 0.400000
0.901961 0.658824 0.403922
0.937255 0.658824 0.415686
0.596078 0.701961 0.411765
0.600000 0.701961 0.411765
0.607843 0.701961 0.411765
0.615686 0.701961 0.415686
0.631373 0.701961 0.415686
0.650980 0.705882 0.419608
0.674510 0.705882 0.423529
0.698039 0.701961 0.423529
0.729412 0.705882 0.431373
0.752941 0.709804 0.435294
0.784314 0.709804 0.439216
0.811765 0.709804 0.443137
0.843137 0.713725 0.447059
0.874510 0.713725 0.454902
0.905882 0.713725 0.462745
0.941176 0.717647 0.470588
0.662745 0.752941 0.474510
0.666667 0.752941 0.474510
0.670588 0.752941 0.474510
0.678431 0.752941 0.474510
0.694118 0.752941 0.474510
0.705882 0.756863 0.478431
0.725490 0.756863 0.478431
0.741176 0.756863 0.486275
0.764706 0.756863 0.486275
0.788235 0.760784 0.494118
0.807843 0.760784 0.498039
0.835294 0.760784 0.498039
0.858824 0.760784 0.505882
0.886275 0.760784 0.509804
0.917647 0.764706 0.517647
0.952941 0.768627 0.525490
0.725490 0.796078 0.533333
0.725490 0.800000 0.533333
0.729412 0.800000 0.537255
0.733333 0.800000 0.537255
0.745098 0.800000 0.537255
0.756863 0.800000 0.541176
0.768627 0.800000 0.541176
0.780392 0.803922 0.545098
0.800000 0.803922 0.549020
0.815686 0.800000 0.549020
0.835294 0.803922 0.556863
0.858824 0.807843 0.556863
0.874510 0.807843 0.560784
0.901961 0.807843 0.568627
0.929412 0.811765 0.572549
0.960784 0.807843 0.580392
0.784314 0.847059 0.600000
0.784314 0.850980 0.600000
0.788235 0.850980 0.600000
0.792157 0.850980 0.600000
0.796078 0.850980 0.600000
0.803922 0.850980 0.603922
0.815686 0.850980 0.603922
0.827451 0.850980 0.607843
0.835294 0.850980 0.607843
0.850980 0.850980 0.615686
0.862745 0.850980 0.615686
0.882353 0.850980 0.619608
0.898039 0.854902 0.623529
0.921569 0.854902 0.627451
0.945098 0.854902 0.631373
0.972549 0.858824 0.639216
0.835294 0.894118 0.670588
0.839216 0.898039 0.670588
0.839216 0.898039 0.670588
0.839216 0.898039 0.670588
0.843137 0.898039 0.670588
0.850980 0.901961 0.670588
0.854902 0.898039 0.674510
0.866667 0.898039 0.674510
0.878431 0.901961 0.678431
0.886275 0.905882 0.682353
0.894118 0.905882 0.686275
0.909804 0.905882 0.682353
0.925490 0.905882 0.690196
0.941176 0.909804 0.694118
0.960784 0.909804 0.698039
0.992157 0.909804 0.705882
0.000000 0.000000 0.011765
0.011765 0.000000 0.011765
0.039216 0.000000 0.011765
0.074510 0.000000 0.011765
0.113725 0.000000 0.011765
0.164706 0.000000 0.015686
0.215686 0.000000 0.015686
0.278431 0.000000 0.015686
0.345098 0.000000 0.019608
0.427451 0.000000 0.019608
0.517647 0.003922 0.023529
0.603922 0.003922 0.027451
0.682353 0.000000 0.027451
0.756863 0.003922 0.035294
0.827451 0.007843 0.039216
0.886275 0.003922 0.047059
0.015686 0.039216 0.023529
0.035294 0.039216 0.023529
0.062745 0.039216 0.027451
0.098039 0.039216 0.027451
0.137255 0.039216 0.031373
0.184314 0.039216 0.031373
0.235294 0.043137 0.031373
0.294118 0.043137 0.035294
0.360784 0.043137 0.039216
0.443137 0.043137 0.043137
0.529412 0.043137 0.047059
0.611765 0.047059 0.050980
0.690196 0.043137 0.054902
0.760784 0.047059 0.058824
0.831373 0.047059 0.062745
0.890196 0.043137 0.070588
0.047059 0.094118 0.054902
0.066667 0.094118 0.054902
0.094118 0.094118 0.054902
0.133333 0.094118 0.054902
0.168627 0.094118 0.058824
0.215686 0.094118 0.058824
0.262745 0.094118 0.062745
0.321569 0.098039 0.066667
0.392157 0.098039 0.070588
0.474510 0.094118 0.070588
0.552941 0.098039 0.074510
0.635294 0.101961 0.078431
0.701961 0.098039 0.086275
0.772549 0.098039 0.090196
0.843137 0.098039 0.098039
0.898039 0.098039 0.101961
0.082353 0.145098 0.082353
0.101961 0.145098 0.082353
0.133333 0.145098 0.086275
0.172549 0.145098 0.086275
0.211765 0.145098 0.090196
0.258824 0.145098 0.090196
0.305882 0.149020 0.094118
0.368627 0.149020 0.101961
0.435294 0.152941 0.101961
0.513725 0.149020 0.105882
0.588235 0.152941 0.109804
0.662745 0.152941 0.113725
0.725490 0.152941 0.121569
0.788235 0.152941 0.125490
0.850980 0.152941 0.133333
0.905882 0.149020 0.137255
0.129412 0.203922 0.113725
0.145098 0.203922 0.113725
0.168627 0.203922 0.113725
0.203922 0.203922 0.117647
0.243137 0.207843 0.121569
0.286275 0.207843 0.121569
0.337255 0.207843 0.125490
0.396078 0.211765 0.129412
0.466667 0.211765 0.133333
0.541176 0.211765 0.137255
0.611765 0.211765 0.145098
0.678431 0.211765 0.145098
0.745098 0.211765 0.152941
0.800000 0.211765 0.156863
0.858824 0.211765 0.164706
0.909804 0.207843 0.172549
0.180392 0.274510 0.152941
0.192157 0.274510 0.152941
0.211765 0.274510 0.152941
0.239216 0.274510 0.152941
0.278431 0.274510 0.156863
0.325490 0.274510 0.160784
0.372549 0.274510 0.160784
0.431373 0.278431 0.164706
0.501961 0.278431 0.168627
0.572549 0.282353 0.172549
0.635294 0.282353 0.176471
0.698039 0.282353 0.180392
0.756863 0.282353 0.188235
0.811765 0.278431 0.192157
0.866667 0.278431 0.200000
0.913725 0.278431 0.211765
0.223529 0.345098 0.184314
0.235294 0.345098 0.188235
0.254902 0.349020 0.188235
0.282353 0.349020 0.192157
0.317647 0.349020 0.192157
0.360784 0.349020 0.196078
0.411765 0.352941 0.200000
0.474510 0.356863 0.203922
0.537255 0.356863 0.207843
0.600000 0.356863 0.211765
0.658824 0.356863 0.211765
0.713725 0.356863 0.219608
0.768627 0.356863 0.223529
0.823529 0.356863 0.231373
0.874510 0.352941 0.239216
0.921569 0.352941 0.247059
0.286275 0.431373 0.227451
0.294118 0.431373 0.227451
0.309804 0.431373 0.227451
0.337255 0.431373 0.231373
0.372549 0.435294 0.235294
0.411765 0.431373 0.235294
0.462745 0.435294 0.239216
0.517647 0.439216 0.243137
0.572549 0.439216 0.247059
0.631373 0.439216 0.250980
0.682353 0.443137 0.254902
0.733333 0.443137 0.258824
0.784314 0.443137 0.262745
0.835294 0.443137 0.270588
0.882353 0.443137 0.278431
0.925490 0.443137 0.286275
0.360784 0.513725 0.274510
0.368627 0.513725 0.274510
0.384314 0.513725 0.274510
0.403922 0.513725 0.274510
0.435294 0.513725 0.278431
0.470588 0.513725 0.278431
0.517647 0.517647 0.282353
0.560784 0.517647 0.282353
0.611765 0.521569 0.290196
0.658824 0.521569 0.290196
0.705882 0.521569 0.298039
0.756863 0.521569 0.301961
0.800000 0.525490 0.305882
0.843137 0.525490 0.313725
0.886275 0.521569 0.321569
0.933333 0.525490 0.329412
0.443137 0.584314 0.321569
0.447059 0.584314 0.321569
0.462745 0.584314 0.321569
0.474510 0.584314 0.321569
0.501961 0.588235 0.321569
0.537255 0.588235 0.325490
0.568627 0.588235 0.329412
0.607843 0.592157 0.333333
0.647059 0.592157 0.333333
0.690196 0.596078 0.341176
0.733333 0.596078 0.345098
0.776471 0.596078 0.349020
0.815686 0.596078 0.356863
0.854902 0.600000 0.364706
0.890196 0.600000 0.368627
0.933333 0.600000 0.380392
0.521569 0.647059 0.368627
0.525490 0.647059 0.368627
0.533333 0.647059 0.372549
0.549020 0.650980 0.372549
0.568627 0.650980 0.372549
0.592157 0.650980 0.376471
0.623529 0.650980 0.380392
0.654902 0.650980 0.380392
0.686275 0.650980 0.384314
0.725490 0.654902 0.392157
0.756863 0.658824 0.396078
0.792157 0.658824 0.400000
0.827451 0.658824 0.403922
0.862745 0.658824 0.411765
0.898039 0.662745 0.419608
0.937255 0.662745 0.427451
0.596078 0.701961 0.423529
0.600000 0.701961 0.423529
0.603922 0.701961 0.427451
0.615686 0.701961 0.427451
0.631373 0.701961 0.427451
0.650980 0.705882 0.431373
0.674510 0.705882 0.435294
0.698039 0.705882 0.435294
0.725490 0.709804 0.443137
0.752941 0.709804 0.447059
0.784314 0.713725 0.450980
0.811765 0.713725 0.454902
0.843137 0.713725 0.458824
0.874510 0.717647 0.466667
0.905882 0.713725 0.470588
0.941176 0.717647 0.482353
0.662745 0.752941 0.482353
0.662745 0.752941 0.482353
0.670588 0.752941 0.486275
0.678431 0.752941 0.486275
0.690196 0.756863 0.486275
0.705882 0.756863 0.490196
0.721569 0.756863 0.494118
0.741176 0.756863 0.494118
0.764706 0.756863 0.498039
0.784314 0.760784 0.501961
0.807843 0.760784 0.505882
0.835294 0.760784 0.509804
0.858824 0.764706 0.513725
0.886275 0.764706 0.521569
0.917647 0.764706 0.525490
0.952941 0.768627 0.533333
0.725490 0.800000 0.541176
0.725490 0.800000 0.545098
0.729412 0.800000 0.545098
0.733333 0.800000 0.545098
0.745098 0.800000 0.545098
0.756863 0.800000 0.549020
0.768627 0.803922 0.549020
0.780392 0.803922 0.552941
0.800000 0.803922 0.556863
0.815686 0.803922 0.556863
0.835294 0.807843 0.564706
0.854902 0.807843 0.564706
0.874510 0.807843 0.568627
0.901961 0.811765 0.576471
0.929412 0.811765 0.580392
0.960784 0.811765 0.588235
0.784314 0.850980 0.607843
0.784314 0.850980 0.607843
0.788235 0.850980 0.607843
0.792157 0.850980 0.611765
0.796078 0.850980 0.611765
0.803922 0.850980 0.611765
0.811765 0.850980 0.615686
0.823529 0.850980 0.615686
0.835294 0.854902 0.619608
0.847059 0.854902 0.619608
0.862745 0.854902 0.623529
0.882353 0.854902 0.627451
0.898039 0.854902 0.631373
0.917647 0.858824 0.635294
0.945098 0.858824 0.639216
0.972549 0.862745 0.643137
0.839216 0.898039 0.674510
0.839216 0.898039 0.674510
0.839216 0.898039 0.674510
0.839216 0.898039 0.674510
0.843137 0.901961 0.678431
0.850980 0.901961 0.678431
0.854902 0.901961 0.678431
0.866667 0.901961 0.682353
0.878431 0.901961 0.682353
0.886275 0.905882 0.686275
0.894118 0.905882 0.690196
0.905882 0.905882 0.690196
0.925490 0.905882 0.694118
0.941176 0.909804 0.698039
0.960784 0.909804 0.701961
0.992157 0.909804 0.709804
0.000000 0.000000 0.031373
0.011765 0.000000 0.035294
0.039216 0.000000 0.035294
0.074510 0.000000 0.039216
0.113725 0.000000 0.039216
0.160784 0.000000 0.043137
0.215686 0.000000 0.047059
0.274510 0.000000 0.050980
0.345098 0.003922 0.054902
0.431373 0.000000 0.054902
0.517647 0.003922 0.062745
0.603922 0.003922 0.062745
0.682353 0.003922 0.070588
0.756863 0.003922 0.078431
0.827451 0.007843 0.086275
0.886275 0.007843 0.094118
0.015686 0.043137 0.054902
0.031373 0.043137 0.054902
0.062745 0.043137 0.054902
0.094118 0.043137 0.058824
0.137255 0.047059 0.062745
0.180392 0.047059 0.062745
0.235294 0.047059 0.066667
0.294118 0.047059 0.070588
0.364706 0.047059 0.074510
0.443137 0.047059 0.074510
0.533333 0.050980 0.082353
0.615686 0.050980 0.086275
0.690196 0.050980 0.090196
0.760784 0.050980 0.098039
0.831373 0.050980 0.101961
0.890196 0.050980 0.109804
0.039216 0.098039 0.082353
0.062745 0.098039 0.082353
0.094118 0.098039 0.082353
0.129412 0.098039 0.086275
0.168627 0.098039 0.090196
0.215686 0.098039 0.090196
0.262745 0.101961 0.094118
0.321569 0.101961 0.098039
0.392157 0.101961 0.101961
0.474510 0.101961 0.105882
0.552941 0.101961 0.109804
0.635294 0.105882 0.113725
0.705882 0.101961 0.117647
0.772549 0.101961 0.121569
0.839216 0.101961 0.129412
0.898039 0.101961 0.137255
0.074510 0.152941 0.113725
0.098039 0.152941 0.117647
0.129412 0.152941 0.117647
0.168627 0.152941 0.121569
0.207843 0.156863 0.125490
0.254902 0.156863 0.125490
0.305882 0.156863 0.129412
0.368627 0.156863 0.133333
0.435294 0.160784 0.137255
0.513725 0.156863 0.137255
0.588235 0.160784 0.145098
0.662745 0.164706 0.149020
0.725490 0.160784 0.152941
0.788235 0.160784 0.156863
0.850980 0.156863 0.164706
0.905882 0.152941 0.168627
0.125490 0.211765 0.145098
0.141176 0.211765 0.145098
0.164706 0.211765 0.149020
0.200000 0.211765 0.149020
0.239216 0.211765 0.152941
0.286275 0.215686 0.156863
0.337255 0.215686 0.156863
0.400000 0.215686 0.164706
0.462745 0.219608 0.164706
0.541176 0.219608 0.168627
0.611765 0.219608 0.172549
0.678431 0.219608 0.176471
0.745098 0.219608 0.184314
0.800000 0.219608 0.188235
0.858824 0.219608 0.196078
0.909804 0.211765 0.203922
0.176471 0.278431 0.180392
0.188235 0.278431 0.180392
0.207843 0.278431 0.180392
0.235294 0.278431 0.180392
0.274510 0.278431 0.184314
0.321569 0.282353 0.188235
0.372549 0.282353 0.192157
0.431373 0.282353 0.192157
0.501961 0.286275 0.200000
0.572549 0.286275 0.200000
0.635294 0.286275 0.207843
0.698039 0.286275 0.211765
0.756863 0.286275 0.215686
0.811765 0.286275 0.223529
0.866667 0.282353 0.227451
0.913725 0.282353 0.235294
0.219608 0.352941 0.215686
0.231373 0.352941 0.215686
0.250980 0.352941 0.215686
0.278431 0.356863 0.215686
0.317647 0.356863 0.219608
0.360784 0.356863 0.223529
0.411765 0.356863 0.223529
0.474510 0.360784 0.227451
0.537255 0.360784 0.235294
0.600000 0.360784 0.235294
0.658824 0.360784 0.239216
0.717647 0.364706 0.247059
0.772549 0.364706 0.250980
0.823529 0.364706 0.258824
0.874510 0.360784 0.262745
0.921569 0.360784 0.274510
0.282353 0.435294 0.254902
0.290196 0.435294 0.254902
0.309804 0.435294 0.254902
0.333333 0.439216 0.254902
0.368627 0.439216 0.258824
0.411765 0.439216 0.258824
0.458824 0.443137 0.262745
0.513725 0.443137 0.266667
0.572549 0.447059 0.274510
0.627451 0.447059 0.278431
0.678431 0.447059 0.282353
0.733333 0.447059 0.286275
0.784314 0.447059 0.290196
0.835294 0.447059 0.298039
0.878431 0.447059 0.305882
0.925490 0.447059 0.313725
0.356863 0.517647 0.294118
0.364706 0.517647 0.298039
0.380392 0.517647 0.298039
0.403922 0.517647 0.298039
0.435294 0.521569 0.301961
0.470588 0.521569 0.301961
0.513725 0.525490 0.305882
0.560784 0.521569 0.309804
0.611765 0.525490 0.313725
0.658824 0.525490 0.317647
0.705882 0.529412 0.321569
0.752941 0.529412 0.325490
0.800000 0.529412 0.333333
0.843137 0.529412 0.341176
0.886275 0.529412 0.345098
0.929412 0.529412 0.356863
0.439216 0.592157 0.341176
0.447059 0.592157 0.345098
0.458824 0.592157 0.345098
0.474510 0.592157 0.345098
0.501961 0.592157 0.349020
0.533333 0.592157 0.349020
0.568627 0.592157 0.352941
0.607843 0.596078 0.356863
0.647059 0.596078 0.360784
0.690196 0.600000 0.364706
0.729412 0.600000 0.368627
0.772549 0.600000 0.372549
0.811765 0.603922 0.380392
0.854902 0.603922 0.384314
0.890196 0.603922 0.392157
0.929412 0.603922 0.400000
0.517647 0.650980 0.392157
0.521569 0.650980 0.392157
0.533333 0.654902 0.396078
0.549020 0.654902 0.396078
0.568627 0.654902 0.396078
0.592157 0.654902 0.400000
0.619608 0.654902 0.403922
0.650980 0.658824 0.403922
0.686275 0.658824 0.407843
0.721569 0.658824 0.411765
0.756863 0.662745 0.415686
0.792157 0.662745 0.423529
0.827451 0.662745 0.427451
0.858824 0.662745 0.435294
0.898039 0.666667 0.439216
0.933333 0.666667 0.447059
0.592157 0.709804 0.447059
0.596078 0.709804 0.447059
0.603922 0.709804 0.447059
0.611765 0.709804 0.447059
0.627451 0.709804 0.450980
0.650980 0.709804 0.454902
0.670588 0.709804 0.454902
0.698039 0.713725 0.458824
0.725490 0.713725 0.462745
0.752941 0.717647 0.466667
0.784314 0.717647 0.470588
0.811765 0.717647 0.474510
0.843137 0.717647 0.478431
0.870588 0.717647 0.486275
0.905882 0.721569 0.494118
0.941176 0.725490 0.498039
0.658824 0.756863 0.498039
0.662745 0.756863 0.501961
0.670588 0.756863 0.501961
0.678431 0.756863 0.505882
0.690196 0.760784 0.505882
0.705882 0.760784 0.505882
0.721569 0.760784 0.509804
0.741176 0.760784 0.513725
0.760784 0.760784 0.517647
0.784314 0.764706 0.521569
0.807843 0.764706 0.525490
0.835294 0.764706 0.525490
0.858824 0.768627 0.533333
0.886275 0.768627 0.537255
0.917647 0.768627 0.545098
0.949020 0.772549 0.549020
0.721569 0.803922 0.560784
0.725490 0.803922 0.560784
0.729412 0.803922 0.560784
0.733333 0.803922 0.560784
0.741176 0.803922 0.560784
0.752941 0.803922 0.564706
0.768627 0.803922 0.564706
0.780392 0.807843 0.568627
0.796078 0.807843 0.572549
0.815686 0.807843 0.572549
0.835294 0.811765 0.580392
0.854902 0.811765 0.584314
0.874510 0.811765 0.584314
0.898039 0.811765 0.592157
0.929412 0.815686 0.596078
0.960784 0.815686 0.603922
0.784314 0.850980 0.619608
0.784314 0.850980 0.619608
0.788235 0.850980 0.619608
0.792157 0.850980 0.623529
0.796078 0.854902 0.623529
0.803922 0.854902 0.623529
0.811765 0.854902 0.627451
0.823529 0.854902 0.627451
0.835294 0.854902 0.631373
0.847059 0.858824 0.631373
0.862745 0.854902 0.635294
0.878431 0.854902 0.639216
0.898039 0.858824 0.643137
0.917647 0.858824 0.647059
0.941176 0.858824 0.650980
0.972549 0.862745 0.654902
0.839216 0.901961 0.682353
0.839216 0.901961 0.682353
0.839216 0.901961 0.682353
0.839216 0.901961 0.682353
0.843137 0.901961 0.686275
0.850980 0.905882 0.686275
0.854902 0.905882 0.690196
0.862745 0.901961 0.690196
0.874510 0.905882 0.694118
0.886275 0.905882 0.694118
0.894118 0.909804 0.698039
0.905882 0.905882 0.698039
0.925490 0.909804 0.705882
0.941176 0.913725 0.705882
0.960784 0.913725 0.709804
0.992157 0.913725 0.717647
0.000000 0.000000 0.062745
0.011765 0.000000 0.062745
0.039216 0.000000 0.066667
0.070588 0.000000 0.070588
0.109804 0.000000 0.074510
0.160784 0.003922 0.078431
0.215686 0.003922 0.082353
0.274510 0.003922 0.086275
0.345098 0.003922 0.090196
0.431373 0.003922 0.094118
0.521569 0.007843 0.101961
0.603922 0.003922 0.105882
0.686275 0.003922 0.109804
0.756863 0.007843 0.121569
0.827451 0.011765 0.129412
0.890196 0.011765 0.137255
0.011765 0.047059 0.086275
0.027451 0.047059 0.086275
0.058824 0.047059 0.086275
0.094118 0.050980 0.090196
0.133333 0.050980 0.094118
0.180392 0.050980 0.101961
0.231373 0.050980 0.101961
0.290196 0.050980 0.105882
0.364706 0.054902 0.109804
0.447059 0.054902 0.113725
0.533333 0.054902 0.121569
0.615686 0.054902 0.125490
0.690196 0.058824 0.129412
0.760784 0.058824 0.137255
0.831373 0.058824 0.145098
0.890196 0.058824 0.152941
0.031373 0.101961 0.117647
0.054902 0.101961 0.117647
0.086275 0.101961 0.121569
0.125490 0.105882 0.121569
0.164706 0.109804 0.125490
0.211765 0.109804 0.129412
0.262745 0.109804 0.133333
0.321569 0.109804 0.137255
0.392157 0.113725 0.141176
0.474510 0.109804 0.145098
0.556863 0.109804 0.149020
0.635294 0.113725 0.152941
0.705882 0.113725 0.156863
0.772549 0.109804 0.164706
0.839216 0.109804 0.172549
0.898039 0.105882 0.180392
0.062745 0.160784 0.156863
0.086275 0.160784 0.156863
0.121569 0.160784 0.156863
0.164706 0.164706 0.160784
0.207843 0.164706 0.164706
0.250980 0.164706 0.168627
0.301961 0.168627 0.168627
0.364706 0.164706 0.172549
0.435294 0.168627 0.180392
0.513725 0.168627 0.184314
0.592157 0.168627 0.184314
0.662745 0.172549 0.192157
0.725490 0.172549 0.196078
0.788235 0.168627 0.200000
0.850980 0.168627 0.207843
0.905882 0.160784 0.215686
0.117647 0.219608 0.184314
0.133333 0.219608 0.184314
0.160784 0.219608 0.188235
0.196078 0.219608 0.188235
0.239216 0.223529 0.192157
0.282353 0.223529 0.196078
0.333333 0.227451 0.200000
0.400000 0.227451 0.203922
0.462745 0.227451 0.203922
0.541176 0.227451 0.207843
0.615686 0.231373 0.215686
0.678431 0.227451 0.219608
0.741176 0.227451 0.223529
0.803922 0.227451 0.231373
0.858824 0.227451 0.235294
0.909804 0.223529 0.243137
0.168627 0.286275 0.219608
0.180392 0.286275 0.219608
0.200000 0.286275 0.219608
0.231373 0.286275 0.219608
0.270588 0.290196 0.223529
0.317647 0.290196 0.227451
0.368627 0.294118 0.231373
0.431373 0.290196 0.231373
0.501961 0.294118 0.239216
0.572549 0.298039 0.239216
0.631373 0.294118 0.243137
0.698039 0.294118 0.247059
0.756863 0.294118 0.250980
0.811765 0.294118 0.258824
0.866667 0.294118 0.266667
0.917647 0.294118 0.274510
0.215686 0.360784 0.250980
0.227451 0.364706 0.250980
0.247059 0.364706 0.250980
0.274510 0.364706 0.254902
0.313725 0.364706 0.258824
0.360784 0.368627 0.258824
0.411765 0.368627 0.262745
0.470588 0.368627 0.262745
0.533333 0.372549 0.270588
0.596078 0.368627 0.274510
0.654902 0.368627 0.278431
0.717647 0.372549 0.282353
0.772549 0.372549 0.290196
0.823529 0.372549 0.298039
0.874510 0.368627 0.301961
0.921569 0.368627 0.309804
0.274510 0.447059 0.290196
0.286275 0.447059 0.290196
0.301961 0.447059 0.290196
0.329412 0.447059 0.290196
0.364706 0.447059 0.294118
0.407843 0.450980 0.294118
