luts/fade.cube
TITLE "fade"
LUT_3D_SIZE 6
DOMAIN_MIN 0.0 0.0 0.0
DOMAIN_MAX 1.0 1.0 1.0
0.000000 0.000000 0.000000
0.074510 0.000000 0.000000
0.215686 0.000000 0.000000
0.427451 0.000000 0.000000
0.678431 0.000000 0.003922
0.886275 0.003922 0.015686
0.086275 0.141176 0.058824
0.172549 0.141176 0.062745
0.309804 0.145098 0.070588
0.513725 0.145098 0.082353
0.725490 0.149020 0.098039
0.905882 0.145098 0.117647
0.227451 0.341176 0.168627
0.282353 0.345098 0.176471
0.411765 0.349020 0.180392
0.600000 0.352941 0.196078
0.772549 0.352941 0.207843
0.921569 0.352941 0.231373
0.443137 0.584314 0.305882
0.478431 0.584314 0.305882
0.568627 0.584314 0.313725
0.690196 0.592157 0.325490
0.815686 0.592157 0.341176
0.933333 0.596078 0.368627
0.662745 0.752941 0.474510
0.678431 0.752941 0.474510
0.725490 0.756863 0.478431
0.788235 0.760784 0.494118
0.858824 0.760784 0.505882
0.952941 0.768627 0.525490
0.835294 0.894118 0.670588
0.839216 0.898039 0.670588
0.854902 0.898039 0.674510
0.886275 0.905882 0.682353
0.925490 0.905882 0.690196
0.992157 0.909804 0.705882
0.000000 0.000000 0.062745
0.070588 0.000000 0.070588
0.215686 0.003922 0.082353
0.431373 0.003922 0.094118
0.686275 0.003922 0.109804
0.890196 0.011765 0.137255
0.062745 0.160784 0.156863
0.164706 0.164706 0.160784
0.301961 0.168627 0.168627
0.513725 0.168627 0.184314
0.725490 0.172549 0.196078
0.905882 0.160784 0.215686
0.215686 0.360784 0.250980
0.274510 0.364706 0.254902
0.411765 0.368627 0.262745
0.596078 0.368627 0.274510
0.772549 0.372549 0.290196
0.921569 0.368627 0.309804
0.435294 0.600000 0.380392
0.474510 0.600000 0.380392
0.564706 0.600000 0.388235
0.686275 0.607843 0.400000
0.811765 0.611765 0.415686
0.929412 0.611765 0.435294
0.658824 0.760784 0.529412
0.674510 0.764706 0.533333
0.717647 0.768627 0.537255
0.780392 0.768627 0.545098
0.858824 0.772549 0.556863
0.945098 0.776471 0.576471
0.839216 0.905882 0.701961
0.839216 0.905882 0.701961
0.858824 0.909804 0.705882
0.886275 0.909804 0.709804
0.921569 0.909804 0.717647
0.992157 0.913725 0.729412
0.000000 0.011765 0.180392
0.062745 0.007843 0.192157
0.211765 0.015686 0.203922
0.435294 0.015686 0.215686
0.686275 0.023529 0.231373
0.890196 0.035294 0.254902
0.019608 0.184314 0.274510
0.145098 0.188235 0.286275
0.294118 0.196078 0.298039
0.513725 0.196078 0.305882
0.725490 0.200000 0.325490
0.901961 0.184314 0.341176
0.184314 0.392157 0.384314
0.250980 0.396078 0.388235
0.400000 0.396078 0.396078
0.592157 0.403922 0.411765
0.764706 0.403922 0.423529
0.917647 0.400000 0.450980
0.415686 0.627451 0.513725
0.454902 0.627451 0.513725
0.549020 0.631373 0.521569
0.678431 0.635294 0.533333
0.800000 0.635294 0.545098
0.921569 0.639216 0.564706
0.647059 0.784314 0.635294
0.662745 0.784314 0.635294
0.709804 0.788235 0.643137
0.772549 0.792157 0.647059
0.850980 0.792157 0.658824
0.937255 0.796078 0.670588
0.835294 0.921569 0.760784
0.839216 0.917647 0.760784
0.850980 0.921569 0.764706
0.882353 0.925490 0.768627
0.921569 0.929412 0.776471
0.992157 0.929412 0.784314
0.000000 0.035294 0.333333
0.047059 0.039216 0.345098
0.203922 0.047059 0.360784
0.431373 0.050980 0.376471
0.686275 0.058824 0.396078
0.886275 0.066667 0.415686
0.000000 0.223529 0.447059
0.101961 0.223529 0.450980
0.274510 0.227451 0.462745
0.501961 0.231373 0.478431
0.717647 0.231373 0.494118
0.901961 0.223529 0.509804
0.113725 0.427451 0.549020
0.207843 0.431373 0.549020
0.372549 0.431373 0.560784
0.576471 0.439216 0.568627
0.756863 0.439216 0.580392
0.909804 0.435294 0.596078
0.388235 0.654902 0.647059
0.427451 0.654902 0.650980
0.529412 0.658824 0.654902
0.662745 0.662745 0.662745
0.792157 0.666667 0.670588
0.913725 0.662745 0.682353
0.631373 0.803922 0.733333
0.650980 0.807843 0.737255
0.698039 0.807843 0.741176
0.760784 0.811765 0.745098
0.839216 0.815686 0.752941
0.933333 0.815686 0.760784
0.831373 0.937255 0.823529
0.835294 0.941176 0.823529
0.850980 0.941176 0.827451
0.878431 0.941176 0.831373
0.913725 0.945098 0.839216
0.992157 0.949020 0.843137
0.000000 0.078431 0.517647
0.003922 0.082353 0.529412
0.180392 0.086275 0.541176
0.419608 0.090196 0.549020
0.678431 0.094118 0.560784
0.882353 0.101961 0.576471
0.003922 0.254902 0.603922
0.019608 0.254902 0.611765
0.247059 0.258824 0.619608
0.490196 0.262745 0.627451
0.713725 0.262745 0.635294
0.898039 0.250980 0.647059
0.007843 0.458824 0.682353
0.145098 0.458824 0.682353
0.345098 0.458824 0.690196
0.560784 0.466667 0.698039
0.745098 0.462745 0.701961
0.905882 0.454902 0.713725
0.349020 0.678431 0.752941
0.396078 0.678431 0.756863
0.509804 0.682353 0.760784
0.647059 0.686275 0.764706
0.780392 0.686275 0.772549
0.909804 0.686275 0.780392
0.615686 0.827451 0.819608
0.635294 0.827451 0.819608
0.682353 0.827451 0.823529
0.752941 0.831373 0.827451
0.831373 0.831373 0.831373
0.929412 0.831373 0.839216
0.827451 0.956863 0.886275
0.827451 0.952941 0.886275
0.843137 0.952941 0.886275
0.874510 0.956863 0.894118
0.913725 0.964706 0.898039
0.992157 0.964706 0.901961
0.000000 0.109804 0.658824
0.003922 0.109804 0.670588
0.152941 0.113725 0.678431
0.403922 0.113725 0.682353
0.674510 0.121569 0.694118
0.886275 0.129412 0.701961
0.000000 0.274510 0.725490
0.003922 0.278431 0.725490
0.207843 0.278431 0.733333
0.466667 0.282353 0.737255
0.701961 0.278431 0.745098
0.890196 0.266667 0.749020
0.000000 0.474510 0.784314
0.023529 0.478431 0.788235
0.298039 0.478431 0.792157
0.537255 0.482353 0.796078
0.733333 0.482353 0.800000
0.901961 0.474510 0.807843
0.286275 0.698039 0.843137
0.345098 0.698039 0.847059
0.478431 0.701961 0.847059
0.627451 0.701961 0.854902
0.768627 0.705882 0.858824
0.901961 0.701961 0.862745
0.592157 0.839216 0.898039
0.611765 0.843137 0.898039
0.662745 0.843137 0.901961
0.737255 0.847059 0.905882
0.819608 0.847059 0.909804
0.921569 0.850980 0.917647
0.819608 0.976471 0.964706
0.823529 0.976471 0.964706
0.835294 0.980392 0.968627
0.866667 0.984314 0.972549
0.905882 0.988235 0.980392
0.996078 0.992157 0.996078
