luts/G1.cube
TITLE "G1"
LUT_3D_SIZE 6
DOMAIN_MIN 0.0 0.0 0.0
DOMAIN_MAX 1.0 1.0 1.0
0.000000 0.000000 0.227451
0.000000 0.000000 0.227451
0.478431 0.000000 0.227451
0.725490 0.000000 0.227451
0.917647 0.000000 0.227451
1.000000 0.000000 0.227451
0.000000 0.258824 0.227451
0.000000 0.258824 0.227451
0.478431 0.258824 0.227451
0.725490 0.258824 0.227451
0.917647 0.258824 0.227451
1.000000 0.258824 0.227451
0.000000 0.478431 0.227451
0.000000 0.478431 0.227451
0.478431 0.478431 0.227451
0.725490 0.478431 0.227451
0.917647 0.478431 0.227451
1.000000 0.478431 0.227451
0.000000 0.670588 0.227451
0.000000 0.670588 0.227451
0.478431 0.670588 0.227451
0.725490 0.670588 0.227451
0.917647 0.670588 0.227451
1.000000 0.670588 0.227451
0.000000 0.823529 0.227451
0.000000 0.823529 0.227451
0.478431 0.823529 0.227451
0.725490 0.823529 0.227451
0.917647 0.823529 0.227451
1.000000 0.823529 0.227451
0.000000 0.905882 0.227451
0.000000 0.905882 0.227451
0.478431 0.905882 0.227451
0.725490 0.905882 0.227451
0.917647 0.905882 0.227451
1.000000 0.905882 0.227451
0.000000 0.000000 0.376471
0.000000 0.000000 0.376471
0.478431 0.000000 0.376471
0.725490 0.000000 0.376471
0.917647 0.000000 0.376471
1.000000 0.000000 0.376471
0.000000 0.258824 0.376471
0.000000 0.258824 0.376471
0.478431 0.258824 0.376471
0.725490 0.258824 0.376471
0.917647 0.258824 0.376471
1.000000 0.258824 0.376471
0.000000 0.478431 0.376471
0.000000 0.478431 0.376471
0.478431 0.478431 0.376471
0.725490 0.478431 0.376471
0.917647 0.478431 0.376471
1.000000 0.478431 0.376471
0.000000 0.670588 0.376471
0.000000 0.670588 0.376471
0.478431 0.670588 0.376471
0.725490 0.670588 0.376471
0.917647 0.670588 0.376471
1.000000 0.670588 0.376471
0.000000 0.823529 0.376471
0.000000 0.823529 0.376471
0.478431 0.823529 0.376471
0.725490 0.823529 0.376471
0.917647 0.823529 0.376471
1.000000 0.823529 0.376471
0.000000 0.905882 0.376471
0.000000 0.905882 0.376471
0.478431 0.905882 0.376471
0.725490 0.905882 0.376471
0.917647 0.905882 0.376471
1.000000 0.905882 0.376471
0.000000 0.000000 0.509804
0.000000 0.000000 0.509804
0.478431 0.000000 0.509804
0.725490 0.000000 0.509804
0.917647 0.000000 0.509804
1.000000 0.000000 0.509804
0.000000 0.258824 0.509804
0.000000 0.258824 0.509804
0.478431 0.258824 0.509804
0.725490 0.258824 0.509804
0.917647 0.258824 0.509804
1.000000 0.258824 0.509804
0.000000 0.478431 0.509804
0.000000 0.478431 0.509804
0.478431 0.478431 0.509804
0.725490 0.478431 0.509804
0.917647 0.478431 0.509804
1.000000 0.478431 0.509804
0.000000 0.670588 0.509804
0.000000 0.670588 0.509804
0.478431 0.670588 0.509804
0.725490 0.670588 0.509804
0.917647 0.670588 0.509804
1.000000 0.670588 0.509804
0.000000 0.823529 0.509804
0.000000 0.823529 0.509804
0.478431 0.823529 0.509804
0.725490 0.823529 0.509804
0.917647 0.823529 0.509804
1.000000 0.823529 0.509804
0.000000 0.905882 0.509804
0.000000 0.905882 0.509804
0.478431 0.905882 0.509804
0.725490 0.905882 0.509804
0.917647 0.905882 0.509804
1.000000 0.905882 0.509804
0.000000 0.000000 0.627451
0.000000 0.000000 0.627451
0.478431 0.000000 0.627451
0.725490 0.000000 0.627451
0.917647 0.000000 0.627451
1.000000 0.000000 0.627451
0.000000 0.258824 0.627451
0.000000 0.258824 0.627451
0.478431 0.258824 0.627451
0.725490 0.258824 0.627451
0.917647 0.258824 0.627451
1.000000 0.258824 0.627451
0.000000 0.478431 0.627451
0.000000 0.478431 0.627451
0.478431 0.478431 0.627451
0.725490 0.478431 0.627451
0.917647 0.478431 0.627451
1.000000 0.478431 0.627451
0.000000 0.670588 0.627451
0.000000 0.670588 0.627451
0.478431 0.670588 0.627451
0.725490 0.670588 0.627451
0.917647 0.670588 0.627451
1.000000 0.670588 0.627451
0.000000 0.823529 0.627451
0.000000 0.823529 0.627451
0.478431 0.823529 0.627451
0.725490 0.823529 0.627451
0.917647 0.823529 0.627451
1.000000 0.823529 0.627451
0.000000 0.905882 0.627451
0.000000 0.905882 0.627451
0.478431 0.905882 0.627451
0.725490 0.905882 0.627451
0.917647 0.905882 0.627451
1.000000 0.905882 0.627451
0.000000 0.000000 0.733333
0.000000 0.000000 0.733333
0.478431 0.000000 0.733333
0.725490 0.000000 0.733333
0.917647 0.000000 0.733333
1.000000 0.000000 0.733333
0.000000 0.258824 0.733333
0.000000 0.258824 0.733333
0.478431 0.258824 0.733333
0.725490 0.258824 0.733333
0.917647 0.258824 0.733333
1.000000 0.258824 0.733333
0.000000 0.478431 0.733333
0.000000 0.478431 0.733333
0.478431 0.478431 0.733333
0.725490 0.478431 0.733333
0.917647 0.478431 0.733333
1.000000 0.478431 0.733333
0.000000 0.670588 0.733333
0.000000 0.670588 0.733333
0.478431 0.670588 0.733333
0.725490 0.670588 0.733333
0.917647 0.670588 0.733333
1.000000 0.670588 0.733333
0.000000 0.823529 0.733333
0.000000 0.823529 0.733333
0.478431 0.823529 0.733333
0.725490 0.823529 0.733333
0.917647 0.823529 0.733333
1.000000 0.823529 0.733333
0.000000 0.905882 0.733333
0.000000 0.905882 0.733333
0.478431 0.905882 0.733333
0.725490 0.905882 0.733333
0.917647 0.905882 0.733333
1.000000 0.905882 0.733333
0.000000 0.000000 0.823529
0.000000 0.000000 0.823529
0.478431 0.000000 0.823529
0.725490 0.000000 0.823529
0.917647 0.000000 0.823529
1.000000 0.000000 0.823529
0.000000 0.258824 0.823529
0.000000 0.258824 0.823529
0.478431 0.258824 0.823529
0.725490 0.258824 0.823529
0.917647 0.258824 0.823529
1.000000 0.258824 0.823529
0.000000 0.478431 0.823529
0.000000 0.478431 0.823529
0.478431 0.478431 0.823529
0.725490 0.478431 0.823529
0.917647 0.478431 0.823529
1.000000 0.478431 0.823529
0.000000 0.670588 0.823529
0.000000 0.670588 0.823529
0.478431 0.670588 0.823529
0.725490 0.670588 0.823529
0.917647 0.670588 0.823529
1.000000 0.670588 0.823529
0.000000 0.823529 0.823529
0.000000 0.823529 0.823529
0.478431 0.823529 0.823529
0.725490 0.823529 0.823529
0.917647 0.823529 0.823529
1.000000 0.823529 0.823529
0.000000 0.905882 0.823529
0.000000 0.905882 0.823529
0.478431 0.905882 0.823529
0.725490 0.905882 0.823529
0.917647 0.905882 0.823529
1.000000 0.905882 0.823529
