luts/G1.cube
TITLE "G1"
LUT_3D_SIZE 16
DOMAIN_MIN 0.0 0.0 0.0
DOMAIN_MAX 1.0 1.0 1.0
0.000000 0.000000 0.227451
0.000000 0.000000 0.227451
0.000000 0.000000 0.227451
0.000000 0.000000 0.227451
0.094118 0.000000 0.227451
0.337255 0.000000 0.227451
0.478431 0.000000 0.227451
0.572549 0.000000 0.227451
0.650980 0.000000 0.227451
0.725490 0.000000 0.227451
0.803922 0.000000 0.227451
0.866667 0.000000 0.227451
0.917647 0.000000 0.227451
0.949020 0.000000 0.227451
0.968627 0.000000 0.227451
1.000000 0.000000 0.227451
0.000000 0.000000 0.227451
0.000000 0.000000 0.227451
0.000000 0.000000 0.227451
0.000000 0.000000 0.227451
0.094118 0.000000 0.227451
0.337255 0.000000 0.227451
0.478431 0.000000 0.227451
0.572549 0.000000 0.227451
0.650980 0.000000 0.227451
0.725490 0.000000 0.227451
0.803922 0.000000 0.227451
0.866667 0.000000 0.227451
0.917647 0.000000 0.227451
0.949020 0.000000 0.227451
0.968627 0.000000 0.227451
1.000000 0.000000 0.227451
0.000000 0.141176 0.227451
0.000000 0.141176 0.227451
0.000000 0.141176 0.227451
0.000000 0.141176 0.227451
0.094118 0.141176 0.227451
0.337255 0.141176 0.227451
0.478431 0.141176 0.227451
0.572549 0.141176 0.227451
0.650980 0.141176 0.227451
0.725490 0.141176 0.227451
0.803922 0.141176 0.227451
0.866667 0.141176 0.227451
0.917647 0.141176 0.227451
0.949020 0.141176 0.227451
0.968627 0.141176 0.227451
1.000000 0.141176 0.227451
0.000000 0.258824 0.227451
0.000000 0.258824 0.227451
0.000000 0.258824 0.227451
0.000000 0.258824 0.227451
0.094118 0.258824 0.227451
0.337255 0.258824 0.227451
0.478431 0.258824 0.227451
0.572549 0.258824 0.227451
0.650980 0.258824 0.227451
0.725490 0.258824 0.227451
0.803922 0.258824 0.227451
0.866667 0.258824 0.227451
0.917647 0.258824 0.227451
0.949020 0.258824 0.227451
0.968627 0.258824 0.227451
1.000000 0.258824 0.227451
0.000000 0.345098 0.227451
0.000000 0.345098 0.227451
0.000000 0.345098 0.227451
0.000000 0.345098 0.227451
0.094118 0.345098 0.227451
0.337255 0.345098 0.227451
0.478431 0.345098 0.227451
0.572549 0.345098 0.227451
0.650980 0.345098 0.227451
0.725490 0.345098 0.227451
0.803922 0.345098 0.227451
0.866667 0.345098 0.227451
0.917647 0.345098 0.227451
0.949020 0.345098 0.227451
0.968627 0.345098 0.227451
1.000000 0.345098 0.227451
0.000000 0.415686 0.227451
0.000000 0.415686 0.227451
0.000000 0.415686 0.227451
0.000000 0.415686 0.227451
0.094118 0.415686 0.227451
0.337255 0.415686 0.227451
0.478431 0.415686 0.227451
0.572549 0.415686 0.227451
0.650980 0.415686 0.227451
0.725490 0.415686 0.227451
0.803922 0.415686 0.227451
0.866667 0.415686 0.227451
0.917647 0.415686 0.227451
0.949020 0.415686 0.227451
0.968627 0.415686 0.227451
1.000000 0.415686 0.227451
0.000000 0.478431 0.227451
0.000000 0.478431 0.227451
0.000000 0.478431 0.227451
0.000000 0.478431 0.227451
0.094118 0.478431 0.227451
0.337255 0.478431 0.227451
0.478431 0.478431 0.227451
0.572549 0.478431 0.227451
0.650980 0.478431 0.227451
0.725490 0.478431 0.227451
0.803922 0.478431 0.227451
0.866667 0.478431 0.227451
0.917647 0.478431 0.227451
0.949020 0.478431 0.227451
0.968627 0.478431 0.227451
1.000000 0.478431 0.227451
0.000000 0.541176 0.227451
0.000000 0.541176 0.227451
0.000000 0.541176 0.227451
0.000000 0.541176 0.227451
0.094118 0.541176 0.227451
0.337255 0.541176 0.227451
0.478431 0.541176 0.227451
0.572549 0.541176 0.227451
0.650980 0.541176 0.227451
0.725490 0.541176 0.227451
0.803922 0.541176 0.227451
0.866667 0.541176 0.227451
0.917647 0.541176 0.227451
0.949020 0.541176 0.227451
0.968627 0.541176 0.227451
1.000000 0.541176 0.227451
0.000000 0.607843 0.227451
0.000000 0.607843 0.227451
0.000000 0.607843 0.227451
0.000000 0.607843 0.227451
0.094118 0.607843 0.227451
0.337255 0.607843 0.227451
0.478431 0.607843 0.227451
0.572549 0.607843 0.227451
0.650980 0.607843 0.227451
0.725490 0.607843 0.227451
0.803922 0.607843 0.227451
0.866667 0.607843 0.227451
0.917647 0.607843 0.227451
0.949020 0.607843 0.227451
0.968627 0.607843 0.227451
1.000000 0.607843 0.227451
0.000000 0.670588 0.227451
0.000000 0.670588 0.227451
0.000000 0.670588 0.227451
0.000000 0.670588 0.227451
0.094118 0.670588 0.227451
0.337255 0.670588 0.227451
0.478431 0.670588 0.227451
0.572549 0.670588 0.227451
0.650980 0.670588 0.227451
0.725490 0.670588 0.227451
0.803922 0.670588 0.227451
0.866667 0.670588 0.227451
0.917647 0.670588 0.227451
0.949020 0.670588 0.227451
0.968627 0.670588 0.227451
1.000000 0.670588 0.227451
0.000000 0.729412 0.227451
0.000000 0.729412 0.227451
0.000000 0.729412 0.227451
0.000000 0.729412 0.227451
0.094118 0.729412 0.227451
0.337255 0.729412 0.227451
0.478431 0.729412 0.227451
0.572549 0.729412 0.227451
0.650980 0.729412 0.227451
0.725490 0.729412 0.227451
0.803922 0.729412 0.227451
0.866667 0.729412 0.227451
0.917647 0.729412 0.227451
0.949020 0.729412 0.227451
0.968627 0.729412 0.227451
1.000000 0.729412 0.227451
0.000000 0.780392 0.227451
0.000000 0.780392 0.227451
0.000000 0.780392 0.227451
0.000000 0.780392 0.227451
0.094118 0.780392 0.227451
0.337255 0.780392 0.227451
0.478431 0.780392 0.227451
0.572549 0.780392 0.227451
0.650980 0.780392 0.227451
0.725490 0.780392 0.227451
0.803922 0.780392 0.227451
0.866667 0.780392 0.227451
0.917647 0.780392 0.227451
0.949020 0.780392 0.227451
0.968627 0.780392 0.227451
1.000000 0.780392 0.227451
0.000000 0.823529 0.227451
0.000000 0.823529 0.227451
0.000000 0.823529 0.227451
0.000000 0.823529 0.227451
0.094118 0.823529 0.227451
0.337255 0.823529 0.227451
0.478431 0.823529 0.227451
0.572549 0.823529 0.227451
0.650980 0.823529 0.227451
0.725490 0.823529 0.227451
0.803922 0.823529 0.227451
0.866667 0.823529 0.227451
0.917647 0.823529 0.227451
0.949020 0.823529 0.227451
0.968627 0.823529 0.227451
1.000000 0.823529 0.227451
0.000000 0.854902 0.227451
0.000000 0.854902 0.227451
0.000000 0.854902 0.227451
0.000000 0.854902 0.227451
0.094118 0.854902 0.227451
0.337255 0.854902 0.227451
0.478431 0.854902 0.227451
0.572549 0.854902 0.227451
0.650980 0.854902 0.227451
0.725490 0.854902 0.227451
0.803922 0.854902 0.227451
0.866667 0.854902 0.227451
0.917647 0.854902 0.227451
0.949020 0.854902 0.227451
0.968627 0.854902 0.227451
1.000000 0.854902 0.227451
0.000000 0.882353 0.227451
0.000000 0.882353 0.227451
0.000000 0.882353 0.227451
0.000000 0.882353 0.227451
0.094118 0.882353 0.227451
0.337255 0.882353 0.227451
0.478431 0.882353 0.227451
0.572549 0.882353 0.227451
0.650980 0.882353 0.227451
0.725490 0.882353 0.227451
0.803922 0.882353 0.227451
0.866667 0.882353 0.227451
0.917647 0.882353 0.227451
0.949020 0.882353 0.227451
0.968627 0.882353 0.227451
1.000000 0.882353 0.227451
0.000000 0.905882 0.227451
0.000000 0.905882 0.227451
0.000000 0.905882 0.227451
0.000000 0.905882 0.227451
0.094118 0.905882 0.227451
0.337255 0.905882 0.227451
0.478431 0.905882 0.227451
0.572549 0.905882 0.227451
0.650980 0.905882 0.227451
0.725490 0.905882 0.227451
0.803922 0.905882 0.227451
0.866667 0.905882 0.227451
0.917647 0.905882 0.227451
0.949020 0.905882 0.227451
0.968627 0.905882 0.227451
1.000000 0.905882 0.227451
0.000000 0.000000 0.282353
0.000000 0.000000 0.282353
0.000000 0.000000 0.282353
0.000000 0.000000 0.282353
0.094118 0.000000 0.282353
0.337255 0.000000 0.282353
0.478431 0.000000 0.282353
0.572549 0.000000 0.282353
0.650980 0.000000 0.282353
0.725490 0.000000 0.282353
0.803922 0.000000 0.282353
0.866667 0.000000 0.282353
0.917647 0.000000 0.282353
0.949020 0.000000 0.282353
0.968627 0.000000 0.282353
1.000000 0.000000 0.282353
0.000000 0.000000 0.282353
0.000000 0.000000 0.282353
0.000000 0.000000 0.282353
0.000000 0.000000 0.282353
0.094118 0.000000 0.282353
0.337255 0.000000 0.282353
0.478431 0.000000 0.282353
0.572549 0.000000 0.282353
0.650980 0.000000 0.282353
0.725490 0.000000 0.282353
0.803922 0.000000 0.282353
0.866667 0.000000 0.282353
0.917647 0.000000 0.282353
0.949020 0.000000 0.282353
0.968627 0.000000 0.282353
1.000000 0.000000 0.282353
0.000000 0.141176 0.282353
0.000000 0.141176 0.282353
0.000000 0.141176 0.282353
0.000000 0.141176 0.282353
0.094118 0.141176 0.282353
0.337255 0.141176 0.282353
0.478431 0.141176 0.282353
0.572549 0.141176 0.282353
0.650980 0.141176 0.282353
0.725490 0.141176 0.282353
0.803922 0.141176 0.282353
0.866667 0.141176 0.282353
0.917647 0.141176 0.282353
0.949020 0.141176 0.282353
0.968627 0.141176 0.282353
1.000000 0.141176 0.282353
0.000000 0.258824 0.282353
0.000000 0.258824 0.282353
0.000000 0.258824 0.282353
0.000000 0.258824 0.282353
0.094118 0.258824 0.282353
0.337255 0.258824 0.282353
0.478431 0.258824 0.282353
0.572549 0.258824 0.282353
0.650980 0.258824 0.282353
0.725490 0.258824 0.282353
0.803922 0.258824 0.282353
0.866667 0.258824 0.282353
0.917647 0.258824 0.282353
0.949020 0.258824 0.282353
0.968627 0.258824 0.282353
1.000000 0.258824 0.282353
0.000000 0.345098 0.282353
0.000000 0.345098 0.282353
0.000000 0.345098 0.282353
0.000000 0.345098 0.282353
0.094118 0.345098 0.282353
0.337255 0.345098 0.282353
0.478431 0.345098 0.282353
0.572549 0.345098 0.282353
0.650980 0.345098 0.282353
0.725490 0.345098 0.282353
0.803922 0.345098 0.282353
0.866667 0.345098 0.282353
0.917647 0.345098 0.282353
0.949020 0.345098 0.282353
0.968627 0.345098 0.282353
1.000000 0.345098 0.282353
0.000000 0.415686 0.282353
0.000000 0.415686 0.282353
0.000000 0.415686 0.282353
0.000000 0.415686 0.282353
0.094118 0.415686 0.282353
0.337255 0.415686 0.282353
0.478431 0.415686 0.282353
0.572549 0.415686 0.282353
0.650980 0.415686 0.282353
0.725490 0.415686 0.282353
0.803922 0.415686 0.282353
0.866667 0.415686 0.282353
0.917647 0.415686 0.282353
0.949020 0.415686 0.282353
0.968627 0.415686 0.282353
1.000000 0.415686 0.282353
0.000000 0.478431 0.282353
0.000000 0.478431 0.282353
0.000000 0.478431 0.282353
0.000000 0.478431 0.282353
0.094118 0.478431 0.282353
0.337255 0.478431 0.282353
0.478431 0.478431 0.282353
0.572549 0.478431 0.282353
0.650980 0.478431 0.282353
0.725490 0.478431 0.282353
0.803922 0.478431 0.282353
0.866667 0.478431 0.282353
0.917647 0.478431 0.282353
0.949020 0.478431 0.282353
0.968627 0.478431 0.282353
1.000000 0.478431 0.282353
0.000000 0.541176 0.282353
0.000000 0.541176 0.282353
0.000000 0.541176 0.282353
0.000000 0.541176 0.282353
0.094118 0.541176 0.282353
0.337255 0.541176 0.282353
0.478431 0.541176 0.282353
0.572549 0.541176 0.282353
0.650980 0.541176 0.282353
0.725490 0.541176 0.282353
0.803922 0.541176 0.282353
0.866667 0.541176 0.282353
0.917647 0.541176 0.282353
0.949020 0.541176 0.282353
0.968627 0.541176 0.282353
1.000000 0.541176 0.282353
0.000000 0.607843 0.282353
0.000000 0.607843 0.282353
0.000000 0.607843 0.282353
0.000000 0.607843 0.282353
0.094118 0.607843 0.282353
0.337255 0.607843 0.282353
0.478431 0.607843 0.282353
0.572549 0.607843 0.282353
0.650980 0.607843 0.282353
0.725490 0.607843 0.282353
0.803922 0.607843 0.282353
0.866667 0.607843 0.282353
0.917647 0.607843 0.282353
0.949020 0.607843 0.282353
0.968627 0.607843 0.282353
1.000000 0.607843 0.282353
0.000000 0.670588 0.282353
0.000000 0.670588 0.282353
0.000000 0.670588 0.282353
0.000000 0.670588 0.282353
0.094118 0.670588 0.282353
0.337255 0.670588 0.282353
0.478431 0.670588 0.282353
0.572549 0.670588 0.282353
0.650980 0.670588 0.282353
0.725490 0.670588 0.282353
0.803922 0.670588 0.282353
0.866667 0.670588 0.282353
0.917647 0.670588 0.282353
0.949020 0.670588 0.282353
0.968627 0.670588 0.282353
1.000000 0.670588 0.282353
0.000000 0.729412 0.282353
0.000000 0.729412 0.282353
0.000000 0.729412 0.282353
0.000000 0.729412 0.282353
0.094118 0.729412 0.282353
0.337255 0.729412 0.282353
0.478431 0.729412 0.282353
0.572549 0.729412 0.282353
0.650980 0.729412 0.282353
0.725490 0.729412 0.282353
0.803922 0.729412 0.282353
0.866667 0.729412 0.282353
0.917647 0.729412 0.282353
0.949020 0.729412 0.282353
0.968627 0.729412 0.282353
1.000000 0.729412 0.282353
0.000000 0.780392 0.282353
0.000000 0.780392 0.282353
0.000000 0.780392 0.282353
0.000000 0.780392 0.282353
0.094118 0.780392 0.282353
0.337255 0.780392 0.282353
0.478431 0.780392 0.282353
0.572549 0.780392 0.282353
0.650980 0.780392 0.282353
0.725490 0.780392 0.282353
0.803922 0.780392 0.282353
0.866667 0.780392 0.282353
0.917647 0.780392 0.282353
0.949020 0.780392 0.282353
0.968627 0.780392 0.282353
1.000000 0.780392 0.282353
0.000000 0.823529 0.282353
0.000000 0.823529 0.282353
0.000000 0.823529 0.282353
0.000000 0.823529 0.282353
0.094118 0.823529 0.282353
0.337255 0.823529 0.282353
0.478431 0.823529 0.282353
0.572549 0.823529 0.282353
0.650980 0.823529 0.282353
0.725490 0.823529 0.282353
0.803922 0.823529 0.282353
0.866667 0.823529 0.282353
0.917647 0.823529 0.282353
0.949020 0.823529 0.282353
0.968627 0.823529 0.282353
1.000000 0.823529 0.282353
0.000000 0.854902 0.282353
0.000000 0.854902 0.282353
0.000000 0.854902 0.282353
0.000000 0.854902 0.282353
0.094118 0.854902 0.282353
0.337255 0.854902 0.282353
0.478431 0.854902 0.282353
0.572549 0.854902 0.282353
0.650980 0.854902 0.282353
0.725490 0.854902 0.282353
0.803922 0.854902 0.282353
0.866667 0.854902 0.282353
0.917647 0.854902 0.282353
0.949020 0.854902 0.282353
0.968627 0.854902 0.282353
1.000000 0.854902 0.282353
0.000000 0.882353 0.282353
0.000000 0.882353 0.282353
0.000000 0.882353 0.282353
0.000000 0.882353 0.282353
0.094118 0.882353 0.282353
0.337255 0.882353 0.282353
0.478431 0.882353 0.282353
0.572549 0.882353 0.282353
0.650980 0.882353 0.282353
0.725490 0.882353 0.282353
0.803922 0.882353 0.282353
0.866667 0.882353 0.282353
0.917647 0.882353 0.282353
0.949020 0.882353 0.282353
0.968627 0.882353 0.282353
1.000000 0.882353 0.282353
0.000000 0.905882 0.282353
0.000000 0.905882 0.282353
0.000000 0.905882 0.282353
0.000000 0.905882 0.282353
0.094118 0.905882 0.282353
0.337255 0.905882 0.282353
0.478431 0.905882 0.282353
0.572549 0.905882 0.282353
0.650980 0.905882 0.282353
0.725490 0.905882 0.282353
0.803922 0.905882 0.282353
0.866667 0.905882 0.282353
0.917647 0.905882 0.282353
0.949020 0.905882 0.282353
0.968627 0.905882 0.282353
1.000000 0.905882 0.282353
0.000000 0.000000 0.329412
0.000000 0.000000 0.329412
0.000000 0.000000 0.329412
0.000000 0.000000 0.329412
0.094118 0.000000 0.329412
0.337255 0.000000 0.329412
0.478431 0.000000 0.329412
0.572549 0.000000 0.329412
0.650980 0.000000 0.329412
0.725490 0.000000 0.329412
0.803922 0.000000 0.329412
0.866667 0.000000 0.329412
0.917647 0.000000 0.329412
0.949020 0.000000 0.329412
0.968627 0.000000 0.329412
1.000000 0.000000 0.329412
0.000000 0.000000 0.329412
0.000000 0.000000 0.329412
0.000000 0.000000 0.329412
0.000000 0.000000 0.329412
0.094118 0.000000 0.329412
0.337255 0.000000 0.329412
0.478431 0.000000 0.329412
0.572549 0.000000 0.329412
0.650980 0.000000 0.329412
0.725490 0.000000 0.329412
0.803922 0.000000 0.329412
0.866667 0.000000 0.329412
0.917647 0.000000 0.329412
0.949020 0.000000 0.329412
0.968627 0.000000 0.329412
1.000000 0.000000 0.329412
0.000000 0.141176 0.329412
0.000000 0.141176 0.329412
0.000000 0.141176 0.329412
0.000000 0.141176 0.329412
0.094118 0.141176 0.329412
0.337255 0.141176 0.329412
0.478431 0.141176 0.329412
0.572549 0.141176 0.329412
0.650980 0.141176 0.329412
0.725490 0.141176 0.329412
0.803922 0.141176 0.329412
0.866667 0.141176 0.329412
0.917647 0.141176 0.329412
0.949020 0.141176 0.329412
0.968627 0.141176 0.329412
1.000000 0.141176 0.329412
0.000000 0.258824 0.329412
0.000000 0.258824 0.329412
0.000000 0.258824 0.329412
0.000000 0.258824 0.329412
0.094118 0.258824 0.329412
0.337255 0.258824 0.329412
0.478431 0.258824 0.329412
0.572549 0.258824 0.329412
0.650980 0.258824 0.329412
0.725490 0.258824 0.329412
0.803922 0.258824 0.329412
0.866667 0.258824 0.329412
0.917647 0.258824 0.329412
0.949020 0.258824 0.329412
0.968627 0.258824 0.329412
1.000000 0.258824 0.329412
0.000000 0.345098 0.329412
0.000000 0.345098 0.329412
0.000000 0.345098 0.329412
0.000000 0.345098 0.329412
0.094118 0.345098 0.329412
0.337255 0.345098 0.329412
0.478431 0.345098 0.329412
0.572549 0.345098 0.329412
0.650980 0.345098 0.329412
0.725490 0.345098 0.329412
0.803922 0.345098 0.329412
0.866667 0.345098 0.329412
0.917647 0.345098 0.329412
0.949020 0.345098 0.329412
0.968627 0.345098 0.329412
1.000000 0.345098 0.329412
0.000000 0.415686 0.329412
0.000000 0.415686 0.329412
0.000000 0.415686 0.329412
0.000000 0.415686 0.329412
0.094118 0.415686 0.329412
0.337255 0.415686 0.329412
0.478431 0.415686 0.329412
0.572549 0.415686 0.329412
0.650980 0.415686 0.329412
0.725490 0.415686 0.329412
0.803922 0.415686 0.329412
0.866667 0.415686 0.329412
0.917647 0.415686 0.329412
0.949020 0.415686 0.329412
0.968627 0.415686 0.329412
1.000000 0.415686 0.329412
0.000000 0.478431 0.329412
0.000000 0.478431 0.329412
0.000000 0.478431 0.329412
0.000000 0.478431 0.329412
0.094118 0.478431 0.329412
0.337255 0.478431 0.329412
0.478431 0.478431 0.329412
0.572549 0.478431 0.329412
0.650980 0.478431 0.329412
0.725490 0.478431 0.329412
0.803922 0.478431 0.329412
0.866667 0.478431 0.329412
0.917647 0.478431 0.329412
0.949020 0.478431 0.329412
0.968627 0.478431 0.329412
1.000000 0.478431 0.329412
0.000000 0.541176 0.329412
0.000000 0.541176 0.329412
0.000000 0.541176 0.329412
0.000000 0.541176 0.329412
0.094118 0.541176 0.329412
0.337255 0.541176 0.329412
0.478431 0.541176 0.329412
0.572549 0.541176 0.329412
0.650980 0.541176 0.329412
0.725490 0.541176 0.329412
0.803922 0.541176 0.329412
0.866667 0.541176 0.329412
0.917647 0.541176 0.329412
0.949020 0.541176 0.329412
0.968627 0.541176 0.329412
1.000000 0.541176 0.329412
0.000000 0.607843 0.329412
0.000000 0.607843 0.329412
0.000000 0.607843 0.329412
0.000000 0.607843 0.329412
0.094118 0.607843 0.329412
0.337255 0.607843 0.329412
0.478431 0.607843 0.329412
0.572549 0.607843 0.329412
0.650980 0.607843 0.329412
0.725490 0.607843 0.329412
0.803922 0.607843 0.329412
0.866667 0.607843 0.329412
0.917647 0.607843 0.329412
0.949020 0.607843 0.329412
0.968627 0.607843 0.329412
1.000000 0.607843 0.329412
0.000000 0.670588 0.329412
0.000000 0.670588 0.329412
0.000000 0.670588 0.329412
0.000000 0.670588 0.329412
0.094118 0.670588 0.329412
0.337255 0.670588 0.329412
0.478431 0.670588 0.329412
0.572549 0.670588 0.329412
0.650980 0.670588 0.329412
0.725490 0.670588 0.329412
0.803922 0.670588 0.329412
0.866667 0.670588 0.329412
0.917647 0.670588 0.329412
0.949020 0.670588 0.329412
0.968627 0.670588 0.329412
1.000000 0.670588 0.329412
0.000000 0.729412 0.329412
0.000000 0.729412 0.329412
0.000000 0.729412 0.329412
0.000000 0.729412 0.329412
0.094118 0.729412 0.329412
0.337255 0.729412 0.329412
0.478431 0.729412 0.329412
0.572549 0.729412 0.329412
0.650980 0.729412 0.329412
0.725490 0.729412 0.329412
0.803922 0.729412 0.329412
0.866667 0.729412 0.329412
0.917647 0.729412 0.329412
0.949020 0.729412 0.329412
0.968627 0.729412 0.329412
1.000000 0.729412 0.329412
0.000000 0.780392 0.329412
0.000000 0.780392 0.329412
0.000000 0.780392 0.329412
0.000000 0.780392 0.329412
0.094118 0.780392 0.329412
0.337255 0.780392 0.329412
0.478431 0.780392 0.329412
0.572549 0.780392 0.329412
0.650980 0.780392 0.329412
0.725490 0.780392 0.329412
0.803922 0.780392 0.329412
0.866667 0.780392 0.329412
0.917647 0.780392 0.329412
0.949020 0.780392 0.329412
0.968627 0.780392 0.329412
1.000000 0.780392 0.329412
0.000000 0.823529 0.329412
0.000000 0.823529 0.329412
0.000000 0.823529 0.329412
0.000000 0.823529 0.329412
0.094118 0.823529 0.329412
0.337255 0.823529 0.329412
0.478431 0.823529 0.329412
0.572549 0.823529 0.329412
0.650980 0.823529 0.329412
0.725490 0.823529 0.329412
0.803922 0.823529 0.329412
0.866667 0.823529 0.329412
0.917647 0.823529 0.329412
0.949020 0.823529 0.329412
0.968627 0.823529 0.329412
1.000000 0.823529 0.329412
0.000000 0.854902 0.329412
0.000000 0.854902 0.329412
0.000000 0.854902 0.329412
0.000000 0.854902 0.329412
0.094118 0.854902 0.329412
0.337255 0.854902 0.329412
0.478431 0.854902 0.329412
0.572549 0.854902 0.329412
0.650980 0.854902 0.329412
0.725490 0.854902 0.329412
0.803922 0.854902 0.329412
0.866667 0.854902 0.329412
0.917647 0.854902 0.329412
0.949020 0.854902 0.329412
0.968627 0.854902 0.329412
1.000000 0.854902 0.329412
0.000000 0.882353 0.329412
0.000000 0.882353 0.329412
0.000000 0.882353 0.329412
0.000000 0.882353 0.329412
0.094118 0.882353 0.329412
0.337255 0.882353 0.329412
0.478431 0.882353 0.329412
0.572549 0.882353 0.329412
0.650980 0.882353 0.329412
0.725490 0.882353 0.329412
0.803922 0.882353 0.329412
0.866667 0.882353 0.329412
0.917647 0.882353 0.329412
0.949020 0.882353 0.329412
0.968627 0.882353 0.329412
1.000000 0.882353 0.329412
0.000000 0.905882 0.329412
0.000000 0.905882 0.329412
0.000000 0.905882 0.329412
0.000000 0.905882 0.329412
0.094118 0.905882 0.329412
0.337255 0.905882 0.329412
0.478431 0.905882 0.329412
0.572549 0.905882 0.329412
0.650980 0.905882 0.329412
0.725490 0.905882 0.329412
0.803922 0.905882 0.329412
0.866667 0.905882 0.329412
0.917647 0.905882 0.329412
0.949020 0.905882 0.329412
0.968627 0.905882 0.329412
1.000000 0.905882 0.329412
0.000000 0.000000 0.376471
0.000000 0.000000 0.376471
0.000000 0.000000 0.376471
0.000000 0.000000 0.376471
0.094118 0.000000 0.376471
0.337255 0.000000 0.376471
0.478431 0.000000 0.376471
0.572549 0.000000 0.376471
0.650980 0.000000 0.376471
0.725490 0.000000 0.376471
0.803922 0.000000 0.376471
0.866667 0.000000 0.376471
0.917647 0.000000 0.376471
0.949020 0.000000 0.376471
0.968627 0.000000 0.376471
1.000000 0.000000 0.376471
0.000000 0.000000 0.376471
0.000000 0.000000 0.376471
0.000000 0.000000 0.376471
0.000000 0.000000 0.376471
0.094118 0.000000 0.376471
0.337255 0.000000 0.376471
0.478431 0.000000 0.376471
0.572549 0.000000 0.376471
0.650980 0.000000 0.376471
0.725490 0.000000 0.376471
0.803922 0.000000 0.376471
0.866667 0.000000 0.376471
0.917647 0.000000 0.376471
0.949020 0.000000 0.376471
0.968627 0.000000 0.376471
1.000000 0.000000 0.376471
0.000000 0.141176 0.376471
0.000000 0.141176 0.376471
0.000000 0.141176 0.376471
0.000000 0.141176 0.376471
0.094118 0.141176 0.376471
0.337255 0.141176 0.376471
0.478431 0.141176 0.376471
0.572549 0.141176 0.376471
0.650980 0.141176 0.376471
0.725490 0.141176 0.376471
0.803922 0.141176 0.376471
0.866667 0.141176 0.376471
0.917647 0.141176 0.376471
0.949020 0.141176 0.376471
0.968627 0.141176 0.376471
1.000000 0.141176 0.376471
0.000000 0.258824 0.376471
0.000000 0.258824 0.376471
0.000000 0.258824 0.376471
0.000000 0.258824 0.376471
0.094118 0.258824 0.376471
0.337255 0.258824 0.376471
0.478431 0.258824 0.376471
0.572549 0.258824 0.376471
0.650980 0.258824 0.376471
0.725490 0.258824 0.376471
0.803922 0.258824 0.376471
0.866667 0.258824 0.376471
0.917647 0.258824 0.376471
0.949020 0.258824 0.376471
0.968627 0.258824 0.376471
1.000000 0.258824 0.376471
0.000000 0.345098 0.376471
0.000000 0.345098 0.376471
0.000000 0.345098 0.376471
0.000000 0.345098 0.376471
0.094118 0.345098 0.376471
0.337255 0.345098 0.376471
0.478431 0.345098 0.376471
0.572549 0.345098 0.376471
0.650980 0.345098 0.376471
0.725490 0.345098 0.376471
0.803922 0.345098 0.376471
0.866667 0.345098 0.376471
0.917647 0.345098 0.376471
0.949020 0.345098 0.376471
0.968627 0.345098 0.376471
1.000000 0.345098 0.376471
0.000000 0.415686 0.376471
0.000000 0.415686 0.376471
0.000000 0.415686 0.376471
0.000000 0.415686 0.376471
0.094118 0.415686 0.376471
0.337255 0.415686 0.376471
0.478431 0.415686 0.376471
0.572549 0.415686 0.376471
0.650980 0.415686 0.376471
0.725490 0.415686 0.376471
0.803922 0.415686 0.376471
0.866667 0.415686 0.376471
0.917647 0.415686 0.376471
0.949020 0.415686 0.376471
0.968627 0.415686 0.376471
1.000000 0.415686 0.376471
0.000000 0.478431 0.376471
0.000000 0.478431 0.376471
0.000000 0.478431 0.376471
0.000000 0.478431 0.376471
0.094118 0.478431 0.376471
0.337255 0.478431 0.376471
0.478431 0.478431 0.376471
0.572549 0.478431 0.376471
0.650980 0.478431 0.376471
0.725490 0.478431 0.376471
0.803922 0.478431 0.376471
0.866667 0.478431 0.376471
0.917647 0.478431 0.376471
0.949020 0.478431 0.376471
0.968627 0.478431 0.376471
1.000000 0.478431 0.376471
0.000000 0.541176 0.376471
0.000000 0.541176 0.376471
0.000000 0.541176 0.376471
0.000000 0.541176 0.376471
0.094118 0.541176 0.376471
0.337255 0.541176 0.376471
