luts/instant.cube
TITLE "instant"
LUT_3D_SIZE 16
DOMAIN_MIN 0.0 0.0 0.0
DOMAIN_MAX 1.0 1.0 1.0
0.121569 0.094118 0.188235
0.125490 0.098039 0.192157
0.125490 0.098039 0.192157
0.125490 0.098039 0.203922
0.149020 0.101961 0.219608
0.254902 0.105882 0.231373
0.360784 0.117647 0.247059
0.450980 0.133333 0.266667
0.533333 0.164706 0.290196
0.596078 0.203922 0.309804
0.654902 0.243137 0.333333
0.698039 0.274510 0.349020
0.733333 0.305882 0.368627
0.764706 0.333333 0.380392
0.796078 0.352941 0.388235
0.819608 0.372549 0.400000
0.152941 0.125490 0.223529
0.152941 0.125490 0.227451
0.152941 0.125490 0.227451
0.156863 0.125490 0.239216
0.192157 0.125490 0.247059
0.298039 0.129412 0.254902
0.400000 0.141176 0.270588
0.486275 0.156863 0.286275
0.564706 0.192157 0.305882
0.623529 0.231373 0.329412
0.674510 0.266667 0.349020
0.713725 0.298039 0.364706
0.745098 0.325490 0.380392
0.776471 0.349020 0.392157
0.803922 0.368627 0.403922
0.827451 0.388235 0.411765
0.149020 0.121569 0.231373
0.149020 0.121569 0.227451
0.149020 0.121569 0.227451
0.149020 0.121569 0.235294
0.203922 0.121569 0.235294
0.313725 0.129412 0.235294
0.415686 0.141176 0.243137
0.498039 0.164706 0.254902
0.572549 0.196078 0.266667
0.623529 0.227451 0.286275
0.670588 0.258824 0.309804
0.709804 0.282353 0.325490
0.741176 0.309804 0.341176
0.768627 0.325490 0.356863
0.796078 0.341176 0.364706
0.819608 0.360784 0.372549
0.152941 0.160784 0.219608
0.152941 0.164706 0.219608
0.156863 0.172549 0.223529
0.160784 0.184314 0.231373
0.231373 0.196078 0.231373
0.337255 0.207843 0.231373
0.439216 0.219608 0.235294
0.525490 0.231373 0.239216
0.596078 0.247059 0.247059
0.650980 0.254902 0.250980
0.694118 0.270588 0.258824
0.729412 0.290196 0.282353
0.756863 0.313725 0.301961
0.784314 0.337255 0.325490
0.811765 0.360784 0.345098
0.835294 0.380392 0.364706
0.223529 0.290196 0.258824
0.223529 0.290196 0.258824
0.227451 0.294118 0.258824
0.235294 0.305882 0.262745
0.305882 0.313725 0.274510
0.400000 0.329412 0.258824
0.490196 0.341176 0.262745
0.568627 0.349020 0.266667
0.635294 0.356863 0.270588
0.682353 0.364706 0.274510
0.721569 0.368627 0.278431
0.752941 0.368627 0.278431
0.780392 0.368627 0.278431
0.803922 0.368627 0.278431
0.827451 0.384314 0.301961
0.850980 0.403922 0.333333
0.262745 0.368627 0.258824
0.258824 0.368627 0.254902
0.258824 0.372549 0.254902
0.278431 0.376471 0.258824
0.345098 0.384314 0.266667
0.419608 0.396078 0.274510
0.509804 0.411765 0.254902
0.584314 0.419608 0.254902
0.647059 0.427451 0.262745
0.690196 0.431373 0.266667
0.729412 0.431373 0.266667
0.760784 0.431373 0.270588
0.788235 0.427451 0.266667
0.811765 0.423529 0.266667
0.835294 0.415686 0.262745
0.862745 0.415686 0.266667
0.317647 0.462745 0.282353
0.317647 0.462745 0.286275
0.325490 0.466667 0.286275
0.364706 0.474510 0.290196
0.423529 0.482353 0.301961
0.486275 0.490196 0.313725
0.560784 0.501961 0.325490
0.631373 0.521569 0.298039
0.690196 0.525490 0.298039
0.733333 0.529412 0.301961
0.764706 0.529412 0.305882
0.796078 0.529412 0.309804
0.819608 0.525490 0.309804
0.843137 0.521569 0.309804
0.866667 0.517647 0.305882
0.890196 0.517647 0.305882
0.384314 0.545098 0.325490
0.388235 0.545098 0.325490
0.407843 0.549020 0.325490
0.443137 0.556863 0.329412
0.494118 0.560784 0.337255
0.549020 0.564706 0.345098
0.607843 0.572549 0.360784
0.662745 0.580392 0.368627
0.721569 0.596078 0.337255
0.760784 0.596078 0.329412
0.792157 0.596078 0.329412
0.819608 0.596078 0.333333
0.839216 0.592157 0.329412
0.862745 0.584314 0.325490
0.882353 0.580392 0.321569
0.905882 0.576471 0.321569
0.419608 0.584314 0.325490
0.427451 0.584314 0.325490
0.450980 0.588235 0.329412
0.482353 0.592157 0.333333
0.525490 0.596078 0.341176
0.576471 0.600000 0.352941
0.631373 0.607843 0.364706
0.678431 0.615686 0.376471
0.729412 0.623529 0.388235
0.772549 0.631373 0.356863
0.803922 0.635294 0.341176
0.827451 0.635294 0.345098
0.850980 0.631373 0.345098
0.874510 0.631373 0.341176
0.894118 0.627451 0.341176
0.917647 0.627451 0.345098
0.501961 0.647059 0.372549
0.509804 0.647059 0.376471
0.525490 0.650980 0.376471
0.556863 0.650980 0.384314
0.592157 0.654902 0.392157
0.635294 0.658824 0.400000
0.682353 0.666667 0.411765
0.725490 0.670588 0.423529
0.760784 0.682353 0.447059
0.788235 0.690196 0.470588
0.819608 0.701961 0.447059
0.847059 0.705882 0.431373
0.866667 0.705882 0.431373
0.886275 0.701961 0.431373
0.905882 0.701961 0.435294
0.925490 0.701961 0.439216
0.564706 0.690196 0.407843
0.568627 0.690196 0.407843
0.588235 0.690196 0.411765
0.607843 0.690196 0.415686
0.639216 0.694118 0.419608
0.674510 0.698039 0.435294
0.705882 0.705882 0.450980
0.737255 0.709804 0.470588
0.768627 0.721569 0.490196
0.792157 0.729412 0.509804
0.819608 0.737255 0.529412
0.847059 0.745098 0.513725
0.866667 0.749020 0.486275
0.890196 0.745098 0.482353
0.909804 0.745098 0.478431
0.925490 0.745098 0.482353
0.588235 0.705882 0.419608
0.596078 0.709804 0.419608
0.607843 0.709804 0.427451
0.631373 0.713725 0.435294
0.654902 0.717647 0.450980
0.682353 0.725490 0.466667
0.713725 0.733333 0.482353
0.741176 0.741176 0.501961
0.772549 0.749020 0.517647
0.796078 0.756863 0.537255
0.819608 0.764706 0.556863
0.843137 0.772549 0.572549
0.866667 0.784314 0.556863
0.890196 0.784314 0.533333
0.909804 0.784314 0.525490
0.929412 0.788235 0.529412
0.647059 0.764706 0.498039
0.650980 0.764706 0.498039
0.662745 0.764706 0.505882
0.678431 0.768627 0.513725
0.698039 0.772549 0.521569
0.717647 0.776471 0.533333
0.745098 0.780392 0.545098
0.768627 0.788235 0.560784
0.792157 0.796078 0.576471
0.811765 0.803922 0.592157
0.835294 0.807843 0.607843
0.854902 0.815686 0.623529
0.874510 0.823529 0.635294
0.898039 0.831373 0.631373
0.921569 0.835294 0.607843
0.941176 0.839216 0.596078
0.678431 0.796078 0.541176
0.678431 0.796078 0.541176
0.686275 0.800000 0.545098
0.698039 0.800000 0.549020
0.713725 0.803922 0.556863
0.733333 0.807843 0.564706
0.752941 0.811765 0.576471
0.772549 0.815686 0.588235
0.796078 0.823529 0.600000
0.815686 0.827451 0.611765
0.835294 0.835294 0.623529
0.854902 0.839216 0.635294
0.874510 0.847059 0.650980
0.894118 0.854902 0.662745
0.917647 0.866667 0.658824
0.937255 0.870588 0.650980
0.698039 0.831373 0.572549
0.698039 0.831373 0.572549
0.705882 0.835294 0.576471
0.717647 0.835294 0.584314
0.729412 0.839216 0.592157
0.749020 0.843137 0.600000
0.764706 0.847059 0.611765
0.788235 0.850980 0.619608
0.807843 0.858824 0.631373
0.827451 0.866667 0.647059
0.843137 0.870588 0.658824
0.862745 0.878431 0.670588
0.878431 0.886275 0.686275
0.901961 0.890196 0.698039
0.917647 0.901961 0.713725
0.937255 0.913725 0.721569
0.737255 0.874510 0.631373
0.741176 0.874510 0.631373
0.745098 0.878431 0.635294
0.752941 0.878431 0.639216
0.764706 0.882353 0.643137
0.776471 0.882353 0.650980
0.792157 0.886275 0.658824
0.807843 0.890196 0.666667
0.823529 0.898039 0.678431
0.839216 0.905882 0.690196
0.854902 0.909804 0.698039
0.870588 0.917647 0.709804
0.890196 0.925490 0.725490
0.905882 0.933333 0.737255
0.921569 0.937255 0.745098
0.937255 0.949020 0.756863
0.156863 0.125490 0.231373
0.156863 0.129412 0.235294
0.156863 0.129412 0.243137
0.160784 0.129412 0.254902
0.184314 0.129412 0.270588
0.290196 0.133333 0.282353
0.392157 0.145098 0.298039
0.478431 0.156863 0.313725
0.560784 0.192157 0.333333
0.623529 0.235294 0.352941
0.674510 0.270588 0.372549
0.713725 0.301961 0.388235
0.749020 0.333333 0.400000
0.776471 0.352941 0.411765
0.807843 0.372549 0.423529
0.831373 0.396078 0.431373
0.164706 0.133333 0.243137
0.164706 0.133333 0.247059
0.160784 0.133333 0.247059
0.160784 0.133333 0.254902
0.207843 0.133333 0.262745
0.313725 0.137255 0.270588
0.411765 0.145098 0.286275
0.494118 0.160784 0.301961
0.568627 0.196078 0.325490
0.627451 0.231373 0.341176
0.674510 0.270588 0.360784
0.713725 0.301961 0.376471
0.745098 0.325490 0.392157
0.776471 0.349020 0.400000
0.803922 0.368627 0.407843
0.827451 0.384314 0.415686
0.141176 0.113725 0.231373
0.137255 0.109804 0.231373
0.137255 0.113725 0.231373
0.137255 0.113725 0.239216
0.200000 0.113725 0.243137
0.305882 0.121569 0.247059
0.403922 0.141176 0.254902
0.490196 0.172549 0.270588
0.568627 0.207843 0.290196
0.623529 0.239216 0.313725
0.674510 0.270588 0.333333
0.709804 0.298039 0.349020
0.745098 0.321569 0.364706
0.772549 0.341176 0.376471
0.800000 0.360784 0.388235
0.827451 0.380392 0.400000
0.180392 0.196078 0.262745
0.184314 0.207843 0.262745
0.184314 0.207843 0.262745
0.192157 0.215686 0.270588
0.262745 0.223529 0.270588
0.368627 0.231373 0.270588
0.466667 0.239216 0.274510
0.549020 0.250980 0.278431
0.615686 0.262745 0.282353
0.666667 0.274510 0.286275
0.709804 0.294118 0.301961
0.737255 0.313725 0.321569
0.768627 0.337255 0.341176
0.796078 0.360784 0.356863
0.819608 0.380392 0.376471
0.843137 0.396078 0.392157
0.231373 0.305882 0.274510
0.231373 0.301961 0.270588
0.231373 0.305882 0.270588
0.239216 0.309804 0.274510
0.309804 0.317647 0.282353
0.400000 0.333333 0.274510
0.494118 0.341176 0.274510
0.568627 0.349020 0.278431
0.631373 0.352941 0.282353
0.678431 0.360784 0.286275
0.721569 0.360784 0.286275
0.749020 0.360784 0.286275
0.776471 0.360784 0.286275
0.803922 0.364706 0.290196
0.827451 0.380392 0.309804
0.850980 0.400000 0.337255
0.262745 0.376471 0.270588
0.262745 0.380392 0.270588
0.270588 0.384314 0.270588
0.286275 0.388235 0.278431
0.356863 0.396078 0.286275
0.431373 0.407843 0.298039
0.525490 0.423529 0.282353
0.600000 0.435294 0.286275
0.658824 0.443137 0.290196
0.705882 0.447059 0.298039
0.741176 0.447059 0.301961
0.772549 0.450980 0.301961
0.800000 0.447059 0.301961
0.823529 0.443137 0.301961
0.847059 0.439216 0.301961
0.870588 0.443137 0.305882
0.345098 0.490196 0.317647
0.345098 0.490196 0.317647
0.349020 0.490196 0.321569
0.384314 0.498039 0.321569
0.443137 0.505882 0.329412
0.505882 0.509804 0.341176
0.576471 0.521569 0.352941
0.647059 0.533333 0.329412
0.701961 0.541176 0.325490
0.741176 0.545098 0.333333
0.776471 0.545098 0.333333
0.803922 0.541176 0.337255
0.827451 0.537255 0.333333
0.847059 0.533333 0.329412
0.870588 0.529412 0.329412
0.894118 0.525490 0.329412
0.384314 0.545098 0.333333
0.384314 0.545098 0.333333
0.403922 0.549020 0.333333
0.439216 0.552941 0.333333
0.486275 0.556863 0.341176
0.541176 0.560784 0.349020
0.603922 0.568627 0.360784
0.658824 0.576471 0.368627
0.717647 0.584314 0.341176
0.756863 0.588235 0.329412
0.788235 0.588235 0.333333
0.811765 0.588235 0.337255
0.839216 0.584314 0.333333
0.858824 0.580392 0.329412
0.882353 0.576471 0.325490
0.905882 0.572549 0.325490
0.443137 0.600000 0.356863
0.450980 0.603922 0.360784
0.470588 0.607843 0.360784
0.501961 0.611765 0.368627
0.549020 0.615686 0.376471
0.596078 0.619608 0.384314
0.650980 0.627451 0.396078
0.698039 0.635294 0.407843
0.745098 0.643137 0.419608
0.784314 0.650980 0.392157
0.815686 0.654902 0.380392
0.839216 0.658824 0.384314
0.858824 0.654902 0.384314
0.882353 0.650980 0.384314
0.901961 0.650980 0.384314
0.921569 0.650980 0.388235
0.517647 0.658824 0.400000
0.525490 0.658824 0.400000
0.541176 0.658824 0.403922
0.568627 0.662745 0.407843
0.603922 0.666667 0.411765
0.647059 0.670588 0.423529
0.690196 0.674510 0.431373
0.729412 0.678431 0.443137
0.764706 0.686275 0.462745
0.792157 0.698039 0.482353
0.823529 0.709804 0.462745
0.847059 0.709804 0.447059
0.866667 0.709804 0.447059
0.886275 0.705882 0.447059
0.905882 0.705882 0.447059
0.925490 0.705882 0.450980
0.556863 0.682353 0.403922
0.564706 0.682353 0.403922
0.576471 0.682353 0.403922
0.600000 0.682353 0.407843
0.631373 0.686275 0.415686
0.662745 0.690196 0.427451
0.698039 0.698039 0.447059
0.733333 0.705882 0.466667
0.764706 0.717647 0.490196
0.792157 0.725490 0.509804
0.815686 0.733333 0.529412
0.843137 0.745098 0.513725
0.866667 0.745098 0.490196
0.886275 0.745098 0.486275
0.909804 0.745098 0.486275
0.929412 0.745098 0.490196
0.611765 0.725490 0.450980
0.619608 0.725490 0.454902
0.631373 0.729412 0.458824
0.650980 0.729412 0.470588
0.674510 0.737255 0.482353
0.701961 0.741176 0.494118
0.729412 0.749020 0.509804
0.756863 0.756863 0.529412
0.784314 0.764706 0.549020
0.807843 0.768627 0.564706
0.831373 0.776471 0.584314
0.850980 0.784314 0.600000
0.874510 0.796078 0.588235
0.898039 0.796078 0.560784
0.917647 0.796078 0.552941
0.937255 0.796078 0.556863
0.654902 0.768627 0.513725
0.658824 0.768627 0.513725
0.666667 0.768627 0.517647
0.682353 0.772549 0.521569
0.698039 0.776471 0.533333
0.721569 0.780392 0.545098
0.745098 0.784314 0.556863
0.768627 0.792157 0.568627
0.796078 0.796078 0.584314
0.815686 0.803922 0.596078
0.835294 0.807843 0.611765
0.854902 0.815686 0.627451
0.874510 0.823529 0.639216
0.898039 0.831373 0.631373
0.917647 0.835294 0.611765
0.941176 0.835294 0.600000
0.662745 0.792157 0.529412
0.666667 0.792157 0.533333
0.678431 0.796078 0.537255
0.690196 0.796078 0.545098
0.709804 0.800000 0.552941
0.729412 0.807843 0.564706
0.749020 0.811765 0.576471
0.772549 0.815686 0.588235
0.796078 0.823529 0.603922
0.815686 0.831373 0.619608
0.835294 0.835294 0.631373
0.854902 0.843137 0.647059
0.874510 0.850980 0.662745
0.898039 0.858824 0.674510
0.921569 0.870588 0.674510
0.937255 0.874510 0.666667
0.709804 0.839216 0.600000
0.713725 0.839216 0.600000
0.721569 0.843137 0.603922
0.733333 0.843137 0.607843
0.745098 0.847059 0.611765
0.760784 0.850980 0.623529
0.780392 0.854902 0.635294
0.796078 0.858824 0.643137
0.815686 0.866667 0.654902
0.835294 0.870588 0.666667
0.850980 0.878431 0.678431
0.866667 0.882353 0.690196
0.886275 0.890196 0.701961
0.905882 0.898039 0.713725
0.921569 0.909804 0.725490
0.937255 0.917647 0.733333
0.737255 0.874510 0.635294
0.741176 0.878431 0.635294
0.745098 0.878431 0.639216
0.752941 0.878431 0.639216
0.764706 0.882353 0.647059
0.776471 0.886275 0.654902
0.792157 0.886275 0.662745
0.807843 0.894118 0.670588
0.823529 0.898039 0.678431
0.839216 0.901961 0.686275
0.854902 0.909804 0.698039
0.870588 0.917647 0.709804
0.886275 0.925490 0.721569
0.901961 0.929412 0.733333
0.921569 0.937255 0.741176
0.937255 0.945098 0.752941
0.168627 0.141176 0.282353
0.172549 0.141176 0.286275
0.172549 0.141176 0.294118
0.172549 0.141176 0.305882
0.203922 0.145098 0.317647
0.309804 0.145098 0.329412
0.407843 0.156863 0.341176
0.494118 0.172549 0.352941
0.572549 0.211765 0.368627
0.631373 0.247059 0.388235
0.682353 0.286275 0.403922
0.721569 0.317647 0.419608
0.752941 0.345098 0.427451
0.784314 0.368627 0.435294
0.811765 0.384314 0.443137
0.835294 0.403922 0.450980
0.156863 0.129412 0.274510
0.156863 0.129412 0.282353
0.156863 0.129412 0.286275
0.156863 0.129412 0.290196
0.207843 0.129412 0.294118
0.305882 0.129412 0.301961
0.403922 0.137255 0.313725
0.482353 0.156863 0.325490
0.560784 0.196078 0.341176
0.615686 0.227451 0.356863
0.666667 0.262745 0.372549
0.705882 0.294118 0.384314
0.737255 0.317647 0.396078
0.768627 0.341176 0.407843
0.800000 0.360784 0.415686
0.827451 0.380392 0.427451
0.160784 0.137255 0.294118
0.164706 0.137255 0.298039
0.164706 0.137255 0.298039
0.164706 0.141176 0.309804
0.231373 0.145098 0.313725
0.333333 0.152941 0.321569
0.435294 0.180392 0.329412
0.517647 0.207843 0.341176
0.592157 0.243137 0.356863
0.643137 0.274510 0.372549
0.694118 0.301961 0.388235
0.729412 0.329412 0.400000
0.760784 0.349020 0.411765
0.784314 0.368627 0.419608
0.811765 0.384314 0.431373
0.839216 0.403922 0.439216
0.196078 0.211765 0.313725
0.196078 0.219608 0.309804
0.200000 0.219608 0.313725
0.200000 0.223529 0.317647
0.274510 0.231373 0.325490
0.376471 0.239216 0.325490
0.474510 0.247059 0.325490
0.552941 0.258824 0.329412
0.619608 0.274510 0.333333
0.670588 0.294118 0.341176
0.709804 0.313725 0.356863
0.741176 0.337255 0.368627
0.768627 0.356863 0.388235
0.796078 0.376471 0.396078
0.819608 0.392157 0.407843
0.843137 0.407843 0.415686
0.227451 0.298039 0.301961
0.227451 0.301961 0.301961
0.227451 0.301961 0.305882
0.235294 0.305882 0.305882
0.305882 0.313725 0.313725
0.396078 0.325490 0.309804
0.486275 0.333333 0.309804
0.564706 0.341176 0.313725
0.631373 0.349020 0.317647
0.678431 0.356863 0.321569
0.717647 0.360784 0.321569
0.749020 0.364706 0.321569
0.780392 0.364706 0.325490
0.803922 0.376471 0.337255
0.827451 0.396078 0.356863
0.854902 0.415686 0.376471
0.294118 0.407843 0.333333
0.294118 0.407843 0.333333
0.298039 0.411765 0.337255
0.317647 0.415686 0.341176
0.384314 0.423529 0.349020
0.458824 0.435294 0.352941
0.545098 0.447059 0.345098
0.615686 0.454902 0.345098
0.674510 0.462745 0.349020
0.717647 0.466667 0.352941
0.752941 0.466667 0.356863
0.780392 0.466667 0.356863
0.807843 0.466667 0.352941
0.831373 0.458824 0.352941
0.850980 0.454902 0.345098
0.874510 0.462745 0.356863
0.349020 0.494118 0.356863
0.349020 0.494118 0.356863
0.356863 0.498039 0.356863
0.392157 0.501961 0.360784
0.447059 0.505882 0.364706
0.509804 0.513725 0.372549
0.580392 0.521569 0.380392
0.647059 0.537255 0.364706
0.701961 0.541176 0.360784
0.741176 0.541176 0.360784
0.776471 0.541176 0.364706
0.800000 0.537255 0.364706
0.823529 0.533333 0.360784
0.847059 0.529412 0.352941
0.866667 0.521569 0.349020
0.890196 0.517647 0.345098
0.384314 0.545098 0.360784
0.388235 0.545098 0.360784
0.403922 0.549020 0.360784
0.439216 0.552941 0.364706
0.494118 0.560784 0.372549
0.549020 0.564706 0.380392
0.607843 0.576471 0.392157
0.666667 0.584314 0.403922
0.725490 0.596078 0.380392
0.764706 0.600000 0.376471
0.796078 0.600000 0.376471
0.819608 0.600000 0.380392
0.843137 0.596078 0.376471
0.866667 0.596078 0.372549
0.886275 0.592157 0.368627
0.909804 0.588235 0.368627
0.462745 0.619608 0.403922
0.470588 0.619608 0.403922
0.494118 0.623529 0.407843
0.521569 0.627451 0.407843
0.564706 0.631373 0.415686
0.611765 0.635294 0.423529
0.662745 0.639216 0.435294
0.709804 0.647059 0.443137
0.752941 0.654902 0.454902
0.792157 0.662745 0.431373
0.823529 0.666667 0.419608
0.847059 0.666667 0.423529
0.866667 0.666667 0.423529
0.886275 0.662745 0.419608
0.905882 0.658824 0.419608
0.925490 0.658824 0.419608
0.517647 0.658824 0.419608
0.525490 0.658824 0.419608
0.541176 0.662745 0.419608
0.564706 0.662745 0.423529
0.603922 0.662745 0.427451
0.643137 0.666667 0.435294
0.686275 0.670588 0.439216
0.725490 0.674510 0.454902
0.760784 0.682353 0.470588
0.792157 0.694118 0.490196
0.819608 0.701961 0.474510
0.843137 0.705882 0.458824
0.862745 0.701961 0.458824
0.882353 0.701961 0.454902
0.901961 0.698039 0.458824
0.925490 0.698039 0.458824
0.568627 0.690196 0.435294
0.576471 0.694118 0.435294
0.592157 0.694118 0.439216
0.615686 0.698039 0.443137
0.647059 0.701961 0.450980
0.678431 0.705882 0.466667
0.713725 0.713725 0.482353
0.745098 0.721569 0.501961
0.776471 0.729412 0.521569
0.803922 0.737255 0.545098
0.827451 0.745098 0.560784
0.850980 0.756863 0.549020
0.874510 0.756863 0.525490
0.894118 0.756863 0.525490
0.909804 0.756863 0.525490
0.929412 0.756863 0.525490
0.623529 0.733333 0.482353
0.631373 0.733333 0.486275
0.643137 0.737255 0.490196
0.658824 0.741176 0.498039
0.682353 0.745098 0.509804
0.709804 0.749020 0.521569
0.737255 0.756863 0.537255
0.764706 0.760784 0.552941
0.788235 0.768627 0.568627
0.811765 0.776471 0.584314
0.835294 0.784314 0.600000
0.854902 0.792157 0.615686
0.878431 0.800000 0.603922
0.901961 0.800000 0.580392
0.921569 0.800000 0.572549
0.937255 0.800000 0.572549
0.647059 0.764706 0.517647
0.650980 0.764706 0.521569
0.662745 0.764706 0.521569
0.674510 0.768627 0.525490
0.694118 0.772549 0.533333
0.713725 0.776471 0.545098
0.737255 0.780392 0.556863
0.760784 0.784314 0.568627
0.784314 0.792157 0.580392
0.807843 0.800000 0.596078
0.831373 0.807843 0.611765
0.850980 0.811765 0.623529
0.874510 0.819608 0.639216
0.898039 0.827451 0.639216
0.917647 0.831373 0.615686
0.937255 0.835294 0.607843
0.686275 0.803922 0.568627
0.690196 0.807843 0.572549
0.698039 0.807843 0.576471
0.705882 0.811765 0.580392
0.725490 0.811765 0.588235
0.745098 0.819608 0.596078
0.764706 0.823529 0.607843
0.784314 0.827451 0.619608
0.807843 0.835294 0.631373
0.827451 0.843137 0.643137
0.847059 0.847059 0.654902
0.862745 0.854902 0.670588
0.882353 0.858824 0.682353
0.901961 0.866667 0.694118
0.925490 0.878431 0.694118
0.941176 0.882353 0.690196
0.721569 0.847059 0.619608
0.721569 0.847059 0.619608
0.729412 0.850980 0.619608
0.737255 0.850980 0.623529
0.749020 0.854902 0.627451
0.764706 0.854902 0.635294
0.784314 0.858824 0.643137
0.800000 0.862745 0.654902
0.819608 0.870588 0.666667
0.835294 0.874510 0.674510
0.850980 0.882353 0.686275
0.870588 0.886275 0.698039
0.890196 0.894118 0.709804
0.905882 0.901961 0.721569
0.921569 0.909804 0.733333
0.937255 0.917647 0.737255
0.729412 0.870588 0.631373
0.733333 0.870588 0.631373
0.737255 0.874510 0.635294
0.745098 0.874510 0.635294
0.752941 0.878431 0.639216
0.768627 0.882353 0.647059
0.784314 0.886275 0.658824
0.800000 0.890196 0.666667
0.819608 0.898039 0.678431
0.839216 0.901961 0.690196
0.854902 0.909804 0.701961
0.870588 0.917647 0.713725
0.890196 0.925490 0.725490
0.905882 0.933333 0.737255
0.921569 0.941176 0.749020
0.937255 0.949020 0.764706
0.172549 0.145098 0.337255
0.172549 0.145098 0.337255
0.172549 0.145098 0.345098
0.172549 0.145098 0.352941
0.215686 0.145098 0.360784
0.313725 0.149020 0.372549
0.411765 0.156863 0.380392
0.494118 0.176471 0.392157
0.572549 0.215686 0.403922
0.631373 0.250980 0.415686
0.678431 0.286275 0.431373
0.717647 0.317647 0.439216
0.752941 0.341176 0.447059
0.780392 0.360784 0.454902
0.807843 0.380392 0.458824
0.831373 0.400000 0.462745
0.164706 0.137255 0.337255
0.164706 0.137255 0.345098
0.164706 0.137255 0.345098
0.168627 0.141176 0.352941
0.223529 0.141176 0.356863
0.325490 0.149020 0.364706
0.423529 0.156863 0.376471
0.505882 0.184314 0.388235
0.580392 0.223529 0.400000
0.639216 0.258824 0.415686
0.686275 0.294118 0.427451
0.725490 0.325490 0.443137
0.756863 0.349020 0.450980
0.784314 0.372549 0.458824
0.811765 0.392157 0.466667
0.839216 0.407843 0.474510
0.176471 0.152941 0.360784
0.176471 0.152941 0.364706
0.176471 0.152941 0.364706
0.180392 0.152941 0.372549
0.247059 0.160784 0.376471
0.352941 0.172549 0.380392
0.447059 0.200000 0.388235
0.529412 0.231373 0.400000
0.603922 0.262745 0.411765
0.654902 0.294118 0.423529
0.701961 0.317647 0.431373
0.737255 0.345098 0.443137
0.764706 0.364706 0.450980
0.792157 0.384314 0.458824
0.819608 0.400000 0.462745
0.843137 0.415686 0.470588
0.192157 0.219608 0.356863
0.196078 0.219608 0.356863
0.196078 0.219608 0.356863
0.203922 0.223529 0.364706
0.270588 0.227451 0.368627
0.368627 0.239216 0.372549
0.466667 0.254902 0.376471
0.545098 0.274510 0.380392
0.611765 0.294118 0.388235
0.662745 0.313725 0.396078
0.701961 0.337255 0.407843
0.737255 0.356863 0.419608
0.768627 0.372549 0.427451
0.792157 0.388235 0.431373
0.815686 0.400000 0.439216
0.839216 0.415686 0.447059
0.247059 0.321569 0.368627
0.247059 0.321569 0.368627
0.247059 0.325490 0.368627
0.258824 0.329412 0.376471
0.333333 0.337255 0.380392
0.419608 0.349020 0.384314
0.509804 0.356863 0.388235
0.588235 0.368627 0.388235
0.650980 0.372549 0.392157
0.698039 0.380392 0.392157
0.733333 0.384314 0.392157
0.764706 0.388235 0.396078
0.792157 0.400000 0.403922
0.815686 0.411765 0.411765
0.839216 0.427451 0.423529
0.858824 0.443137 0.435294
0.309804 0.419608 0.392157
0.305882 0.419608 0.388235
0.309804 0.423529 0.392157
0.333333 0.427451 0.396078
0.400000 0.435294 0.400000
0.470588 0.443137 0.407843
0.552941 0.454902 0.403922
0.623529 0.462745 0.403922
0.682353 0.470588 0.407843
0.721569 0.470588 0.407843
0.756863 0.470588 0.407843
0.784314 0.474510 0.403922
0.811765 0.466667 0.400000
0.831373 0.462745 0.396078
0.854902 0.462745 0.392157
0.874510 0.470588 0.403922
0.349020 0.490196 0.392157
0.345098 0.490196 0.392157
0.352941 0.494118 0.392157
0.392157 0.498039 0.396078
0.447059 0.501961 0.400000
0.509804 0.509804 0.407843
0.576471 0.521569 0.415686
0.647059 0.533333 0.403922
0.701961 0.537255 0.403922
0.741176 0.537255 0.403922
0.772549 0.537255 0.403922
0.800000 0.537255 0.400000
0.823529 0.533333 0.396078
0.847059 0.529412 0.396078
0.870588 0.525490 0.388235
0.894118 0.521569 0.388235
0.407843 0.564706 0.419608
0.411765 0.568627 0.419608
0.435294 0.568627 0.423529
0.466667 0.576471 0.423529
0.517647 0.580392 0.431373
0.568627 0.584314 0.435294
