luts/instant.cube
TITLE "instant"
LUT_3D_SIZE 6
DOMAIN_MIN 0.0 0.0 0.0
DOMAIN_MAX 1.0 1.0 1.0
0.121569 0.094118 0.188235
0.125490 0.098039 0.203922
0.360784 0.117647 0.247059
0.596078 0.203922 0.309804
0.733333 0.305882 0.368627
0.819608 0.372549 0.400000
0.152941 0.160784 0.219608
0.160784 0.184314 0.231373
0.439216 0.219608 0.235294
0.650980 0.254902 0.250980
0.756863 0.313725 0.301961
0.835294 0.380392 0.364706
0.317647 0.462745 0.282353
0.364706 0.474510 0.290196
0.560784 0.501961 0.325490
0.733333 0.529412 0.301961
0.819608 0.525490 0.309804
0.890196 0.517647 0.305882
0.501961 0.647059 0.372549
0.556863 0.650980 0.384314
0.682353 0.666667 0.411765
0.788235 0.690196 0.470588
0.866667 0.705882 0.431373
0.925490 0.701961 0.439216
0.647059 0.764706 0.498039
0.678431 0.768627 0.513725
0.745098 0.780392 0.545098
0.811765 0.803922 0.592157
0.874510 0.823529 0.635294
0.941176 0.839216 0.596078
0.737255 0.874510 0.631373
0.752941 0.878431 0.639216
0.792157 0.886275 0.658824
0.839216 0.905882 0.690196
0.890196 0.925490 0.725490
0.937255 0.949020 0.756863
0.172549 0.145098 0.337255
0.172549 0.145098 0.352941
0.411765 0.156863 0.380392
0.631373 0.250980 0.415686
0.752941 0.341176 0.447059
0.831373 0.400000 0.462745
0.192157 0.219608 0.356863
0.203922 0.223529 0.364706
0.466667 0.254902 0.376471
0.662745 0.313725 0.396078
0.768627 0.372549 0.427451
0.839216 0.415686 0.447059
0.349020 0.490196 0.392157
0.392157 0.498039 0.396078
0.576471 0.521569 0.415686
0.741176 0.537255 0.403922
0.823529 0.533333 0.396078
0.894118 0.521569 0.388235
0.521569 0.654902 0.450980
0.568627 0.662745 0.450980
0.690196 0.674510 0.470588
0.796078 0.701961 0.521569
0.870588 0.713725 0.501961
0.929412 0.709804 0.501961
0.654902 0.768627 0.545098
0.682353 0.776471 0.556863
0.749020 0.792157 0.588235
0.819608 0.807843 0.627451
0.878431 0.831373 0.666667
0.945098 0.843137 0.639216
0.741176 0.882353 0.662745
0.760784 0.886275 0.670588
0.796078 0.894118 0.686275
0.847059 0.909804 0.713725
0.890196 0.933333 0.745098
0.941176 0.952941 0.780392
0.192157 0.168627 0.521569
0.203922 0.168627 0.525490
0.466667 0.215686 0.541176
0.670588 0.325490 0.564706
0.780392 0.403922 0.576471
0.850980 0.450980 0.584314
0.239216 0.278431 0.537255
0.250980 0.274510 0.545098
0.505882 0.317647 0.552941
0.694118 0.384314 0.564706
0.792157 0.435294 0.572549
0.862745 0.470588 0.576471
0.396078 0.525490 0.556863
0.443137 0.533333 0.560784
0.615686 0.552941 0.568627
0.760784 0.564706 0.572549
0.839216 0.560784 0.560784
0.901961 0.560784 0.556863
0.564706 0.678431 0.580392
0.607843 0.682353 0.580392
0.717647 0.694118 0.592157
0.807843 0.717647 0.627451
0.874510 0.725490 0.619608
0.929412 0.721569 0.615686
0.678431 0.784314 0.643137
0.698039 0.788235 0.647059
0.760784 0.800000 0.666667
0.823529 0.819608 0.694118
0.882353 0.839216 0.721569
0.945098 0.850980 0.713725
0.749020 0.890196 0.721569
0.760784 0.894118 0.721569
0.800000 0.905882 0.741176
0.847059 0.917647 0.760784
0.898039 0.937255 0.788235
0.945098 0.960784 0.815686
0.196078 0.200000 0.623529
0.270588 0.215686 0.623529
0.494118 0.274510 0.627451
0.678431 0.360784 0.639216
0.788235 0.435294 0.650980
0.866667 0.482353 0.654902
0.254902 0.301961 0.631373
0.290196 0.294118 0.635294
0.517647 0.337255 0.639216
0.698039 0.407843 0.650980
0.803922 0.466667 0.658824
0.874510 0.494118 0.658824
0.423529 0.529412 0.643137
0.466667 0.533333 0.647059
0.623529 0.556863 0.654902
0.764706 0.584314 0.662745
0.847059 0.607843 0.670588
0.909804 0.611765 0.666667
0.592157 0.686275 0.662745
0.631373 0.690196 0.666667
0.729412 0.705882 0.678431
0.811765 0.729412 0.709804
0.878431 0.737255 0.717647
0.933333 0.733333 0.713725
0.698039 0.800000 0.721569
0.717647 0.803922 0.729412
0.772549 0.815686 0.745098
0.835294 0.831373 0.764706
0.894118 0.850980 0.792157
0.949020 0.858824 0.788235
0.768627 0.905882 0.792157
0.780392 0.909804 0.796078
0.815686 0.917647 0.807843
0.858824 0.929412 0.823529
0.901961 0.949020 0.843137
0.952941 0.972549 0.866667
0.262745 0.262745 0.690196
0.341176 0.278431 0.694118
0.521569 0.325490 0.698039
0.690196 0.396078 0.701961
0.800000 0.466667 0.713725
0.882353 0.513725 0.721569
0.301961 0.321569 0.694118
0.333333 0.317647 0.698039
0.525490 0.352941 0.698039
0.694118 0.411765 0.701961
0.803922 0.470588 0.713725
0.882353 0.513725 0.717647
0.439216 0.517647 0.698039
0.470588 0.517647 0.701961
0.603922 0.529412 0.705882
0.745098 0.560784 0.713725
0.843137 0.592157 0.717647
0.913725 0.611765 0.725490
0.584314 0.666667 0.705882
0.615686 0.666667 0.709804
0.709804 0.682353 0.721569
0.800000 0.709804 0.745098
0.866667 0.725490 0.772549
0.929412 0.741176 0.784314
0.690196 0.796078 0.776471
0.713725 0.800000 0.784314
0.768627 0.815686 0.800000
0.831373 0.831373 0.819608
0.890196 0.850980 0.843137
0.949020 0.858824 0.854902
0.768627 0.909804 0.847059
0.780392 0.913725 0.850980
0.815686 0.925490 0.862745
0.854902 0.941176 0.882353
0.905882 0.960784 0.905882
0.952941 0.984314 0.929412
0.298039 0.290196 0.737255
0.364706 0.301961 0.741176
0.529412 0.345098 0.745098
0.690196 0.403922 0.752941
0.800000 0.470588 0.768627
0.890196 0.529412 0.780392
0.325490 0.325490 0.745098
0.352941 0.317647 0.745098
0.521569 0.356863 0.749020
0.686275 0.407843 0.756863
0.800000 0.470588 0.764706
0.890196 0.529412 0.780392
0.447059 0.505882 0.749020
0.470588 0.501961 0.752941
0.588235 0.509804 0.760784
0.729412 0.541176 0.764706
0.831373 0.572549 0.772549
0.909804 0.611765 0.792157
0.580392 0.654902 0.760784
0.607843 0.654902 0.760784
0.694118 0.662745 0.772549
0.784314 0.686275 0.792157
0.854902 0.713725 0.819608
0.921569 0.737255 0.850980
0.682353 0.780392 0.823529
0.698039 0.784314 0.831373
0.749020 0.796078 0.843137
0.811765 0.811765 0.862745
0.874510 0.831373 0.886275
0.937255 0.839216 0.913725
0.760784 0.913725 0.909804
0.772549 0.917647 0.913725
0.800000 0.925490 0.925490
0.843137 0.945098 0.949020
0.894118 0.968627 0.972549
0.952941 0.988235 1.000000
