luts/mono.cube
TITLE "mono"
LUT_3D_SIZE 16
DOMAIN_MIN 0.0 0.0 0.0
DOMAIN_MAX 1.0 1.0 1.0
0.007843 0.007843 0.007843
0.015686 0.015686 0.015686
0.031373 0.031373 0.031373
0.054902 0.054902 0.054902
0.078431 0.078431 0.078431
0.101961 0.101961 0.101961
0.137255 0.137255 0.137255
0.168627 0.168627 0.168627
0.203922 0.203922 0.203922
0.239216 0.239216 0.239216
0.278431 0.278431 0.278431
0.317647 0.317647 0.317647
0.360784 0.360784 0.360784
0.407843 0.407843 0.407843
0.462745 0.462745 0.462745
0.517647 0.517647 0.517647
0.039216 0.039216 0.039216
0.047059 0.047059 0.047059
0.062745 0.062745 0.062745
0.078431 0.078431 0.078431
0.098039 0.098039 0.098039
0.121569 0.121569 0.121569
0.149020 0.149020 0.149020
0.180392 0.180392 0.180392
0.215686 0.215686 0.215686
0.250980 0.250980 0.250980
0.286275 0.286275 0.286275
0.325490 0.325490 0.325490
0.368627 0.368627 0.368627
0.411765 0.411765 0.411765
0.470588 0.470588 0.470588
0.521569 0.521569 0.521569
0.086275 0.086275 0.086275
0.090196 0.090196 0.090196
0.101961 0.101961 0.101961
0.117647 0.117647 0.117647
0.133333 0.133333 0.133333
0.152941 0.152941 0.152941
0.176471 0.176471 0.176471
0.203922 0.203922 0.203922
0.239216 0.239216 0.239216
0.266667 0.266667 0.266667
0.301961 0.301961 0.301961
0.337255 0.337255 0.337255
0.380392 0.380392 0.380392
0.427451 0.427451 0.427451
0.482353 0.482353 0.482353
0.533333 0.533333 0.533333
0.133333 0.133333 0.133333
0.141176 0.141176 0.141176
0.149020 0.149020 0.149020
0.164706 0.164706 0.164706
0.180392 0.180392 0.180392
0.196078 0.196078 0.196078
0.215686 0.215686 0.215686
0.239216 0.239216 0.239216
0.266667 0.266667 0.266667
0.298039 0.298039 0.298039
0.329412 0.329412 0.329412
0.364706 0.364706 0.364706
0.403922 0.403922 0.403922
0.450980 0.450980 0.450980
0.501961 0.501961 0.501961
0.556863 0.556863 0.556863
0.192157 0.192157 0.192157
0.196078 0.196078 0.196078
0.203922 0.203922 0.203922
0.215686 0.215686 0.215686
0.231373 0.231373 0.231373
0.247059 0.247059 0.247059
0.262745 0.262745 0.262745
0.286275 0.286275 0.286275
0.309804 0.309804 0.309804
0.333333 0.333333 0.333333
0.364706 0.364706 0.364706
0.396078 0.396078 0.396078
0.435294 0.435294 0.435294
0.478431 0.478431 0.478431
0.533333 0.533333 0.533333
0.580392 0.580392 0.580392
0.254902 0.254902 0.254902
0.254902 0.254902 0.254902
0.262745 0.262745 0.262745
0.270588 0.270588 0.270588
0.286275 0.286275 0.286275
0.301961 0.301961 0.301961
0.317647 0.317647 0.317647
0.337255 0.337255 0.337255
0.356863 0.356863 0.356863
0.380392 0.380392 0.380392
0.403922 0.403922 0.403922
0.435294 0.435294 0.435294
0.474510 0.474510 0.474510
0.513725 0.513725 0.513725
0.564706 0.564706 0.564706
0.611765 0.611765 0.611765
0.317647 0.317647 0.317647
0.317647 0.317647 0.317647
0.321569 0.321569 0.321569
0.333333 0.333333 0.333333
0.345098 0.345098 0.345098
0.356863 0.356863 0.356863
0.376471 0.376471 0.376471
0.396078 0.396078 0.396078
0.411765 0.411765 0.411765
0.431373 0.431373 0.431373
0.454902 0.454902 0.454902
0.482353 0.482353 0.482353
0.517647 0.517647 0.517647
0.556863 0.556863 0.556863
0.607843 0.607843 0.607843
0.650980 0.650980 0.650980
0.380392 0.380392 0.380392
0.384314 0.384314 0.384314
0.388235 0.388235 0.388235
0.396078 0.396078 0.396078
0.403922 0.403922 0.403922
0.415686 0.415686 0.415686
0.431373 0.431373 0.431373
0.450980 0.450980 0.450980
0.466667 0.466667 0.466667
0.486275 0.486275 0.486275
0.505882 0.505882 0.505882
0.533333 0.533333 0.533333
0.568627 0.568627 0.568627
0.603922 0.603922 0.603922
0.647059 0.647059 0.647059
0.690196 0.690196 0.690196
0.447059 0.447059 0.447059
0.450980 0.450980 0.450980
0.454902 0.454902 0.454902
0.458824 0.458824 0.458824
0.470588 0.470588 0.470588
0.478431 0.478431 0.478431
0.494118 0.494118 0.494118
0.505882 0.505882 0.505882
0.521569 0.521569 0.521569
0.541176 0.541176 0.541176
0.564706 0.564706 0.564706
0.592157 0.592157 0.592157
0.619608 0.619608 0.619608
0.654902 0.654902 0.654902
0.698039 0.698039 0.698039
0.737255 0.737255 0.737255
0.517647 0.517647 0.517647
0.517647 0.517647 0.517647
0.525490 0.525490 0.525490
0.529412 0.529412 0.529412
0.537255 0.537255 0.537255
0.545098 0.545098 0.545098
0.556863 0.556863 0.556863
0.568627 0.568627 0.568627
0.580392 0.580392 0.580392
0.596078 0.596078 0.596078
0.619608 0.619608 0.619608
0.643137 0.643137 0.643137
0.674510 0.674510 0.674510
0.705882 0.705882 0.705882
0.741176 0.741176 0.741176
0.772549 0.772549 0.772549
0.596078 0.596078 0.596078
0.596078 0.596078 0.596078
0.600000 0.600000 0.600000
0.603922 0.603922 0.603922
0.607843 0.607843 0.607843
0.615686 0.615686 0.615686
0.627451 0.627451 0.627451
0.635294 0.635294 0.635294
0.650980 0.650980 0.650980
0.666667 0.666667 0.666667
0.682353 0.682353 0.682353
0.701961 0.701961 0.701961
0.725490 0.725490 0.725490
0.752941 0.752941 0.752941
0.784314 0.784314 0.784314
0.815686 0.815686 0.815686
0.658824 0.658824 0.658824
0.658824 0.658824 0.658824
0.662745 0.662745 0.662745
0.666667 0.666667 0.666667
0.670588 0.670588 0.670588
0.678431 0.678431 0.678431
0.690196 0.690196 0.690196
0.701961 0.701961 0.701961
0.713725 0.713725 0.713725
0.721569 0.721569 0.721569
0.737255 0.737255 0.737255
0.749020 0.749020 0.749020
0.764706 0.764706 0.764706
0.788235 0.788235 0.788235
0.815686 0.815686 0.815686
0.839216 0.839216 0.839216
0.729412 0.729412 0.729412
0.729412 0.729412 0.729412
0.729412 0.729412 0.729412
0.729412 0.729412 0.729412
0.737255 0.737255 0.737255
0.749020 0.749020 0.749020
0.756863 0.756863 0.756863
0.768627 0.768627 0.768627
0.776471 0.776471 0.776471
0.784314 0.784314 0.784314
0.796078 0.796078 0.796078
0.807843 0.807843 0.807843
0.819608 0.819608 0.819608
0.831373 0.831373 0.831373
0.854902 0.854902 0.854902
0.874510 0.874510 0.874510
0.811765 0.811765 0.811765
0.815686 0.815686 0.815686
0.815686 0.815686 0.815686
0.815686 0.815686 0.815686
0.819608 0.819608 0.819608
0.827451 0.827451 0.827451
0.831373 0.831373 0.831373
0.835294 0.835294 0.835294
0.843137 0.843137 0.843137
0.850980 0.850980 0.850980
0.858824 0.858824 0.858824
0.866667 0.866667 0.866667
0.878431 0.878431 0.878431
0.886275 0.886275 0.886275
0.898039 0.898039 0.898039
0.913725 0.913725 0.913725
0.874510 0.874510 0.874510
0.874510 0.874510 0.874510
0.878431 0.878431 0.878431
0.878431 0.878431 0.878431
0.882353 0.882353 0.882353
0.882353 0.882353 0.882353
0.886275 0.886275 0.886275
0.890196 0.890196 0.890196
0.890196 0.890196 0.890196
0.898039 0.898039 0.898039
0.901961 0.901961 0.901961
0.909804 0.909804 0.909804
0.917647 0.917647 0.917647
0.925490 0.925490 0.925490
0.937255 0.937255 0.937255
0.945098 0.945098 0.945098
0.921569 0.921569 0.921569
0.921569 0.921569 0.921569
0.925490 0.925490 0.925490
0.925490 0.925490 0.925490
0.929412 0.929412 0.929412
0.929412 0.929412 0.929412
0.933333 0.933333 0.933333
0.937255 0.937255 0.937255
0.941176 0.941176 0.941176
0.945098 0.945098 0.945098
0.952941 0.952941 0.952941
0.956863 0.956863 0.956863
0.964706 0.964706 0.964706
0.968627 0.968627 0.968627
0.976471 0.976471 0.976471
0.980392 0.980392 0.980392
0.011765 0.011765 0.011765
0.019608 0.019608 0.019608
0.035294 0.035294 0.035294
0.058824 0.058824 0.058824
0.086275 0.086275 0.086275
0.113725 0.113725 0.113725
0.145098 0.145098 0.145098
0.176471 0.176471 0.176471
0.211765 0.211765 0.211765
0.247059 0.247059 0.247059
0.282353 0.282353 0.282353
0.321569 0.321569 0.321569
0.364706 0.364706 0.364706
0.411765 0.411765 0.411765
0.466667 0.466667 0.466667
0.517647 0.517647 0.517647
0.039216 0.039216 0.039216
0.050980 0.050980 0.050980
0.066667 0.066667 0.066667
0.082353 0.082353 0.082353
0.105882 0.105882 0.105882
0.129412 0.129412 0.129412
0.156863 0.156863 0.156863
0.188235 0.188235 0.188235
0.219608 0.219608 0.219608
0.254902 0.254902 0.254902
0.290196 0.290196 0.290196
0.329412 0.329412 0.329412
0.372549 0.372549 0.372549
0.419608 0.419608 0.419608
0.474510 0.474510 0.474510
0.525490 0.525490 0.525490
0.090196 0.090196 0.090196
0.094118 0.094118 0.094118
0.105882 0.105882 0.105882
0.117647 0.117647 0.117647
0.137255 0.137255 0.137255
0.160784 0.160784 0.160784
0.184314 0.184314 0.184314
0.211765 0.211765 0.211765
0.243137 0.243137 0.243137
0.274510 0.274510 0.274510
0.309804 0.309804 0.309804
0.345098 0.345098 0.345098
0.384314 0.384314 0.384314
0.431373 0.431373 0.431373
0.486275 0.486275 0.486275
0.537255 0.537255 0.537255
0.137255 0.137255 0.137255
0.145098 0.145098 0.145098
0.152941 0.152941 0.152941
0.168627 0.168627 0.168627
0.184314 0.184314 0.184314
0.200000 0.200000 0.200000
0.219608 0.219608 0.219608
0.243137 0.243137 0.243137
0.274510 0.274510 0.274510
0.301961 0.301961 0.301961
0.333333 0.333333 0.333333
0.368627 0.368627 0.368627
0.407843 0.407843 0.407843
0.450980 0.450980 0.450980
0.505882 0.505882 0.505882
0.556863 0.556863 0.556863
0.196078 0.196078 0.196078
0.200000 0.200000 0.200000
0.207843 0.207843 0.207843
0.215686 0.215686 0.215686
0.231373 0.231373 0.231373
0.247059 0.247059 0.247059
0.266667 0.266667 0.266667
0.286275 0.286275 0.286275
0.313725 0.313725 0.313725
0.337255 0.337255 0.337255
0.368627 0.368627 0.368627
0.400000 0.400000 0.400000
0.435294 0.435294 0.435294
0.478431 0.478431 0.478431
0.533333 0.533333 0.533333
0.580392 0.580392 0.580392
0.254902 0.254902 0.254902
0.258824 0.258824 0.258824
0.262745 0.262745 0.262745
0.274510 0.274510 0.274510
0.286275 0.286275 0.286275
0.301961 0.301961 0.301961
0.317647 0.317647 0.317647
0.337255 0.337255 0.337255
0.360784 0.360784 0.360784
0.380392 0.380392 0.380392
0.407843 0.407843 0.407843
0.439216 0.439216 0.439216
0.474510 0.474510 0.474510
0.517647 0.517647 0.517647
0.564706 0.564706 0.564706
0.611765 0.611765 0.611765
0.317647 0.317647 0.317647
0.321569 0.321569 0.321569
0.325490 0.325490 0.325490
0.333333 0.333333 0.333333
0.345098 0.345098 0.345098
0.356863 0.356863 0.356863
0.376471 0.376471 0.376471
0.396078 0.396078 0.396078
0.411765 0.411765 0.411765
0.431373 0.431373 0.431373
0.454902 0.454902 0.454902
0.482353 0.482353 0.482353
0.517647 0.517647 0.517647
0.560784 0.560784 0.560784
0.607843 0.607843 0.607843
0.650980 0.650980 0.650980
0.384314 0.384314 0.384314
0.384314 0.384314 0.384314
0.388235 0.388235 0.388235
0.396078 0.396078 0.396078
0.403922 0.403922 0.403922
0.415686 0.415686 0.415686
0.431373 0.431373 0.431373
0.450980 0.450980 0.450980
0.466667 0.466667 0.466667
0.486275 0.486275 0.486275
0.509804 0.509804 0.509804
0.537255 0.537255 0.537255
0.568627 0.568627 0.568627
0.603922 0.603922 0.603922
0.647059 0.647059 0.647059
0.690196 0.690196 0.690196
0.450980 0.450980 0.450980
0.450980 0.450980 0.450980
0.454902 0.454902 0.454902
0.458824 0.458824 0.458824
0.470588 0.470588 0.470588
0.482353 0.482353 0.482353
0.494118 0.494118 0.494118
0.509804 0.509804 0.509804
0.529412 0.529412 0.529412
0.545098 0.545098 0.545098
0.568627 0.568627 0.568627
0.592157 0.592157 0.592157
0.619608 0.619608 0.619608
0.658824 0.658824 0.658824
0.698039 0.698039 0.698039
0.737255 0.737255 0.737255
0.517647 0.517647 0.517647
0.521569 0.521569 0.521569
0.525490 0.525490 0.525490
0.529412 0.529412 0.529412
0.537255 0.537255 0.537255
0.545098 0.545098 0.545098
0.556863 0.556863 0.556863
0.572549 0.572549 0.572549
0.588235 0.588235 0.588235
0.603922 0.603922 0.603922
0.623529 0.623529 0.623529
0.647059 0.647059 0.647059
0.674510 0.674510 0.674510
0.705882 0.705882 0.705882
0.741176 0.741176 0.741176
0.772549 0.772549 0.772549
0.596078 0.596078 0.596078
0.596078 0.596078 0.596078
0.600000 0.600000 0.600000
0.603922 0.603922 0.603922
0.607843 0.607843 0.607843
0.615686 0.615686 0.615686
0.627451 0.627451 0.627451
0.639216 0.639216 0.639216
0.650980 0.650980 0.650980
0.666667 0.666667 0.666667
0.682353 0.682353 0.682353
0.701961 0.701961 0.701961
0.725490 0.725490 0.725490
0.752941 0.752941 0.752941
0.784314 0.784314 0.784314
0.815686 0.815686 0.815686
0.670588 0.670588 0.670588
0.670588 0.670588 0.670588
0.674510 0.674510 0.674510
0.674510 0.674510 0.674510
0.678431 0.678431 0.678431
0.686275 0.686275 0.686275
0.694118 0.694118 0.694118
0.705882 0.705882 0.705882
0.717647 0.717647 0.717647
0.729412 0.729412 0.729412
0.741176 0.741176 0.741176
0.756863 0.756863 0.756863
0.772549 0.772549 0.772549
0.796078 0.796078 0.796078
0.823529 0.823529 0.823529
0.847059 0.847059 0.847059
0.741176 0.741176 0.741176
0.741176 0.741176 0.741176
0.741176 0.741176 0.741176
0.745098 0.745098 0.745098
0.749020 0.749020 0.749020
0.756863 0.756863 0.756863
0.764706 0.764706 0.764706
0.772549 0.772549 0.772549
0.780392 0.780392 0.780392
0.788235 0.788235 0.788235
0.800000 0.800000 0.800000
0.811765 0.811765 0.811765
0.827451 0.827451 0.827451
0.839216 0.839216 0.839216
0.858824 0.858824 0.858824
0.878431 0.878431 0.878431
0.815686 0.815686 0.815686
0.815686 0.815686 0.815686
0.815686 0.815686 0.815686
0.819608 0.819608 0.819608
0.823529 0.823529 0.823529
0.827451 0.827451 0.827451
0.831373 0.831373 0.831373
0.835294 0.835294 0.835294
0.843137 0.843137 0.843137
0.850980 0.850980 0.850980
0.858824 0.858824 0.858824
0.870588 0.870588 0.870588
0.878431 0.878431 0.878431
0.886275 0.886275 0.886275
0.898039 0.898039 0.898039
0.913725 0.913725 0.913725
0.878431 0.878431 0.878431
0.878431 0.878431 0.878431
0.882353 0.882353 0.882353
0.882353 0.882353 0.882353
0.882353 0.882353 0.882353
0.886275 0.886275 0.886275
0.890196 0.890196 0.890196
0.894118 0.894118 0.894118
0.901961 0.901961 0.901961
0.905882 0.905882 0.905882
0.909804 0.909804 0.909804
0.917647 0.917647 0.917647
0.925490 0.925490 0.925490
0.933333 0.933333 0.933333
0.945098 0.945098 0.945098
0.952941 0.952941 0.952941
0.929412 0.929412 0.929412
0.929412 0.929412 0.929412
0.929412 0.929412 0.929412
0.933333 0.933333 0.933333
0.933333 0.933333 0.933333
0.937255 0.937255 0.937255
0.937255 0.937255 0.937255
0.941176 0.941176 0.941176
0.945098 0.945098 0.945098
0.952941 0.952941 0.952941
0.956863 0.956863 0.956863
0.960784 0.960784 0.960784
0.968627 0.968627 0.968627
0.972549 0.972549 0.972549
0.976471 0.976471 0.976471
0.984314 0.984314 0.984314
0.015686 0.015686 0.015686
0.023529 0.023529 0.023529
0.039216 0.039216 0.039216
0.062745 0.062745 0.062745
0.090196 0.090196 0.090196
0.121569 0.121569 0.121569
0.156863 0.156863 0.156863
0.188235 0.188235 0.188235
0.219608 0.219608 0.219608
0.254902 0.254902 0.254902
0.290196 0.290196 0.290196
0.329412 0.329412 0.329412
0.372549 0.372549 0.372549
0.415686 0.415686 0.415686
0.470588 0.470588 0.470588
0.521569 0.521569 0.521569
0.047059 0.047059 0.047059
0.054902 0.054902 0.054902
0.070588 0.070588 0.070588
0.090196 0.090196 0.090196
0.109804 0.109804 0.109804
0.137255 0.137255 0.137255
0.168627 0.168627 0.168627
0.200000 0.200000 0.200000
0.227451 0.227451 0.227451
0.262745 0.262745 0.262745
0.298039 0.298039 0.298039
0.337255 0.337255 0.337255
0.376471 0.376471 0.376471
0.423529 0.423529 0.423529
0.478431 0.478431 0.478431
0.529412 0.529412 0.529412
0.090196 0.090196 0.090196
0.098039 0.098039 0.098039
0.109804 0.109804 0.109804
0.121569 0.121569 0.121569
0.145098 0.145098 0.145098
0.164706 0.164706 0.164706
0.192157 0.192157 0.192157
0.219608 0.219608 0.219608
0.250980 0.250980 0.250980
0.282353 0.282353 0.282353
0.313725 0.313725 0.313725
0.349020 0.349020 0.349020
0.392157 0.392157 0.392157
0.435294 0.435294 0.435294
0.490196 0.490196 0.490196
0.537255 0.537255 0.537255
0.141176 0.141176 0.141176
0.145098 0.145098 0.145098
0.156863 0.156863 0.156863
0.168627 0.168627 0.168627
0.184314 0.184314 0.184314
0.203922 0.203922 0.203922
0.223529 0.223529 0.223529
0.250980 0.250980 0.250980
0.278431 0.278431 0.278431
0.305882 0.305882 0.305882
0.341176 0.341176 0.341176
0.372549 0.372549 0.372549
0.411765 0.411765 0.411765
0.454902 0.454902 0.454902
0.509804 0.509804 0.509804
0.560784 0.560784 0.560784
0.200000 0.200000 0.200000
0.203922 0.203922 0.203922
0.207843 0.207843 0.207843
0.219608 0.219608 0.219608
0.235294 0.235294 0.235294
0.250980 0.250980 0.250980
0.270588 0.270588 0.270588
0.290196 0.290196 0.290196
0.317647 0.317647 0.317647
0.341176 0.341176 0.341176
0.372549 0.372549 0.372549
0.403922 0.403922 0.403922
0.439216 0.439216 0.439216
0.486275 0.486275 0.486275
0.537255 0.537255 0.537255
0.584314 0.584314 0.584314
0.258824 0.258824 0.258824
0.258824 0.258824 0.258824
0.266667 0.266667 0.266667
0.274510 0.274510 0.274510
0.286275 0.286275 0.286275
0.301961 0.301961 0.301961
0.321569 0.321569 0.321569
0.341176 0.341176 0.341176
0.360784 0.360784 0.360784
0.384314 0.384314 0.384314
0.411765 0.411765 0.411765
0.443137 0.443137 0.443137
0.478431 0.478431 0.478431
0.517647 0.517647 0.517647
0.568627 0.568627 0.568627
0.615686 0.615686 0.615686
0.321569 0.321569 0.321569
0.321569 0.321569 0.321569
0.325490 0.325490 0.325490
0.333333 0.333333 0.333333
0.345098 0.345098 0.345098
0.360784 0.360784 0.360784
0.376471 0.376471 0.376471
0.396078 0.396078 0.396078
0.415686 0.415686 0.415686
0.435294 0.435294 0.435294
0.458824 0.458824 0.458824
0.486275 0.486275 0.486275
0.521569 0.521569 0.521569
0.560784 0.560784 0.560784
0.607843 0.607843 0.607843
0.650980 0.650980 0.650980
0.384314 0.384314 0.384314
0.388235 0.388235 0.388235
0.392157 0.392157 0.392157
0.396078 0.396078 0.396078
0.407843 0.407843 0.407843
0.419608 0.419608 0.419608
0.431373 0.431373 0.431373
0.450980 0.450980 0.450980
0.470588 0.470588 0.470588
0.486275 0.486275 0.486275
0.509804 0.509804 0.509804
0.537255 0.537255 0.537255
0.568627 0.568627 0.568627
0.607843 0.607843 0.607843
0.650980 0.650980 0.650980
0.690196 0.690196 0.690196
0.450980 0.450980 0.450980
0.454902 0.454902 0.454902
0.454902 0.454902 0.454902
0.462745 0.462745 0.462745
0.474510 0.474510 0.474510
0.482353 0.482353 0.482353
0.494118 0.494118 0.494118
0.509804 0.509804 0.509804
0.529412 0.529412 0.529412
0.549020 0.549020 0.549020
0.568627 0.568627 0.568627
0.592157 0.592157 0.592157
0.623529 0.623529 0.623529
0.658824 0.658824 0.658824
0.698039 0.698039 0.698039
0.737255 0.737255 0.737255
0.521569 0.521569 0.521569
0.521569 0.521569 0.521569
0.525490 0.525490 0.525490
0.533333 0.533333 0.533333
0.537255 0.537255 0.537255
0.549020 0.549020 0.549020
0.556863 0.556863 0.556863
0.572549 0.572549 0.572549
0.588235 0.588235 0.588235
0.603922 0.603922 0.603922
0.623529 0.623529 0.623529
0.647059 0.647059 0.647059
0.674510 0.674510 0.674510
0.705882 0.705882 0.705882
0.741176 0.741176 0.741176
0.772549 0.772549 0.772549
0.596078 0.596078 0.596078
0.596078 0.596078 0.596078
0.600000 0.600000 0.600000
0.603922 0.603922 0.603922
0.611765 0.611765 0.611765
0.619608 0.619608 0.619608
0.631373 0.631373 0.631373
0.639216 0.639216 0.639216
0.650980 0.650980 0.650980
0.670588 0.670588 0.670588
0.686275 0.686275 0.686275
0.701961 0.701961 0.701961
0.725490 0.725490 0.725490
0.756863 0.756863 0.756863
0.784314 0.784314 0.784314
0.811765 0.811765 0.811765
0.666667 0.666667 0.666667
0.670588 0.670588 0.670588
0.670588 0.670588 0.670588
0.674510 0.674510 0.674510
0.678431 0.678431 0.678431
0.686275 0.686275 0.686275
0.694118 0.694118 0.694118
0.705882 0.705882 0.705882
0.717647 0.717647 0.717647
0.729412 0.729412 0.729412
0.741176 0.741176 0.741176
0.756863 0.756863 0.756863
0.772549 0.772549 0.772549
0.796078 0.796078 0.796078
0.819608 0.819608 0.819608
0.847059 0.847059 0.847059
0.741176 0.741176 0.741176
0.741176 0.741176 0.741176
0.741176 0.741176 0.741176
0.745098 0.745098 0.745098
0.749020 0.749020 0.749020
0.756863 0.756863 0.756863
0.764706 0.764706 0.764706
0.776471 0.776471 0.776471
0.784314 0.784314 0.784314
0.788235 0.788235 0.788235
0.800000 0.800000 0.800000
0.811765 0.811765 0.811765
0.823529 0.823529 0.823529
0.835294 0.835294 0.835294
0.858824 0.858824 0.858824
0.878431 0.878431 0.878431
0.815686 0.815686 0.815686
0.815686 0.815686 0.815686
0.815686 0.815686 0.815686
0.819608 0.819608 0.819608
0.819608 0.819608 0.819608
0.827451 0.827451 0.827451
0.831373 0.831373 0.831373
0.839216 0.839216 0.839216
0.843137 0.843137 0.843137
0.850980 0.850980 0.850980
0.858824 0.858824 0.858824
0.866667 0.866667 0.866667
0.878431 0.878431 0.878431
0.886275 0.886275 0.886275
0.898039 0.898039 0.898039
0.913725 0.913725 0.913725
0.878431 0.878431 0.878431
0.878431 0.878431 0.878431
0.882353 0.882353 0.882353
0.882353 0.882353 0.882353
0.882353 0.882353 0.882353
0.886275 0.886275 0.886275
0.890196 0.890196 0.890196
0.894118 0.894118 0.894118
0.898039 0.898039 0.898039
0.905882 0.905882 0.905882
0.909804 0.909804 0.909804
0.917647 0.917647 0.917647
0.925490 0.925490 0.925490
0.933333 0.933333 0.933333
0.941176 0.941176 0.941176
0.952941 0.952941 0.952941
0.929412 0.929412 0.929412
0.929412 0.929412 0.929412
0.929412 0.929412 0.929412
0.929412 0.929412 0.929412
0.933333 0.933333 0.933333
0.933333 0.933333 0.933333
0.937255 0.937255 0.937255
0.941176 0.941176 0.941176
0.941176 0.941176 0.941176
0.949020 0.949020 0.949020
0.956863 0.956863 0.956863
0.960784 0.960784 0.960784
0.964706 0.964706 0.964706
0.972549 0.972549 0.972549
0.976471 0.976471 0.976471
0.984314 0.984314 0.984314
0.019608 0.019608 0.019608
0.027451 0.027451 0.027451
0.043137 0.043137 0.043137
0.066667 0.066667 0.066667
0.094118 0.094118 0.094118
0.125490 0.125490 0.125490
0.160784 0.160784 0.160784
0.192157 0.192157 0.192157
0.227451 0.227451 0.227451
0.262745 0.262745 0.262745
0.301961 0.301961 0.301961
0.337255 0.337255 0.337255
0.376471 0.376471 0.376471
0.423529 0.423529 0.423529
0.478431 0.478431 0.478431
0.525490 0.525490 0.525490
0.054902 0.054902 0.054902
0.062745 0.062745 0.062745
0.074510 0.074510 0.074510
0.090196 0.090196 0.090196
0.113725 0.113725 0.113725
0.141176 0.141176 0.141176
0.172549 0.172549 0.172549
0.203922 0.203922 0.203922
0.235294 0.235294 0.235294
0.274510 0.274510 0.274510
0.309804 0.309804 0.309804
0.345098 0.345098 0.345098
0.384314 0.384314 0.384314
0.427451 0.427451 0.427451
0.482353 0.482353 0.482353
0.533333 0.533333 0.533333
0.094118 0.094118 0.094118
0.101961 0.101961 0.101961
0.113725 0.113725 0.113725
0.129412 0.129412 0.129412
0.149020 0.149020 0.149020
0.172549 0.172549 0.172549
0.200000 0.200000 0.200000
0.227451 0.227451 0.227451
0.258824 0.258824 0.258824
0.290196 0.290196 0.290196
0.321569 0.321569 0.321569
0.356863 0.356863 0.356863
0.396078 0.396078 0.396078
0.443137 0.443137 0.443137
0.494118 0.494118 0.494118
0.545098 0.545098 0.545098
0.145098 0.145098 0.145098
0.149020 0.149020 0.149020
0.160784 0.160784 0.160784
0.172549 0.172549 0.172549
0.188235 0.188235 0.188235
0.207843 0.207843 0.207843
0.231373 0.231373 0.231373
0.254902 0.254902 0.254902
0.286275 0.286275 0.286275
0.313725 0.313725 0.313725
0.345098 0.345098 0.345098
0.380392 0.380392 0.380392
0.419608 0.419608 0.419608
0.462745 0.462745 0.462745
0.513725 0.513725 0.513725
0.564706 0.564706 0.564706
0.203922 0.203922 0.203922
0.207843 0.207843 0.207843
0.211765 0.211765 0.211765
0.223529 0.223529 0.223529
0.239216 0.239216 0.239216
0.254902 0.254902 0.254902
0.274510 0.274510 0.274510
0.298039 0.298039 0.298039
0.321569 0.321569 0.321569
0.349020 0.349020 0.349020
0.376471 0.376471 0.376471
0.407843 0.407843 0.407843
0.447059 0.447059 0.447059
0.490196 0.490196 0.490196
0.541176 0.541176 0.541176
0.588235 0.588235 0.588235
0.258824 0.258824 0.258824
0.262745 0.262745 0.262745
0.270588 0.270588 0.270588
0.278431 0.278431 0.278431
0.290196 0.290196 0.290196
0.305882 0.305882 0.305882
0.321569 0.321569 0.321569
0.341176 0.341176 0.341176
0.364706 0.364706 0.364706
0.388235 0.388235 0.388235
0.415686 0.415686 0.415686
0.447059 0.447059 0.447059
0.482353 0.482353 0.482353
0.525490 0.525490 0.525490
0.568627 0.568627 0.568627
0.615686 0.615686 0.615686
0.321569 0.321569 0.321569
0.325490 0.325490 0.325490
0.329412 0.329412 0.329412
0.337255 0.337255 0.337255
0.349020 0.349020 0.349020
0.360784 0.360784 0.360784
0.380392 0.380392 0.380392
0.396078 0.396078 0.396078
0.415686 0.415686 0.415686
0.439216 0.439216 0.439216
0.462745 0.462745 0.462745
0.490196 0.490196 0.490196
0.525490 0.525490 0.525490
0.564706 0.564706 0.564706
0.611765 0.611765 0.611765
0.654902 0.654902 0.654902
0.388235 0.388235 0.388235
0.392157 0.392157 0.392157
0.392157 0.392157 0.392157
0.400000 0.400000 0.400000
0.407843 0.407843 0.407843
0.419608 0.419608 0.419608
