luts/mono.cube
TITLE "mono"
LUT_3D_SIZE 6
DOMAIN_MIN 0.0 0.0 0.0
DOMAIN_MAX 1.0 1.0 1.0
0.007843 0.007843 0.007843
0.054902 0.054902 0.054902
0.137255 0.137255 0.137255
0.239216 0.239216 0.239216
0.360784 0.360784 0.360784
0.517647 0.517647 0.517647
0.133333 0.133333 0.133333
0.164706 0.164706 0.164706
0.215686 0.215686 0.215686
0.298039 0.298039 0.298039
0.403922 0.403922 0.403922
0.556863 0.556863 0.556863
0.317647 0.317647 0.317647
0.333333 0.333333 0.333333
0.376471 0.376471 0.376471
0.431373 0.431373 0.431373
0.517647 0.517647 0.517647
0.650980 0.650980 0.650980
0.517647 0.517647 0.517647
0.529412 0.529412 0.529412
0.556863 0.556863 0.556863
0.596078 0.596078 0.596078
0.674510 0.674510 0.674510
0.772549 0.772549 0.772549
0.729412 0.729412 0.729412
0.729412 0.729412 0.729412
0.756863 0.756863 0.756863
0.784314 0.784314 0.784314
0.819608 0.819608 0.819608
0.874510 0.874510 0.874510
0.921569 0.921569 0.921569
0.925490 0.925490 0.925490
0.933333 0.933333 0.933333
0.945098 0.945098 0.945098
0.964706 0.964706 0.964706
0.980392 0.980392 0.980392
0.019608 0.019608 0.019608
0.066667 0.066667 0.066667
0.160784 0.160784 0.160784
0.262745 0.262745 0.262745
0.376471 0.376471 0.376471
0.525490 0.525490 0.525490
0.145098 0.145098 0.145098
0.172549 0.172549 0.172549
0.231373 0.231373 0.231373
0.313725 0.313725 0.313725
0.419608 0.419608 0.419608
0.564706 0.564706 0.564706
0.321569 0.321569 0.321569
0.337255 0.337255 0.337255
0.380392 0.380392 0.380392
0.439216 0.439216 0.439216
0.525490 0.525490 0.525490
0.654902 0.654902 0.654902
0.521569 0.521569 0.521569
0.533333 0.533333 0.533333
0.560784 0.560784 0.560784
0.603922 0.603922 0.603922
0.678431 0.678431 0.678431
0.776471 0.776471 0.776471
0.741176 0.741176 0.741176
0.749020 0.749020 0.749020
0.768627 0.768627 0.768627
0.792157 0.792157 0.792157
0.827451 0.827451 0.827451
0.882353 0.882353 0.882353
0.929412 0.929412 0.929412
0.929412 0.929412 0.929412
0.937255 0.937255 0.937255
0.949020 0.949020 0.949020
0.968627 0.968627 0.968627
0.984314 0.984314 0.984314
0.050980 0.050980 0.050980
0.090196 0.090196 0.090196
0.176471 0.176471 0.176471
0.278431 0.278431 0.278431
0.396078 0.396078 0.396078
0.541176 0.541176 0.541176
0.168627 0.168627 0.168627
0.188235 0.188235 0.188235
0.247059 0.247059 0.247059
0.329412 0.329412 0.329412
0.435294 0.435294 0.435294
0.572549 0.572549 0.572549
0.337255 0.337255 0.337255
0.349020 0.349020 0.349020
0.388235 0.388235 0.388235
0.450980 0.450980 0.450980
0.541176 0.541176 0.541176
0.662745 0.662745 0.662745
0.533333 0.533333 0.533333
0.541176 0.541176 0.541176
0.568627 0.568627 0.568627
0.611765 0.611765 0.611765
0.686275 0.686275 0.686275
0.780392 0.780392 0.780392
0.745098 0.745098 0.745098
0.752941 0.752941 0.752941
0.772549 0.772549 0.772549
0.796078 0.796078 0.796078
0.827451 0.827451 0.827451
0.886275 0.886275 0.886275
0.929412 0.929412 0.929412
0.933333 0.933333 0.933333
0.937255 0.937255 0.937255
0.949020 0.949020 0.949020
0.964706 0.964706 0.964706
0.984314 0.984314 0.984314
0.101961 0.101961 0.101961
0.133333 0.133333 0.133333
0.200000 0.200000 0.200000
0.298039 0.298039 0.298039
0.415686 0.415686 0.415686
0.560784 0.560784 0.560784
0.200000 0.200000 0.200000
0.215686 0.215686 0.215686
0.266667 0.266667 0.266667
0.349020 0.349020 0.349020
0.454902 0.454902 0.454902
0.592157 0.592157 0.592157
0.352941 0.352941 0.352941
0.368627 0.368627 0.368627
0.407843 0.407843 0.407843
0.466667 0.466667 0.466667
0.552941 0.552941 0.552941
0.666667 0.666667 0.666667
0.545098 0.545098 0.545098
0.556863 0.556863 0.556863
0.580392 0.580392 0.580392
0.623529 0.623529 0.623529
0.690196 0.690196 0.690196
0.776471 0.776471 0.776471
0.752941 0.752941 0.752941
0.756863 0.756863 0.756863
0.772549 0.772549 0.772549
0.800000 0.800000 0.800000
0.835294 0.835294 0.835294
0.894118 0.894118 0.894118
0.929412 0.929412 0.929412
0.933333 0.933333 0.933333
0.937255 0.937255 0.937255
0.952941 0.952941 0.952941
0.968627 0.968627 0.968627
0.988235 0.988235 0.988235
0.164706 0.164706 0.164706
0.188235 0.188235 0.188235
0.250980 0.250980 0.250980
0.341176 0.341176 0.341176
0.454902 0.454902 0.454902
0.588235 0.588235 0.588235
0.243137 0.243137 0.243137
0.258824 0.258824 0.258824
0.309804 0.309804 0.309804
0.388235 0.388235 0.388235
0.494118 0.494118 0.494118
0.615686 0.615686 0.615686
0.388235 0.388235 0.388235
0.400000 0.400000 0.400000
0.435294 0.435294 0.435294
0.498039 0.498039 0.498039
0.584314 0.584314 0.584314
0.686275 0.686275 0.686275
0.584314 0.584314 0.584314
0.588235 0.588235 0.588235
0.603922 0.603922 0.603922
0.639216 0.639216 0.639216
0.705882 0.705882 0.705882
0.788235 0.788235 0.788235
0.772549 0.772549 0.772549
0.772549 0.772549 0.772549
0.788235 0.788235 0.788235
0.811765 0.811765 0.811765
0.847059 0.847059 0.847059
0.894118 0.894118 0.894118
0.937255 0.937255 0.937255
0.937255 0.937255 0.937255
0.945098 0.945098 0.945098
0.952941 0.952941 0.952941
0.972549 0.972549 0.972549
0.988235 0.988235 0.988235
0.258824 0.258824 0.258824
0.278431 0.278431 0.278431
0.337255 0.337255 0.337255
0.431373 0.431373 0.431373
0.556863 0.556863 0.556863
0.678431 0.678431 0.678431
0.313725 0.313725 0.313725
0.329412 0.329412 0.329412
0.384314 0.384314 0.384314
0.470588 0.470588 0.470588
0.584314 0.584314 0.584314
0.698039 0.698039 0.698039
0.423529 0.423529 0.423529
0.435294 0.435294 0.435294
0.482353 0.482353 0.482353
0.556863 0.556863 0.556863
0.647059 0.647059 0.647059
0.749020 0.749020 0.749020
0.611765 0.611765 0.611765
0.611765 0.611765 0.611765
0.607843 0.607843 0.607843
0.658824 0.658824 0.658824
0.741176 0.741176 0.741176
0.819608 0.819608 0.819608
0.831373 0.831373 0.831373
0.831373 0.831373 0.831373
0.831373 0.831373 0.831373
0.831373 0.831373 0.831373
0.854902 0.854902 0.854902
0.905882 0.905882 0.905882
0.956863 0.956863 0.956863
0.960784 0.960784 0.960784
0.960784 0.960784 0.960784
0.968627 0.968627 0.968627
0.976471 0.976471 0.976471
0.992157 0.992157 0.992157
