luts/noir.cube
TITLE "noir"
LUT_3D_SIZE 16
DOMAIN_MIN 0.0 0.0 0.0
DOMAIN_MAX 1.0 1.0 1.0
0.000000 0.000000 0.000000
0.003922 0.003922 0.003922
0.015686 0.015686 0.015686
0.035294 0.035294 0.035294
0.054902 0.054902 0.054902
0.078431 0.078431 0.078431
0.109804 0.109804 0.109804
0.141176 0.141176 0.141176
0.176471 0.176471 0.176471
0.223529 0.223529 0.223529
0.270588 0.270588 0.270588
0.321569 0.321569 0.321569
0.376471 0.376471 0.376471
0.427451 0.427451 0.427451
0.482353 0.482353 0.482353
0.529412 0.529412 0.529412
0.007843 0.007843 0.007843
0.015686 0.015686 0.015686
0.031373 0.031373 0.031373
0.050980 0.050980 0.050980
0.074510 0.074510 0.074510
0.098039 0.098039 0.098039
0.129412 0.129412 0.129412
0.160784 0.160784 0.160784
0.200000 0.200000 0.200000
0.239216 0.239216 0.239216
0.290196 0.290196 0.290196
0.341176 0.341176 0.341176
0.396078 0.396078 0.396078
0.447059 0.447059 0.447059
0.501961 0.501961 0.501961
0.545098 0.545098 0.545098
0.015686 0.015686 0.015686
0.023529 0.023529 0.023529
0.039216 0.039216 0.039216
0.058824 0.058824 0.058824
0.082353 0.082353 0.082353
0.109804 0.109804 0.109804
0.145098 0.145098 0.145098
0.176471 0.176471 0.176471
0.215686 0.215686 0.215686
0.258824 0.258824 0.258824
0.305882 0.305882 0.305882
0.356863 0.356863 0.356863
0.411765 0.411765 0.411765
0.458824 0.458824 0.458824
0.513725 0.513725 0.513725
0.556863 0.556863 0.556863
0.023529 0.023529 0.023529
0.031373 0.031373 0.031373
0.047059 0.047059 0.047059
0.066667 0.066667 0.066667
0.086275 0.086275 0.086275
0.113725 0.113725 0.113725
0.149020 0.149020 0.149020
0.184314 0.184314 0.184314
0.227451 0.227451 0.227451
0.266667 0.266667 0.266667
0.313725 0.313725 0.313725
0.364706 0.364706 0.364706
0.415686 0.415686 0.415686
0.466667 0.466667 0.466667
0.521569 0.521569 0.521569
0.564706 0.564706 0.564706
0.027451 0.027451 0.027451
0.039216 0.039216 0.039216
0.054902 0.054902 0.054902
0.070588 0.070588 0.070588
0.094118 0.094118 0.094118
0.117647 0.117647 0.117647
0.149020 0.149020 0.149020
0.184314 0.184314 0.184314
0.227451 0.227451 0.227451
0.270588 0.270588 0.270588
0.317647 0.317647 0.317647
0.364706 0.364706 0.364706
0.419608 0.419608 0.419608
0.470588 0.470588 0.470588
0.525490 0.525490 0.525490
0.568627 0.568627 0.568627
0.031373 0.031373 0.031373
0.043137 0.043137 0.043137
0.058824 0.058824 0.058824
0.074510 0.074510 0.074510
0.094118 0.094118 0.094118
0.121569 0.121569 0.121569
0.149020 0.149020 0.149020
0.184314 0.184314 0.184314
0.227451 0.227451 0.227451
0.270588 0.270588 0.270588
0.317647 0.317647 0.317647
0.368627 0.368627 0.368627
0.423529 0.423529 0.423529
0.470588 0.470588 0.470588
0.525490 0.525490 0.525490
0.572549 0.572549 0.572549
0.035294 0.035294 0.035294
0.050980 0.050980 0.050980
0.066667 0.066667 0.066667
0.082353 0.082353 0.082353
0.101961 0.101961 0.101961
0.121569 0.121569 0.121569
0.152941 0.152941 0.152941
0.184314 0.184314 0.184314
0.223529 0.223529 0.223529
0.266667 0.266667 0.266667
0.317647 0.317647 0.317647
0.364706 0.364706 0.364706
0.423529 0.423529 0.423529
0.470588 0.470588 0.470588
0.525490 0.525490 0.525490
0.572549 0.572549 0.572549
0.039216 0.039216 0.039216
0.054902 0.054902 0.054902
0.066667 0.066667 0.066667
0.082353 0.082353 0.082353
0.105882 0.105882 0.105882
0.125490 0.125490 0.125490
0.152941 0.152941 0.152941
0.188235 0.188235 0.188235
0.223529 0.223529 0.223529
0.262745 0.262745 0.262745
0.313725 0.313725 0.313725
0.360784 0.360784 0.360784
0.419608 0.419608 0.419608
0.470588 0.470588 0.470588
0.525490 0.525490 0.525490
0.572549 0.572549 0.572549
0.043137 0.043137 0.043137
0.054902 0.054902 0.054902
0.070588 0.070588 0.070588
0.090196 0.090196 0.090196
0.109804 0.109804 0.109804
0.129412 0.129412 0.129412
0.156863 0.156863 0.156863
0.188235 0.188235 0.188235
0.227451 0.227451 0.227451
0.266667 0.266667 0.266667
0.309804 0.309804 0.309804
0.360784 0.360784 0.360784
0.415686 0.415686 0.415686
0.470588 0.470588 0.470588
0.525490 0.525490 0.525490
0.576471 0.576471 0.576471
0.043137 0.043137 0.043137
0.058824 0.058824 0.058824
0.074510 0.074510 0.074510
0.094118 0.094118 0.094118
0.113725 0.113725 0.113725
0.133333 0.133333 0.133333
0.160784 0.160784 0.160784
0.188235 0.188235 0.188235
0.227451 0.227451 0.227451
0.270588 0.270588 0.270588
0.313725 0.313725 0.313725
0.360784 0.360784 0.360784
0.415686 0.415686 0.415686
0.470588 0.470588 0.470588
0.525490 0.525490 0.525490
0.576471 0.576471 0.576471
0.043137 0.043137 0.043137
0.058824 0.058824 0.058824
0.074510 0.074510 0.074510
0.094118 0.094118 0.094118
0.117647 0.117647 0.117647
0.137255 0.137255 0.137255
0.164706 0.164706 0.164706
0.192157 0.192157 0.192157
0.227451 0.227451 0.227451
0.270588 0.270588 0.270588
0.321569 0.321569 0.321569
0.364706 0.364706 0.364706
0.419608 0.419608 0.419608
0.470588 0.470588 0.470588
0.529412 0.529412 0.529412
0.580392 0.580392 0.580392
0.047059 0.047059 0.047059
0.058824 0.058824 0.058824
0.078431 0.078431 0.078431
0.098039 0.098039 0.098039
0.121569 0.121569 0.121569
0.145098 0.145098 0.145098
0.168627 0.168627 0.168627
0.200000 0.200000 0.200000
0.235294 0.235294 0.235294
0.274510 0.274510 0.274510
0.321569 0.321569 0.321569
0.376471 0.376471 0.376471
0.427451 0.427451 0.427451
0.482353 0.482353 0.482353
0.533333 0.533333 0.533333
0.588235 0.588235 0.588235
0.047059 0.047059 0.047059
0.062745 0.062745 0.062745
0.078431 0.078431 0.078431
0.101961 0.101961 0.101961
0.125490 0.125490 0.125490
0.149020 0.149020 0.149020
0.176471 0.176471 0.176471
0.207843 0.207843 0.207843
0.243137 0.243137 0.243137
0.282353 0.282353 0.282353
0.329412 0.329412 0.329412
0.380392 0.380392 0.380392
0.443137 0.443137 0.443137
0.494118 0.494118 0.494118
0.549020 0.549020 0.549020
0.603922 0.603922 0.603922
0.047059 0.047059 0.047059
0.062745 0.062745 0.062745
0.082353 0.082353 0.082353
0.101961 0.101961 0.101961
0.129412 0.129412 0.129412
0.152941 0.152941 0.152941
0.180392 0.180392 0.180392
0.215686 0.215686 0.215686
0.250980 0.250980 0.250980
0.294118 0.294118 0.294118
0.341176 0.341176 0.341176
0.392157 0.392157 0.392157
0.450980 0.450980 0.450980
0.513725 0.513725 0.513725
0.568627 0.568627 0.568627
0.623529 0.623529 0.623529
0.047059 0.047059 0.047059
0.062745 0.062745 0.062745
0.082353 0.082353 0.082353
0.109804 0.109804 0.109804
0.133333 0.133333 0.133333
0.160784 0.160784 0.160784
0.192157 0.192157 0.192157
0.227451 0.227451 0.227451
0.270588 0.270588 0.270588
0.309804 0.309804 0.309804
0.360784 0.360784 0.360784
0.411765 0.411765 0.411765
0.470588 0.470588 0.470588
0.533333 0.533333 0.533333
0.600000 0.600000 0.600000
0.654902 0.654902 0.654902
0.047059 0.047059 0.047059
0.066667 0.066667 0.066667
0.086275 0.086275 0.086275
0.113725 0.113725 0.113725
0.141176 0.141176 0.141176
0.168627 0.168627 0.168627
0.203922 0.203922 0.203922
0.239216 0.239216 0.239216
0.286275 0.286275 0.286275
0.333333 0.333333 0.333333
0.384314 0.384314 0.384314
0.439216 0.439216 0.439216
0.498039 0.498039 0.498039
0.560784 0.560784 0.560784
0.627451 0.627451 0.627451
0.694118 0.694118 0.694118
0.000000 0.000000 0.000000
0.007843 0.007843 0.007843
0.023529 0.023529 0.023529
0.043137 0.043137 0.043137
0.066667 0.066667 0.066667
0.094118 0.094118 0.094118
0.129412 0.129412 0.129412
0.164706 0.164706 0.164706
0.207843 0.207843 0.207843
0.254902 0.254902 0.254902
0.309804 0.309804 0.309804
0.360784 0.360784 0.360784
0.415686 0.415686 0.415686
0.470588 0.470588 0.470588
0.521569 0.521569 0.521569
0.564706 0.564706 0.564706
0.007843 0.007843 0.007843
0.023529 0.023529 0.023529
0.039216 0.039216 0.039216
0.058824 0.058824 0.058824
0.082353 0.082353 0.082353
0.109804 0.109804 0.109804
0.141176 0.141176 0.141176
0.176471 0.176471 0.176471
0.215686 0.215686 0.215686
0.258824 0.258824 0.258824
0.309804 0.309804 0.309804
0.360784 0.360784 0.360784
0.411765 0.411765 0.411765
0.466667 0.466667 0.466667
0.513725 0.513725 0.513725
0.560784 0.560784 0.560784
0.015686 0.015686 0.015686
0.031373 0.031373 0.031373
0.050980 0.050980 0.050980
0.070588 0.070588 0.070588
0.098039 0.098039 0.098039
0.129412 0.129412 0.129412
0.160784 0.160784 0.160784
0.196078 0.196078 0.196078
0.239216 0.239216 0.239216
0.278431 0.278431 0.278431
0.325490 0.325490 0.325490
0.380392 0.380392 0.380392
0.431373 0.431373 0.431373
0.482353 0.482353 0.482353
0.533333 0.533333 0.533333
0.576471 0.576471 0.576471
0.019608 0.019608 0.019608
0.043137 0.043137 0.043137
0.058824 0.058824 0.058824
0.078431 0.078431 0.078431
0.101961 0.101961 0.101961
0.133333 0.133333 0.133333
0.168627 0.168627 0.168627
0.207843 0.207843 0.207843
0.250980 0.250980 0.250980
0.290196 0.290196 0.290196
0.341176 0.341176 0.341176
0.388235 0.388235 0.388235
0.443137 0.443137 0.443137
0.494118 0.494118 0.494118
0.545098 0.545098 0.545098
0.588235 0.588235 0.588235
0.027451 0.027451 0.027451
0.047059 0.047059 0.047059
0.066667 0.066667 0.066667
0.086275 0.086275 0.086275
0.109804 0.109804 0.109804
0.137255 0.137255 0.137255
0.172549 0.172549 0.172549
0.211765 0.211765 0.211765
0.254902 0.254902 0.254902
0.298039 0.298039 0.298039
0.349020 0.349020 0.349020
0.396078 0.396078 0.396078
0.447059 0.447059 0.447059
0.498039 0.498039 0.498039
0.549020 0.549020 0.549020
0.596078 0.596078 0.596078
0.031373 0.031373 0.031373
0.054902 0.054902 0.054902
0.074510 0.074510 0.074510
0.090196 0.090196 0.090196
0.113725 0.113725 0.113725
0.141176 0.141176 0.141176
0.172549 0.172549 0.172549
0.211765 0.211765 0.211765
0.254902 0.254902 0.254902
0.301961 0.301961 0.301961
0.349020 0.349020 0.349020
0.400000 0.400000 0.400000
0.450980 0.450980 0.450980
0.501961 0.501961 0.501961
0.552941 0.552941 0.552941
0.600000 0.600000 0.600000
0.035294 0.035294 0.035294
0.058824 0.058824 0.058824
0.078431 0.078431 0.078431
0.098039 0.098039 0.098039
0.117647 0.117647 0.117647
0.141176 0.141176 0.141176
0.176471 0.176471 0.176471
0.207843 0.207843 0.207843
0.250980 0.250980 0.250980
0.298039 0.298039 0.298039
0.349020 0.349020 0.349020
0.400000 0.400000 0.400000
0.454902 0.454902 0.454902
0.501961 0.501961 0.501961
0.552941 0.552941 0.552941
0.600000 0.600000 0.600000
0.035294 0.035294 0.035294
0.062745 0.062745 0.062745
0.082353 0.082353 0.082353
0.101961 0.101961 0.101961
0.121569 0.121569 0.121569
0.145098 0.145098 0.145098
0.176471 0.176471 0.176471
0.211765 0.211765 0.211765
0.250980 0.250980 0.250980
0.294118 0.294118 0.294118
0.345098 0.345098 0.345098
0.396078 0.396078 0.396078
0.450980 0.450980 0.450980
0.505882 0.505882 0.505882
0.556863 0.556863 0.556863
0.603922 0.603922 0.603922
0.039216 0.039216 0.039216
0.066667 0.066667 0.066667
0.086275 0.086275 0.086275
0.105882 0.105882 0.105882
0.129412 0.129412 0.129412
0.152941 0.152941 0.152941
0.180392 0.180392 0.180392
0.211765 0.211765 0.211765
0.254902 0.254902 0.254902
0.294118 0.294118 0.294118
0.345098 0.345098 0.345098
0.396078 0.396078 0.396078
0.450980 0.450980 0.450980
0.505882 0.505882 0.505882
0.556863 0.556863 0.556863
0.607843 0.607843 0.607843
0.039216 0.039216 0.039216
0.066667 0.066667 0.066667
0.086275 0.086275 0.086275
0.109804 0.109804 0.109804
0.133333 0.133333 0.133333
0.156863 0.156863 0.156863
0.184314 0.184314 0.184314
0.215686 0.215686 0.215686
0.254902 0.254902 0.254902
0.298039 0.298039 0.298039
0.349020 0.349020 0.349020
0.396078 0.396078 0.396078
0.450980 0.450980 0.450980
0.501961 0.501961 0.501961
0.560784 0.560784 0.560784
0.607843 0.607843 0.607843
0.043137 0.043137 0.043137
0.070588 0.070588 0.070588
0.090196 0.090196 0.090196
0.113725 0.113725 0.113725
0.137255 0.137255 0.137255
0.160784 0.160784 0.160784
0.192157 0.192157 0.192157
0.223529 0.223529 0.223529
0.258824 0.258824 0.258824
0.301961 0.301961 0.301961
0.356863 0.356863 0.356863
0.400000 0.400000 0.400000
0.454902 0.454902 0.454902
0.505882 0.505882 0.505882
0.564706 0.564706 0.564706
0.615686 0.615686 0.615686
0.043137 0.043137 0.043137
0.070588 0.070588 0.070588
0.094118 0.094118 0.094118
0.117647 0.117647 0.117647
0.141176 0.141176 0.141176
0.164706 0.164706 0.164706
0.196078 0.196078 0.196078
0.227451 0.227451 0.227451
0.266667 0.266667 0.266667
0.305882 0.305882 0.305882
0.356863 0.356863 0.356863
0.411765 0.411765 0.411765
0.462745 0.462745 0.462745
0.513725 0.513725 0.513725
0.572549 0.572549 0.572549
0.623529 0.623529 0.623529
0.043137 0.043137 0.043137
0.070588 0.070588 0.070588
0.098039 0.098039 0.098039
0.121569 0.121569 0.121569
0.145098 0.145098 0.145098
0.172549 0.172549 0.172549
0.203922 0.203922 0.203922
0.235294 0.235294 0.235294
0.274510 0.274510 0.274510
0.317647 0.317647 0.317647
0.364706 0.364706 0.364706
0.419608 0.419608 0.419608
0.478431 0.478431 0.478431
0.529412 0.529412 0.529412
0.584314 0.584314 0.584314
0.635294 0.635294 0.635294
0.043137 0.043137 0.043137
0.074510 0.074510 0.074510
0.098039 0.098039 0.098039
0.125490 0.125490 0.125490
0.149020 0.149020 0.149020
0.176471 0.176471 0.176471
0.215686 0.215686 0.215686
0.247059 0.247059 0.247059
0.290196 0.290196 0.290196
0.333333 0.333333 0.333333
0.380392 0.380392 0.380392
0.431373 0.431373 0.431373
0.490196 0.490196 0.490196
0.552941 0.552941 0.552941
0.603922 0.603922 0.603922
0.658824 0.658824 0.658824
0.047059 0.047059 0.047059
0.074510 0.074510 0.074510
0.101961 0.101961 0.101961
0.129412 0.129412 0.129412
0.156863 0.156863 0.156863
0.188235 0.188235 0.188235
0.223529 0.223529 0.223529
0.262745 0.262745 0.262745
0.305882 0.305882 0.305882
0.352941 0.352941 0.352941
0.403922 0.403922 0.403922
0.454902 0.454902 0.454902
0.513725 0.513725 0.513725
0.572549 0.572549 0.572549
0.635294 0.635294 0.635294
0.690196 0.690196 0.690196
0.047059 0.047059 0.047059
0.078431 0.078431 0.078431
0.105882 0.105882 0.105882
0.133333 0.133333 0.133333
0.164706 0.164706 0.164706
0.200000 0.200000 0.200000
0.235294 0.235294 0.235294
0.278431 0.278431 0.278431
0.325490 0.325490 0.325490
0.372549 0.372549 0.372549
0.427451 0.427451 0.427451
0.486275 0.486275 0.486275
0.545098 0.545098 0.545098
0.603922 0.603922 0.603922
0.670588 0.670588 0.670588
0.729412 0.729412 0.729412
0.000000 0.000000 0.000000
0.007843 0.007843 0.007843
0.027451 0.027451 0.027451
0.050980 0.050980 0.050980
0.078431 0.078431 0.078431
0.109804 0.109804 0.109804
0.145098 0.145098 0.145098
0.188235 0.188235 0.188235
0.239216 0.239216 0.239216
0.290196 0.290196 0.290196
0.345098 0.345098 0.345098
0.400000 0.400000 0.400000
0.454902 0.454902 0.454902
0.505882 0.505882 0.505882
0.552941 0.552941 0.552941
0.600000 0.600000 0.600000
0.007843 0.007843 0.007843
0.019608 0.019608 0.019608
0.047059 0.047059 0.047059
0.070588 0.070588 0.070588
0.098039 0.098039 0.098039
0.129412 0.129412 0.129412
0.164706 0.164706 0.164706
0.203922 0.203922 0.203922
0.247059 0.247059 0.247059
0.294118 0.294118 0.294118
0.349020 0.349020 0.349020
0.403922 0.403922 0.403922
0.454902 0.454902 0.454902
0.505882 0.505882 0.505882
0.552941 0.552941 0.552941
0.596078 0.596078 0.596078
0.011765 0.011765 0.011765
0.027451 0.027451 0.027451
0.062745 0.062745 0.062745
0.086275 0.086275 0.086275
0.113725 0.113725 0.113725
0.141176 0.141176 0.141176
0.176471 0.176471 0.176471
0.215686 0.215686 0.215686
0.254902 0.254902 0.254902
0.298039 0.298039 0.298039
0.349020 0.349020 0.349020
0.400000 0.400000 0.400000
0.454902 0.454902 0.454902
0.501961 0.501961 0.501961
0.549020 0.549020 0.549020
0.596078 0.596078 0.596078
0.015686 0.015686 0.015686
0.035294 0.035294 0.035294
0.070588 0.070588 0.070588
0.094118 0.094118 0.094118
0.121569 0.121569 0.121569
0.156863 0.156863 0.156863
0.192157 0.192157 0.192157
0.231373 0.231373 0.231373
0.274510 0.274510 0.274510
0.317647 0.317647 0.317647
0.368627 0.368627 0.368627
0.415686 0.415686 0.415686
0.466667 0.466667 0.466667
0.517647 0.517647 0.517647
0.564706 0.564706 0.564706
0.607843 0.607843 0.607843
0.019608 0.019608 0.019608
0.043137 0.043137 0.043137
0.082353 0.082353 0.082353
0.101961 0.101961 0.101961
0.125490 0.125490 0.125490
0.156863 0.156863 0.156863
0.196078 0.196078 0.196078
0.239216 0.239216 0.239216
0.282353 0.282353 0.282353
0.329412 0.329412 0.329412
0.380392 0.380392 0.380392
0.427451 0.427451 0.427451
0.478431 0.478431 0.478431
0.529412 0.529412 0.529412
0.576471 0.576471 0.576471
0.623529 0.623529 0.623529
0.023529 0.023529 0.023529
0.050980 0.050980 0.050980
0.086275 0.086275 0.086275
0.109804 0.109804 0.109804
0.133333 0.133333 0.133333
0.160784 0.160784 0.160784
0.196078 0.196078 0.196078
0.239216 0.239216 0.239216
0.286275 0.286275 0.286275
0.333333 0.333333 0.333333
0.388235 0.388235 0.388235
0.435294 0.435294 0.435294
0.486275 0.486275 0.486275
0.537255 0.537255 0.537255
0.584314 0.584314 0.584314
0.627451 0.627451 0.627451
0.027451 0.027451 0.027451
0.054902 0.054902 0.054902
0.090196 0.090196 0.090196
0.113725 0.113725 0.113725
0.141176 0.141176 0.141176
0.164706 0.164706 0.164706
0.200000 0.200000 0.200000
0.239216 0.239216 0.239216
0.282353 0.282353 0.282353
0.329412 0.329412 0.329412
0.384314 0.384314 0.384314
0.435294 0.435294 0.435294
0.490196 0.490196 0.490196
0.537255 0.537255 0.537255
0.588235 0.588235 0.588235
0.631373 0.631373 0.631373
0.031373 0.031373 0.031373
0.058824 0.058824 0.058824
0.098039 0.098039 0.098039
0.121569 0.121569 0.121569
0.145098 0.145098 0.145098
0.172549 0.172549 0.172549
0.203922 0.203922 0.203922
0.239216 0.239216 0.239216
0.282353 0.282353 0.282353
0.329412 0.329412 0.329412
0.384314 0.384314 0.384314
0.435294 0.435294 0.435294
0.490196 0.490196 0.490196
0.541176 0.541176 0.541176
0.592157 0.592157 0.592157
0.635294 0.635294 0.635294
0.035294 0.035294 0.035294
0.062745 0.062745 0.062745
0.098039 0.098039 0.098039
0.125490 0.125490 0.125490
0.152941 0.152941 0.152941
0.176471 0.176471 0.176471
0.207843 0.207843 0.207843
0.243137 0.243137 0.243137
0.286275 0.286275 0.286275
0.329412 0.329412 0.329412
0.380392 0.380392 0.380392
0.435294 0.435294 0.435294
0.490196 0.490196 0.490196
0.541176 0.541176 0.541176
0.592157 0.592157 0.592157
0.639216 0.639216 0.639216
0.035294 0.035294 0.035294
0.062745 0.062745 0.062745
0.101961 0.101961 0.101961
0.129412 0.129412 0.129412
0.156863 0.156863 0.156863
0.184314 0.184314 0.184314
0.215686 0.215686 0.215686
0.247059 0.247059 0.247059
0.286275 0.286275 0.286275
0.333333 0.333333 0.333333
0.384314 0.384314 0.384314
0.435294 0.435294 0.435294
0.490196 0.490196 0.490196
0.541176 0.541176 0.541176
0.596078 0.596078 0.596078
0.643137 0.643137 0.643137
0.039216 0.039216 0.039216
0.066667 0.066667 0.066667
0.105882 0.105882 0.105882
0.133333 0.133333 0.133333
0.160784 0.160784 0.160784
0.188235 0.188235 0.188235
0.223529 0.223529 0.223529
0.254902 0.254902 0.254902
0.294118 0.294118 0.294118
0.337255 0.337255 0.337255
0.392157 0.392157 0.392157
0.443137 0.443137 0.443137
0.494118 0.494118 0.494118
0.545098 0.545098 0.545098
0.600000 0.600000 0.600000
0.650980 0.650980 0.650980
0.039216 0.039216 0.039216
0.066667 0.066667 0.066667
0.109804 0.109804 0.109804
0.137255 0.137255 0.137255
0.164706 0.164706 0.164706
0.196078 0.196078 0.196078
0.227451 0.227451 0.227451
0.262745 0.262745 0.262745
0.301961 0.301961 0.301961
0.345098 0.345098 0.345098
0.396078 0.396078 0.396078
0.450980 0.450980 0.450980
0.501961 0.501961 0.501961
0.556863 0.556863 0.556863
0.607843 0.607843 0.607843
0.658824 0.658824 0.658824
0.039216 0.039216 0.039216
0.070588 0.070588 0.070588
0.109804 0.109804 0.109804
0.141176 0.141176 0.141176
0.172549 0.172549 0.172549
0.203922 0.203922 0.203922
0.235294 0.235294 0.235294
0.274510 0.274510 0.274510
0.313725 0.313725 0.313725
0.356863 0.356863 0.356863
0.407843 0.407843 0.407843
0.462745 0.462745 0.462745
0.521569 0.521569 0.521569
0.568627 0.568627 0.568627
0.623529 0.623529 0.623529
0.674510 0.674510 0.674510
0.039216 0.039216 0.039216
0.070588 0.070588 0.070588
0.113725 0.113725 0.113725
0.145098 0.145098 0.145098
0.176471 0.176471 0.176471
0.211765 0.211765 0.211765
0.247059 0.247059 0.247059
0.286275 0.286275 0.286275
0.329412 0.329412 0.329412
0.372549 0.372549 0.372549
0.423529 0.423529 0.423529
0.478431 0.478431 0.478431
0.533333 0.533333 0.533333
0.592157 0.592157 0.592157
0.647059 0.647059 0.647059
0.698039 0.698039 0.698039
0.043137 0.043137 0.043137
0.074510 0.074510 0.074510
0.121569 0.121569 0.121569
0.149020 0.149020 0.149020
0.188235 0.188235 0.188235
0.219608 0.219608 0.219608
0.262745 0.262745 0.262745
0.301961 0.301961 0.301961
0.349020 0.349020 0.349020
0.396078 0.396078 0.396078
0.450980 0.450980 0.450980
0.501961 0.501961 0.501961
0.556863 0.556863 0.556863
0.615686 0.615686 0.615686
0.678431 0.678431 0.678431
0.729412 0.729412 0.729412
0.043137 0.043137 0.043137
0.074510 0.074510 0.074510
0.125490 0.125490 0.125490
0.156863 0.156863 0.156863
0.196078 0.196078 0.196078
0.231373 0.231373 0.231373
0.278431 0.278431 0.278431
0.321569 0.321569 0.321569
0.372549 0.372549 0.372549
0.423529 0.423529 0.423529
0.478431 0.478431 0.478431
0.533333 0.533333 0.533333
0.592157 0.592157 0.592157
0.650980 0.650980 0.650980
0.713725 0.713725 0.713725
0.772549 0.772549 0.772549
0.000000 0.000000 0.000000
0.007843 0.007843 0.007843
0.027451 0.027451 0.027451
0.054902 0.054902 0.054902
0.086275 0.086275 0.086275
0.121569 0.121569 0.121569
0.160784 0.160784 0.160784
0.207843 0.207843 0.207843
0.262745 0.262745 0.262745
0.317647 0.317647 0.317647
0.376471 0.376471 0.376471
0.431373 0.431373 0.431373
0.486275 0.486275 0.486275
0.537255 0.537255 0.537255
0.584314 0.584314 0.584314
0.631373 0.631373 0.631373
0.003922 0.003922 0.003922
0.015686 0.015686 0.015686
0.043137 0.043137 0.043137
0.078431 0.078431 0.078431
0.109804 0.109804 0.109804
0.145098 0.145098 0.145098
0.184314 0.184314 0.184314
0.227451 0.227451 0.227451
0.278431 0.278431 0.278431
0.329412 0.329412 0.329412
0.388235 0.388235 0.388235
0.439216 0.439216 0.439216
0.494118 0.494118 0.494118
0.541176 0.541176 0.541176
0.588235 0.588235 0.588235
0.631373 0.631373 0.631373
0.011765 0.011765 0.011765
0.023529 0.023529 0.023529
0.054902 0.054902 0.054902
0.094118 0.094118 0.094118
0.129412 0.129412 0.129412
0.164706 0.164706 0.164706
0.203922 0.203922 0.203922
0.243137 0.243137 0.243137
0.286275 0.286275 0.286275
0.337255 0.337255 0.337255
0.392157 0.392157 0.392157
0.443137 0.443137 0.443137
0.494118 0.494118 0.494118
0.541176 0.541176 0.541176
0.588235 0.588235 0.588235
0.631373 0.631373 0.631373
0.015686 0.015686 0.015686
0.031373 0.031373 0.031373
0.066667 0.066667 0.066667
0.109804 0.109804 0.109804
0.145098 0.145098 0.145098
0.176471 0.176471 0.176471
0.211765 0.211765 0.211765
0.250980 0.250980 0.250980
0.294118 0.294118 0.294118
0.341176 0.341176 0.341176
0.392157 0.392157 0.392157
0.443137 0.443137 0.443137
0.490196 0.490196 0.490196
0.541176 0.541176 0.541176
0.584314 0.584314 0.584314
0.627451 0.627451 0.627451
0.015686 0.015686 0.015686
0.035294 0.035294 0.035294
0.074510 0.074510 0.074510
0.121569 0.121569 0.121569
0.149020 0.149020 0.149020
0.184314 0.184314 0.184314
0.227451 0.227451 0.227451
0.266667 0.266667 0.266667
0.313725 0.313725 0.313725
0.360784 0.360784 0.360784
0.407843 0.407843 0.407843
0.458824 0.458824 0.458824
0.509804 0.509804 0.509804
0.552941 0.552941 0.552941
0.600000 0.600000 0.600000
0.643137 0.643137 0.643137
0.019608 0.019608 0.019608
0.039216 0.039216 0.039216
0.082353 0.082353 0.082353
0.129412 0.129412 0.129412
0.156863 0.156863 0.156863
0.188235 0.188235 0.188235
0.227451 0.227451 0.227451
0.270588 0.270588 0.270588
0.317647 0.317647 0.317647
0.368627 0.368627 0.368627
0.419608 0.419608 0.419608
0.466667 0.466667 0.466667
0.517647 0.517647 0.517647
0.564706 0.564706 0.564706
0.611765 0.611765 0.611765
0.654902 0.654902 0.654902
0.023529 0.023529 0.023529
0.047059 0.047059 0.047059
0.090196 0.090196 0.090196
0.133333 0.133333 0.133333
0.164706 0.164706 0.164706
0.192157 0.192157 0.192157
0.231373 0.231373 0.231373
0.266667 0.266667 0.266667
0.317647 0.317647 0.317647
0.368627 0.368627 0.368627
0.423529 0.423529 0.423529
0.474510 0.474510 0.474510
0.525490 0.525490 0.525490
0.572549 0.572549 0.572549
0.619608 0.619608 0.619608
0.662745 0.662745 0.662745
0.023529 0.023529 0.023529
0.054902 0.054902 0.054902
0.094118 0.094118 0.094118
0.141176 0.141176 0.141176
0.172549 0.172549 0.172549
0.200000 0.200000 0.200000
