luts/noir.cube
TITLE "noir"
LUT_3D_SIZE 6
DOMAIN_MIN 0.0 0.0 0.0
DOMAIN_MAX 1.0 1.0 1.0
0.000000 0.000000 0.000000
0.035294 0.035294 0.035294
0.109804 0.109804 0.109804
0.223529 0.223529 0.223529
0.376471 0.376471 0.376471
0.529412 0.529412 0.529412
0.023529 0.023529 0.023529
0.066667 0.066667 0.066667
0.149020 0.149020 0.149020
0.266667 0.266667 0.266667
0.415686 0.415686 0.415686
0.564706 0.564706 0.564706
0.035294 0.035294 0.035294
0.082353 0.082353 0.082353
0.152941 0.152941 0.152941
0.266667 0.266667 0.266667
0.423529 0.423529 0.423529
0.572549 0.572549 0.572549
0.043137 0.043137 0.043137
0.094118 0.094118 0.094118
0.160784 0.160784 0.160784
0.270588 0.270588 0.270588
0.415686 0.415686 0.415686
0.576471 0.576471 0.576471
0.047059 0.047059 0.047059
0.101961 0.101961 0.101961
0.176471 0.176471 0.176471
0.282353 0.282353 0.282353
0.443137 0.443137 0.443137
0.603922 0.603922 0.603922
0.047059 0.047059 0.047059
0.113725 0.113725 0.113725
0.203922 0.203922 0.203922
0.333333 0.333333 0.333333
0.498039 0.498039 0.498039
0.694118 0.694118 0.694118
0.000000 0.000000 0.000000
0.054902 0.054902 0.054902
0.160784 0.160784 0.160784
0.317647 0.317647 0.317647
0.486275 0.486275 0.486275
0.631373 0.631373 0.631373
0.015686 0.015686 0.015686
0.109804 0.109804 0.109804
0.211765 0.211765 0.211765
0.341176 0.341176 0.341176
0.490196 0.490196 0.490196
0.627451 0.627451 0.627451
0.023529 0.023529 0.023529
0.133333 0.133333 0.133333
0.231373 0.231373 0.231373
0.368627 0.368627 0.368627
0.525490 0.525490 0.525490
0.662745 0.662745 0.662745
0.031373 0.031373 0.031373
0.149020 0.149020 0.149020
0.247059 0.247059 0.247059
0.372549 0.372549 0.372549
0.529412 0.529412 0.529412
0.678431 0.678431 0.678431
0.035294 0.035294 0.035294
0.164706 0.164706 0.164706
0.274510 0.274510 0.274510
0.400000 0.400000 0.400000
0.560784 0.560784 0.560784
0.713725 0.713725 0.713725
0.039216 0.039216 0.039216
0.184314 0.184314 0.184314
0.321569 0.321569 0.321569
0.474510 0.474510 0.474510
0.639216 0.639216 0.639216
0.807843 0.807843 0.807843
0.000000 0.000000 0.000000
0.047059 0.047059 0.047059
0.200000 0.200000 0.200000
0.396078 0.396078 0.396078
0.568627 0.568627 0.568627
0.705882 0.705882 0.705882
0.007843 0.007843 0.007843
0.074510 0.074510 0.074510
0.270588 0.270588 0.270588
0.447059 0.447059 0.447059
0.600000 0.600000 0.600000
0.721569 0.721569 0.721569
0.011765 0.011765 0.011765
0.101961 0.101961 0.101961
0.329412 0.329412 0.329412
0.478431 0.478431 0.478431
0.615686 0.615686 0.615686
0.737255 0.737255 0.737255
0.011765 0.011765 0.011765
0.117647 0.117647 0.117647
0.360784 0.360784 0.360784
0.498039 0.498039 0.498039
0.647059 0.647059 0.647059
0.776471 0.776471 0.776471
0.015686 0.015686 0.015686
0.145098 0.145098 0.145098
0.400000 0.400000 0.400000
0.545098 0.545098 0.545098
0.686275 0.686275 0.686275
0.815686 0.815686 0.815686
0.023529 0.023529 0.023529
0.176471 0.176471 0.176471
0.462745 0.462745 0.462745
0.631373 0.631373 0.631373
0.776471 0.776471 0.776471
0.898039 0.898039 0.898039
0.000000 0.000000 0.000000
0.023529 0.023529 0.023529
0.188235 0.188235 0.188235
0.419608 0.419608 0.419608
0.615686 0.615686 0.615686
0.749020 0.749020 0.749020
0.003922 0.003922 0.003922
0.043137 0.043137 0.043137
0.227451 0.227451 0.227451
0.482353 0.482353 0.482353
0.654902 0.654902 0.654902
0.772549 0.772549 0.772549
0.003922 0.003922 0.003922
0.070588 0.070588 0.070588
0.254902 0.254902 0.254902
0.541176 0.541176 0.541176
0.694118 0.694118 0.694118
0.803922 0.803922 0.803922
0.007843 0.007843 0.007843
0.082353 0.082353 0.082353
0.305882 0.305882 0.305882
0.600000 0.600000 0.600000
0.737255 0.737255 0.737255
0.835294 0.835294 0.835294
0.003922 0.003922 0.003922
0.078431 0.078431 0.078431
0.349020 0.349020 0.349020
0.654902 0.654902 0.654902
0.780392 0.780392 0.780392
0.882353 0.882353 0.882353
0.003922 0.003922 0.003922
0.113725 0.113725 0.113725
0.443137 0.443137 0.443137
0.745098 0.745098 0.745098
0.866667 0.866667 0.866667
0.945098 0.945098 0.945098
0.000000 0.000000 0.000000
0.007843 0.007843 0.007843
0.121569 0.121569 0.121569
0.392157 0.392157 0.392157
0.607843 0.607843 0.607843
0.760784 0.760784 0.760784
0.000000 0.000000 0.000000
0.019608 0.019608 0.019608
0.129412 0.129412 0.129412
0.431373 0.431373 0.431373
0.654902 0.654902 0.654902
0.792157 0.792157 0.792157
0.000000 0.000000 0.000000
0.031373 0.031373 0.031373
0.160784 0.160784 0.160784
0.466667 0.466667 0.466667
0.709804 0.709804 0.709804
0.827451 0.827451 0.827451
0.000000 0.000000 0.000000
0.043137 0.043137 0.043137
0.223529 0.223529 0.223529
0.505882 0.505882 0.505882
0.772549 0.772549 0.772549
0.866667 0.866667 0.866667
0.003922 0.003922 0.003922
0.054902 0.054902 0.054902
0.266667 0.266667 0.266667
0.596078 0.596078 0.596078
0.843137 0.843137 0.843137
0.913725 0.913725 0.913725
0.000000 0.000000 0.000000
0.050980 0.050980 0.050980
0.317647 0.317647 0.317647
0.713725 0.713725 0.713725
0.917647 0.917647 0.917647
0.976471 0.976471 0.976471
0.000000 0.000000 0.000000
0.000000 0.000000 0.000000
0.050980 0.050980 0.050980
0.270588 0.270588 0.270588
0.568627 0.568627 0.568627
0.733333 0.733333 0.733333
0.000000 0.000000 0.000000
0.003922 0.003922 0.003922
0.054902 0.054902 0.054902
0.294118 0.294118 0.294118
0.607843 0.607843 0.607843
0.768627 0.768627 0.768627
0.000000 0.000000 0.000000
0.007843 0.007843 0.007843
0.078431 0.078431 0.078431
0.298039 0.298039 0.298039
0.650980 0.650980 0.650980
0.815686 0.815686 0.815686
0.000000 0.000000 0.000000
0.011765 0.011765 0.011765
0.113725 0.113725 0.113725
0.356863 0.356863 0.356863
0.698039 0.698039 0.698039
0.866667 0.866667 0.866667
0.000000 0.000000 0.000000
0.015686 0.015686 0.015686
0.160784 0.160784 0.160784
0.486275 0.486275 0.486275
0.776471 0.776471 0.776471
0.925490 0.925490 0.925490
0.000000 0.000000 0.000000
0.031373 0.031373 0.031373
0.250980 0.250980 0.250980
0.647059 0.647059 0.647059
0.913725 0.913725 0.913725
0.996078 0.996078 0.996078
