luts/process.cube
TITLE "process"
LUT_3D_SIZE 16
DOMAIN_MIN 0.0 0.0 0.0
DOMAIN_MAX 1.0 1.0 1.0
0.000000 0.000000 0.145098
0.003922 0.003922 0.145098
0.007843 0.011765 0.149020
0.019608 0.027451 0.152941
0.078431 0.050980 0.156863
0.141176 0.078431 0.160784
0.207843 0.105882 0.168627
0.290196 0.125490 0.172549
0.376471 0.145098 0.184314
0.470588 0.156863 0.192157
0.564706 0.168627 0.200000
0.666667 0.176471 0.207843
0.764706 0.180392 0.219608
0.858824 0.188235 0.231373
0.945098 0.200000 0.250980
1.000000 0.215686 0.266667
0.000000 0.058824 0.149020
0.003922 0.062745 0.152941
0.003922 0.070588 0.152941
0.015686 0.082353 0.156863
0.066667 0.098039 0.160784
0.133333 0.117647 0.164706
0.203922 0.141176 0.172549
0.286275 0.156863 0.180392
0.376471 0.172549 0.184314
0.470588 0.184314 0.192157
0.564706 0.192157 0.200000
0.666667 0.200000 0.211765
0.764706 0.203922 0.223529
0.858824 0.211765 0.235294
0.945098 0.219608 0.250980
1.000000 0.235294 0.270588
0.000000 0.121569 0.160784
0.000000 0.125490 0.160784
0.003922 0.129412 0.164706
0.011765 0.137255 0.164706
0.043137 0.152941 0.168627
0.113725 0.172549 0.172549
0.192157 0.188235 0.180392
0.282353 0.203922 0.184314
0.372549 0.215686 0.192157
0.470588 0.223529 0.200000
0.568627 0.231373 0.207843
0.670588 0.239216 0.215686
0.768627 0.243137 0.227451
0.862745 0.250980 0.239216
0.945098 0.258824 0.258824
1.000000 0.274510 0.274510
0.000000 0.188235 0.172549
0.000000 0.188235 0.176471
0.000000 0.192157 0.176471
0.000000 0.203922 0.180392
0.007843 0.215686 0.180392
0.074510 0.231373 0.184314
0.176471 0.247059 0.188235
0.274510 0.258824 0.196078
0.372549 0.270588 0.200000
0.470588 0.278431 0.207843
0.568627 0.286275 0.215686
0.670588 0.290196 0.223529
0.768627 0.294118 0.235294
0.862745 0.298039 0.247059
0.945098 0.305882 0.266667
1.000000 0.317647 0.282353
0.000000 0.278431 0.192157
0.000000 0.278431 0.192157
0.000000 0.282353 0.192157
0.000000 0.290196 0.192157
0.000000 0.298039 0.196078
0.027451 0.305882 0.200000
0.145098 0.317647 0.203922
0.262745 0.329412 0.207843
0.368627 0.337255 0.211765
0.470588 0.345098 0.219608
0.572549 0.349020 0.227451
0.674510 0.352941 0.235294
0.772549 0.356863 0.247059
0.862745 0.360784 0.258824
0.945098 0.368627 0.274510
1.000000 0.376471 0.298039
0.000000 0.368627 0.207843
0.000000 0.368627 0.207843
0.000000 0.368627 0.207843
0.000000 0.372549 0.207843
0.000000 0.380392 0.211765
0.003922 0.388235 0.215686
0.098039 0.392157 0.219608
0.247059 0.400000 0.223529
0.364706 0.407843 0.231373
0.474510 0.411765 0.235294
0.576471 0.415686 0.243137
0.678431 0.419608 0.250980
0.772549 0.423529 0.262745
0.866667 0.427451 0.278431
0.945098 0.431373 0.294118
1.000000 0.439216 0.309804
0.000000 0.450980 0.223529
0.000000 0.450980 0.223529
0.000000 0.454902 0.227451
0.000000 0.454902 0.227451
0.000000 0.458824 0.231373
0.000000 0.462745 0.235294
0.050980 0.466667 0.239216
0.235294 0.474510 0.247059
0.364706 0.478431 0.250980
0.478431 0.482353 0.258824
0.580392 0.482353 0.262745
0.682353 0.486275 0.274510
0.776471 0.486275 0.282353
0.866667 0.490196 0.294118
0.945098 0.494118 0.309804
1.000000 0.498039 0.325490
0.000000 0.529412 0.247059
0.000000 0.533333 0.247059
0.000000 0.533333 0.247059
0.000000 0.533333 0.250980
0.000000 0.537255 0.254902
0.000000 0.537255 0.258824
0.039216 0.541176 0.262745
0.223529 0.545098 0.266667
0.364706 0.549020 0.274510
0.486275 0.549020 0.278431
0.588235 0.552941 0.286275
0.690196 0.552941 0.294118
0.784314 0.552941 0.301961
0.870588 0.556863 0.313725
0.945098 0.556863 0.325490
1.000000 0.560784 0.341176
0.000000 0.607843 0.274510
0.000000 0.607843 0.274510
0.000000 0.607843 0.274510
0.000000 0.607843 0.278431
0.000000 0.607843 0.278431
0.000000 0.611765 0.282353
0.039216 0.611765 0.286275
0.227451 0.615686 0.290196
0.376471 0.615686 0.294118
0.494118 0.615686 0.298039
0.600000 0.615686 0.305882
0.698039 0.615686 0.313725
0.788235 0.615686 0.321569
0.874510 0.615686 0.333333
0.945098 0.619608 0.345098
1.000000 0.623529 0.360784
0.000000 0.678431 0.298039
0.000000 0.678431 0.298039
0.000000 0.678431 0.301961
0.000000 0.678431 0.301961
0.000000 0.678431 0.301961
0.000000 0.682353 0.305882
0.047059 0.682353 0.309804
0.250980 0.682353 0.313725
0.400000 0.682353 0.317647
0.513725 0.682353 0.321569
0.615686 0.682353 0.329412
0.713725 0.678431 0.337255
0.800000 0.678431 0.345098
0.878431 0.678431 0.352941
0.949020 0.678431 0.364706
1.000000 0.682353 0.380392
0.000000 0.741176 0.325490
0.000000 0.741176 0.325490
0.000000 0.741176 0.325490
0.000000 0.741176 0.325490
0.000000 0.741176 0.329412
0.000000 0.741176 0.329412
0.078431 0.741176 0.333333
0.294118 0.741176 0.337255
0.427451 0.741176 0.341176
0.537255 0.741176 0.345098
0.635294 0.741176 0.349020
0.725490 0.741176 0.356863
0.807843 0.737255 0.360784
0.882353 0.737255 0.372549
0.949020 0.737255 0.384314
1.000000 0.741176 0.396078
0.000000 0.803922 0.349020
0.000000 0.803922 0.349020
0.000000 0.803922 0.349020
0.000000 0.803922 0.352941
0.000000 0.803922 0.352941
0.019608 0.803922 0.356863
0.192157 0.800000 0.356863
0.349020 0.800000 0.360784
0.466667 0.800000 0.364706
0.564706 0.800000 0.368627
0.658824 0.796078 0.372549
0.745098 0.796078 0.376471
0.819608 0.796078 0.380392
0.890196 0.792157 0.388235
0.952941 0.792157 0.400000
1.000000 0.792157 0.415686
0.000000 0.858824 0.372549
0.000000 0.858824 0.376471
0.000000 0.858824 0.376471
0.000000 0.858824 0.376471
0.007843 0.858824 0.376471
0.137255 0.858824 0.380392
0.290196 0.858824 0.380392
0.407843 0.854902 0.384314
0.509804 0.854902 0.388235
0.600000 0.854902 0.392157
0.678431 0.850980 0.396078
0.756863 0.850980 0.400000
0.827451 0.850980 0.403922
0.894118 0.850980 0.411765
0.956863 0.847059 0.419608
1.000000 0.850980 0.435294
0.000000 0.909804 0.403922
0.000000 0.909804 0.403922
0.000000 0.909804 0.403922
0.019608 0.909804 0.403922
0.172549 0.909804 0.407843
0.286275 0.905882 0.407843
0.388235 0.905882 0.407843
0.474510 0.905882 0.411765
0.560784 0.905882 0.415686
0.635294 0.901961 0.415686
0.709804 0.901961 0.419608
0.776471 0.901961 0.423529
0.839216 0.898039 0.427451
0.898039 0.898039 0.431373
0.956863 0.898039 0.439216
1.000000 0.898039 0.450980
0.176471 0.960784 0.431373
0.203922 0.960784 0.431373
0.243137 0.960784 0.431373
0.294118 0.960784 0.431373
0.352941 0.960784 0.435294
0.419608 0.956863 0.435294
0.482353 0.956863 0.435294
0.549020 0.956863 0.439216
0.615686 0.956863 0.439216
0.678431 0.952941 0.443137
0.741176 0.952941 0.447059
0.800000 0.952941 0.450980
0.854902 0.952941 0.458824
0.909804 0.952941 0.462745
0.960784 0.952941 0.466667
1.000000 0.952941 0.474510
0.411765 1.000000 0.462745
0.419608 1.000000 0.462745
0.435294 1.000000 0.462745
0.462745 1.000000 0.462745
0.498039 1.000000 0.466667
0.541176 1.000000 0.466667
0.584314 1.000000 0.466667
0.635294 1.000000 0.470588
0.682353 1.000000 0.474510
0.733333 1.000000 0.478431
0.784314 1.000000 0.482353
0.831373 0.996078 0.486275
0.882353 0.996078 0.494118
0.925490 0.996078 0.498039
0.972549 0.996078 0.505882
1.000000 1.000000 0.513725
0.000000 0.000000 0.180392
0.003922 0.003922 0.180392
0.003922 0.011765 0.184314
0.015686 0.027451 0.188235
0.066667 0.050980 0.192157
0.133333 0.074510 0.200000
0.203922 0.101961 0.203922
0.286275 0.121569 0.207843
0.376471 0.137255 0.215686
0.470588 0.152941 0.219608
0.564706 0.164706 0.227451
0.666667 0.172549 0.235294
0.764706 0.176471 0.247059
0.858824 0.184314 0.258824
0.945098 0.196078 0.270588
1.000000 0.215686 0.290196
0.000000 0.062745 0.184314
0.000000 0.066667 0.184314
0.003922 0.070588 0.188235
0.011765 0.082353 0.192157
0.058824 0.098039 0.196078
0.121569 0.117647 0.203922
0.200000 0.137255 0.207843
0.286275 0.152941 0.211765
0.376471 0.168627 0.215686
0.470588 0.180392 0.223529
0.564706 0.192157 0.231373
0.670588 0.196078 0.239216
0.764706 0.200000 0.247059
0.858824 0.207843 0.258824
0.945098 0.219608 0.274510
1.000000 0.235294 0.290196
0.000000 0.121569 0.192157
0.000000 0.125490 0.196078
0.003922 0.129412 0.196078
0.007843 0.137255 0.200000
0.039216 0.152941 0.203922
0.101961 0.172549 0.207843
0.188235 0.188235 0.211765
0.278431 0.200000 0.215686
0.372549 0.211765 0.219608
0.470588 0.223529 0.227451
0.568627 0.231373 0.235294
0.670588 0.235294 0.243137
0.768627 0.243137 0.250980
0.862745 0.247059 0.262745
0.945098 0.258824 0.278431
1.000000 0.274510 0.294118
0.000000 0.188235 0.207843
0.000000 0.188235 0.207843
0.000000 0.196078 0.211765
0.000000 0.203922 0.211765
0.003922 0.215686 0.215686
0.066667 0.231373 0.215686
0.172549 0.247059 0.219608
0.270588 0.258824 0.223529
0.372549 0.270588 0.231373
0.470588 0.278431 0.235294
0.568627 0.286275 0.243137
0.670588 0.290196 0.250980
0.768627 0.294118 0.258824
0.862745 0.298039 0.270588
0.945098 0.305882 0.286275
1.000000 0.317647 0.301961
0.000000 0.278431 0.219608
0.000000 0.282353 0.219608
0.000000 0.282353 0.219608
0.000000 0.290196 0.223529
0.000000 0.298039 0.223529
0.023529 0.305882 0.227451
0.141176 0.317647 0.231373
0.262745 0.329412 0.235294
0.368627 0.337255 0.239216
0.470588 0.345098 0.247059
0.572549 0.349020 0.254902
0.674510 0.352941 0.262745
0.772549 0.356863 0.270588
0.862745 0.360784 0.282353
0.945098 0.368627 0.298039
1.000000 0.376471 0.313725
0.000000 0.368627 0.231373
0.000000 0.368627 0.235294
0.000000 0.368627 0.235294
0.000000 0.372549 0.235294
0.000000 0.380392 0.239216
0.003922 0.388235 0.243137
0.090196 0.392157 0.247059
0.247059 0.400000 0.250980
0.364706 0.407843 0.254902
0.474510 0.411765 0.262745
0.576471 0.415686 0.270588
0.678431 0.419608 0.278431
0.772549 0.423529 0.286275
0.866667 0.427451 0.298039
0.945098 0.431373 0.309804
1.000000 0.439216 0.325490
0.000000 0.450980 0.250980
0.000000 0.450980 0.250980
0.000000 0.454902 0.250980
0.000000 0.454902 0.254902
0.000000 0.458824 0.254902
0.000000 0.462745 0.258824
0.047059 0.470588 0.262745
0.231373 0.474510 0.266667
0.360784 0.478431 0.274510
0.478431 0.482353 0.278431
0.580392 0.482353 0.286275
0.682353 0.486275 0.294118
0.776471 0.486275 0.301961
0.866667 0.490196 0.313725
0.945098 0.494118 0.325490
1.000000 0.498039 0.341176
0.000000 0.533333 0.270588
0.000000 0.533333 0.270588
0.000000 0.533333 0.270588
0.000000 0.533333 0.274510
0.000000 0.537255 0.274510
0.000000 0.541176 0.278431
0.039216 0.541176 0.282353
0.223529 0.545098 0.286275
0.364706 0.549020 0.290196
0.486275 0.549020 0.298039
0.588235 0.552941 0.301961
0.690196 0.552941 0.309804
0.784314 0.552941 0.317647
0.870588 0.556863 0.329412
0.945098 0.556863 0.341176
1.000000 0.560784 0.352941
0.000000 0.607843 0.290196
0.000000 0.607843 0.294118
0.000000 0.607843 0.294118
0.000000 0.607843 0.294118
0.000000 0.607843 0.298039
0.000000 0.611765 0.298039
0.035294 0.611765 0.301961
0.227451 0.615686 0.305882
0.376471 0.615686 0.313725
0.494118 0.615686 0.317647
0.600000 0.615686 0.321569
0.698039 0.615686 0.329412
0.788235 0.615686 0.337255
0.874510 0.615686 0.345098
0.945098 0.619608 0.356863
1.000000 0.623529 0.372549
0.000000 0.678431 0.313725
0.000000 0.678431 0.313725
0.000000 0.678431 0.313725
0.000000 0.678431 0.317647
0.000000 0.678431 0.317647
0.000000 0.682353 0.321569
0.047059 0.682353 0.325490
0.250980 0.682353 0.329412
0.400000 0.682353 0.333333
0.513725 0.682353 0.337255
0.615686 0.682353 0.341176
0.713725 0.678431 0.349020
0.800000 0.678431 0.352941
0.878431 0.678431 0.364706
0.949020 0.678431 0.376471
1.000000 0.682353 0.388235
0.000000 0.741176 0.337255
0.000000 0.741176 0.337255
0.000000 0.741176 0.337255
0.000000 0.741176 0.337255
0.000000 0.741176 0.341176
0.000000 0.741176 0.341176
0.078431 0.741176 0.345098
0.294118 0.741176 0.349020
0.427451 0.741176 0.352941
0.537255 0.741176 0.356863
0.635294 0.741176 0.360784
0.725490 0.741176 0.364706
0.807843 0.737255 0.372549
0.882353 0.737255 0.380392
0.949020 0.737255 0.392157
1.000000 0.741176 0.403922
0.000000 0.803922 0.360784
0.000000 0.803922 0.360784
0.000000 0.803922 0.360784
0.000000 0.803922 0.360784
0.000000 0.803922 0.364706
0.019608 0.803922 0.364706
0.196078 0.800000 0.368627
0.349020 0.800000 0.368627
0.466667 0.800000 0.372549
0.568627 0.800000 0.376471
0.658824 0.796078 0.380392
0.745098 0.796078 0.388235
0.819608 0.796078 0.392157
0.890196 0.792157 0.396078
0.952941 0.792157 0.407843
1.000000 0.796078 0.423529
0.000000 0.858824 0.384314
0.000000 0.858824 0.384314
0.000000 0.858824 0.384314
0.000000 0.858824 0.384314
0.007843 0.858824 0.388235
0.141176 0.858824 0.388235
0.294118 0.854902 0.392157
0.411765 0.854902 0.392157
0.509804 0.854902 0.396078
0.600000 0.854902 0.400000
0.682353 0.850980 0.403922
0.756863 0.850980 0.407843
0.827451 0.850980 0.411765
0.894118 0.850980 0.415686
0.956863 0.847059 0.427451
1.000000 0.850980 0.439216
0.000000 0.909804 0.411765
0.000000 0.909804 0.411765
0.003922 0.909804 0.411765
0.027451 0.909804 0.411765
0.180392 0.909804 0.411765
0.290196 0.905882 0.411765
0.388235 0.905882 0.415686
0.478431 0.905882 0.415686
0.560784 0.905882 0.419608
0.639216 0.901961 0.423529
0.709804 0.901961 0.427451
0.780392 0.901961 0.427451
0.839216 0.898039 0.431373
0.898039 0.898039 0.439216
0.956863 0.898039 0.447059
1.000000 0.898039 0.454902
0.184314 0.960784 0.435294
0.207843 0.960784 0.435294
0.247059 0.960784 0.435294
0.298039 0.960784 0.439216
0.356863 0.960784 0.439216
0.423529 0.956863 0.439216
0.486275 0.956863 0.439216
0.552941 0.956863 0.443137
0.619608 0.956863 0.447059
0.682353 0.952941 0.447059
0.741176 0.952941 0.450980
0.800000 0.952941 0.454902
0.854902 0.952941 0.462745
0.909804 0.952941 0.466667
0.964706 0.952941 0.470588
1.000000 0.952941 0.478431
0.415686 1.000000 0.466667
0.423529 1.000000 0.466667
0.439216 1.000000 0.466667
0.466667 1.000000 0.466667
0.498039 1.000000 0.466667
0.541176 1.000000 0.470588
0.584314 1.000000 0.470588
0.635294 1.000000 0.474510
0.682353 1.000000 0.478431
0.737255 1.000000 0.482353
0.784314 1.000000 0.486275
0.831373 0.996078 0.490196
0.882353 0.996078 0.494118
0.925490 0.996078 0.501961
0.972549 0.996078 0.509804
1.000000 1.000000 0.517647
0.000000 0.003922 0.231373
0.000000 0.007843 0.231373
0.003922 0.011765 0.231373
0.011765 0.027451 0.235294
0.043137 0.050980 0.243137
0.117647 0.070588 0.250980
0.196078 0.094118 0.254902
0.282353 0.113725 0.258824
0.376471 0.129412 0.266667
0.470588 0.141176 0.270588
0.564706 0.152941 0.274510
0.666667 0.164706 0.282353
0.764706 0.172549 0.290196
0.858824 0.180392 0.301961
0.945098 0.196078 0.313725
1.000000 0.215686 0.325490
0.000000 0.062745 0.235294
0.000000 0.066667 0.235294
0.003922 0.074510 0.235294
0.007843 0.082353 0.239216
0.039216 0.098039 0.247059
0.105882 0.113725 0.250980
0.192157 0.129412 0.258824
0.282353 0.145098 0.262745
0.372549 0.160784 0.266667
0.470588 0.172549 0.270588
0.564706 0.184314 0.278431
0.670588 0.192157 0.286275
0.764706 0.200000 0.294118
0.858824 0.207843 0.301961
0.945098 0.219608 0.313725
1.000000 0.239216 0.329412
0.000000 0.125490 0.239216
0.000000 0.125490 0.243137
0.000000 0.133333 0.243137
0.003922 0.141176 0.247059
0.023529 0.152941 0.250980
0.086275 0.168627 0.254902
0.180392 0.184314 0.258824
0.274510 0.196078 0.266667
0.372549 0.207843 0.270588
0.470588 0.215686 0.274510
0.568627 0.227451 0.282353
0.670588 0.231373 0.290196
0.768627 0.239216 0.298039
0.862745 0.247059 0.305882
0.945098 0.258824 0.317647
1.000000 0.274510 0.329412
0.000000 0.188235 0.250980
0.000000 0.192157 0.250980
0.000000 0.196078 0.254902
0.000000 0.203922 0.254902
0.000000 0.215686 0.258824
0.047059 0.231373 0.262745
0.164706 0.243137 0.266667
0.270588 0.254902 0.270588
0.368627 0.266667 0.274510
0.470588 0.274510 0.282353
0.568627 0.282353 0.286275
0.670588 0.286275 0.294118
0.768627 0.294118 0.301961
0.862745 0.298039 0.309804
0.945098 0.305882 0.321569
1.000000 0.317647 0.337255
0.000000 0.278431 0.262745
0.000000 0.282353 0.262745
0.000000 0.286275 0.266667
0.000000 0.290196 0.266667
0.000000 0.298039 0.270588
0.019608 0.305882 0.270588
0.129412 0.317647 0.274510
0.258824 0.325490 0.278431
0.364706 0.333333 0.282353
0.470588 0.341176 0.290196
0.572549 0.345098 0.294118
0.674510 0.352941 0.301961
0.772549 0.356863 0.309804
0.862745 0.360784 0.317647
0.945098 0.368627 0.329412
1.000000 0.376471 0.345098
0.000000 0.368627 0.278431
0.000000 0.368627 0.278431
0.000000 0.372549 0.278431
0.000000 0.376471 0.278431
0.000000 0.380392 0.282353
0.003922 0.388235 0.282353
0.078431 0.392157 0.286275
0.239216 0.400000 0.290196
0.360784 0.407843 0.294118
0.474510 0.411765 0.301961
0.576471 0.415686 0.305882
0.678431 0.419608 0.313725
0.772549 0.423529 0.321569
0.862745 0.427451 0.329412
0.945098 0.431373 0.341176
1.000000 0.439216 0.352941
0.000000 0.450980 0.290196
0.000000 0.450980 0.290196
0.000000 0.454902 0.294118
0.000000 0.454902 0.294118
0.000000 0.458824 0.294118
0.000000 0.462745 0.298039
0.043137 0.470588 0.301961
0.223529 0.474510 0.305882
0.360784 0.478431 0.309804
0.474510 0.482353 0.313725
0.580392 0.482353 0.317647
0.682353 0.486275 0.325490
0.776471 0.486275 0.333333
0.866667 0.490196 0.341176
0.945098 0.494118 0.352941
1.000000 0.501961 0.364706
0.000000 0.533333 0.305882
0.000000 0.533333 0.305882
0.000000 0.533333 0.309804
0.000000 0.533333 0.309804
0.000000 0.537255 0.309804
0.000000 0.541176 0.313725
0.035294 0.541176 0.317647
0.215686 0.545098 0.321569
0.364706 0.549020 0.325490
0.482353 0.549020 0.329412
0.588235 0.552941 0.333333
0.690196 0.552941 0.337255
0.784314 0.552941 0.345098
0.870588 0.556863 0.352941
0.945098 0.556863 0.364706
1.000000 0.560784 0.376471
0.000000 0.607843 0.325490
0.000000 0.607843 0.325490
0.000000 0.607843 0.325490
0.000000 0.607843 0.325490
0.000000 0.607843 0.329412
0.000000 0.611765 0.329412
0.035294 0.611765 0.333333
0.223529 0.615686 0.337255
0.376471 0.615686 0.341176
0.494118 0.615686 0.345098
0.600000 0.615686 0.349020
0.698039 0.615686 0.352941
0.788235 0.615686 0.360784
0.874510 0.615686 0.368627
0.945098 0.619608 0.376471
1.000000 0.623529 0.392157
0.000000 0.678431 0.341176
0.000000 0.678431 0.341176
0.000000 0.678431 0.341176
0.000000 0.678431 0.345098
0.000000 0.678431 0.345098
0.000000 0.682353 0.349020
0.047059 0.682353 0.349020
0.250980 0.682353 0.352941
0.400000 0.682353 0.356863
0.513725 0.682353 0.360784
0.615686 0.682353 0.364706
0.713725 0.678431 0.368627
0.800000 0.678431 0.376471
0.878431 0.678431 0.384314
0.949020 0.678431 0.396078
1.000000 0.682353 0.407843
0.000000 0.741176 0.360784
0.000000 0.741176 0.360784
0.000000 0.741176 0.360784
0.000000 0.741176 0.360784
0.000000 0.741176 0.364706
0.000000 0.741176 0.364706
0.082353 0.741176 0.368627
0.294118 0.741176 0.368627
0.427451 0.741176 0.372549
0.537255 0.741176 0.376471
0.635294 0.741176 0.380392
0.725490 0.741176 0.384314
0.807843 0.737255 0.392157
0.882353 0.737255 0.400000
0.949020 0.737255 0.407843
1.000000 0.741176 0.419608
0.000000 0.803922 0.380392
0.000000 0.803922 0.380392
0.000000 0.803922 0.380392
0.000000 0.803922 0.380392
0.000000 0.803922 0.384314
0.023529 0.800000 0.384314
0.196078 0.800000 0.388235
0.349020 0.800000 0.388235
0.466667 0.800000 0.392157
0.568627 0.800000 0.392157
0.658824 0.796078 0.396078
0.745098 0.796078 0.403922
0.819608 0.796078 0.407843
0.890196 0.792157 0.415686
0.952941 0.792157 0.423529
1.000000 0.796078 0.435294
0.000000 0.858824 0.400000
0.000000 0.858824 0.400000
0.000000 0.858824 0.400000
0.000000 0.858824 0.400000
0.011765 0.858824 0.403922
0.149020 0.858824 0.403922
0.298039 0.854902 0.403922
0.411765 0.854902 0.407843
0.513725 0.854902 0.411765
0.600000 0.854902 0.411765
0.682353 0.850980 0.415686
0.760784 0.850980 0.419608
0.827451 0.850980 0.423529
0.894118 0.850980 0.427451
0.956863 0.847059 0.439216
1.000000 0.850980 0.450980
0.000000 0.909804 0.419608
0.003922 0.909804 0.419608
0.015686 0.909804 0.423529
0.047059 0.909804 0.423529
0.188235 0.909804 0.423529
0.298039 0.905882 0.423529
0.396078 0.905882 0.427451
0.482353 0.905882 0.427451
0.564706 0.905882 0.431373
0.639216 0.901961 0.431373
0.709804 0.901961 0.435294
0.780392 0.901961 0.439216
0.839216 0.898039 0.443137
0.901961 0.898039 0.447059
0.956863 0.898039 0.454902
1.000000 0.898039 0.462745
0.196078 0.960784 0.443137
0.223529 0.960784 0.443137
0.258824 0.960784 0.447059
0.305882 0.960784 0.447059
0.364706 0.960784 0.447059
0.427451 0.956863 0.447059
0.494118 0.956863 0.450980
0.556863 0.956863 0.450980
0.619608 0.956863 0.454902
0.686275 0.952941 0.458824
0.745098 0.952941 0.462745
0.803922 0.952941 0.462745
0.854902 0.952941 0.466667
0.909804 0.952941 0.474510
0.964706 0.952941 0.478431
1.000000 0.952941 0.482353
0.419608 1.000000 0.474510
0.431373 1.000000 0.474510
0.447059 1.000000 0.474510
0.470588 1.000000 0.474510
0.505882 1.000000 0.474510
0.545098 1.000000 0.478431
0.592157 1.000000 0.478431
0.639216 1.000000 0.482353
0.686275 1.000000 0.482353
0.737255 1.000000 0.486275
0.784314 1.000000 0.490196
0.835294 0.996078 0.494118
0.882353 0.996078 0.501961
0.925490 0.996078 0.505882
0.976471 0.996078 0.513725
1.000000 1.000000 0.521569
0.000000 0.003922 0.294118
0.000000 0.007843 0.294118
0.000000 0.015686 0.298039
0.000000 0.031373 0.298039
0.007843 0.047059 0.305882
0.086275 0.062745 0.317647
0.180392 0.078431 0.321569
0.278431 0.094118 0.325490
0.372549 0.109804 0.329412
0.470588 0.125490 0.329412
0.568627 0.141176 0.337255
0.670588 0.152941 0.341176
0.764706 0.164706 0.345098
0.858824 0.176471 0.352941
0.945098 0.196078 0.364706
1.000000 0.215686 0.372549
0.000000 0.066667 0.298039
0.000000 0.070588 0.298039
0.000000 0.074510 0.298039
0.000000 0.086275 0.301961
0.003922 0.098039 0.309804
0.074510 0.109804 0.317647
0.176471 0.121569 0.321569
0.274510 0.133333 0.325490
0.372549 0.149020 0.329412
0.470588 0.160784 0.333333
0.568627 0.172549 0.337255
0.670588 0.184314 0.341176
0.768627 0.192157 0.349020
0.858824 0.203922 0.356863
0.945098 0.215686 0.364706
1.000000 0.239216 0.376471
0.000000 0.125490 0.301961
0.000000 0.129412 0.305882
0.000000 0.133333 0.305882
0.000000 0.141176 0.309804
0.003922 0.152941 0.313725
0.054902 0.164706 0.317647
0.168627 0.176471 0.321569
0.270588 0.188235 0.329412
0.368627 0.200000 0.329412
0.470588 0.211765 0.333333
0.568627 0.219608 0.341176
0.670588 0.227451 0.345098
0.768627 0.235294 0.349020
0.858824 0.243137 0.356863
0.945098 0.254902 0.368627
1.000000 0.274510 0.376471
0.000000 0.192157 0.313725
0.000000 0.192157 0.313725
0.000000 0.200000 0.313725
0.000000 0.203922 0.317647
0.000000 0.215686 0.321569
0.019608 0.227451 0.321569
0.149020 0.239216 0.325490
0.266667 0.250980 0.329412
0.368627 0.262745 0.333333
0.470588 0.270588 0.337255
0.568627 0.278431 0.345098
0.670588 0.282353 0.349020
0.768627 0.290196 0.352941
0.862745 0.298039 0.360784
0.945098 0.305882 0.372549
1.000000 0.321569 0.380392
0.000000 0.282353 0.325490
0.000000 0.282353 0.325490
0.000000 0.286275 0.325490
0.000000 0.290196 0.325490
0.000000 0.298039 0.329412
0.007843 0.305882 0.329412
0.109804 0.317647 0.333333
0.250980 0.325490 0.337255
0.364706 0.333333 0.341176
0.470588 0.341176 0.345098
0.572549 0.345098 0.349020
0.674510 0.349020 0.352941
0.772549 0.352941 0.360784
0.862745 0.360784 0.368627
0.945098 0.368627 0.376471
1.000000 0.376471 0.384314
0.000000 0.368627 0.333333
0.000000 0.368627 0.333333
0.000000 0.372549 0.333333
0.000000 0.376471 0.337255
0.000000 0.380392 0.337255
0.000000 0.388235 0.341176
0.058824 0.392157 0.341176
0.231373 0.400000 0.345098
0.356863 0.407843 0.349020
0.470588 0.411765 0.352941
0.572549 0.415686 0.356863
0.678431 0.415686 0.360784
0.772549 0.423529 0.368627
0.862745 0.427451 0.372549
0.945098 0.431373 0.380392
1.000000 0.439216 0.392157
0.000000 0.450980 0.345098
0.000000 0.454902 0.345098
0.000000 0.454902 0.345098
0.000000 0.458824 0.345098
0.000000 0.462745 0.349020
0.000000 0.466667 0.349020
0.039216 0.470588 0.352941
0.215686 0.474510 0.356863
0.356863 0.478431 0.360784
0.474510 0.482353 0.360784
0.580392 0.482353 0.364706
0.682353 0.486275 0.368627
0.776471 0.486275 0.376471
0.866667 0.490196 0.380392
0.945098 0.494118 0.388235
1.000000 0.501961 0.400000
0.000000 0.533333 0.356863
0.000000 0.533333 0.356863
0.000000 0.533333 0.356863
0.000000 0.537255 0.356863
0.000000 0.537255 0.360784
0.000000 0.541176 0.360784
