luts/process.cube
TITLE "process"
LUT_3D_SIZE 6
DOMAIN_MIN 0.0 0.0 0.0
DOMAIN_MAX 1.0 1.0 1.0
0.000000 0.000000 0.145098
0.019608 0.027451 0.152941
0.207843 0.105882 0.168627
0.470588 0.156863 0.192157
0.764706 0.180392 0.219608
1.000000 0.215686 0.266667
0.000000 0.188235 0.172549
0.000000 0.203922 0.180392
0.176471 0.247059 0.188235
0.470588 0.278431 0.207843
0.768627 0.294118 0.235294
1.000000 0.317647 0.282353
0.000000 0.450980 0.223529
0.000000 0.454902 0.227451
0.050980 0.466667 0.239216
0.478431 0.482353 0.258824
0.776471 0.486275 0.282353
1.000000 0.498039 0.325490
0.000000 0.678431 0.298039
0.000000 0.678431 0.301961
0.047059 0.682353 0.309804
0.513725 0.682353 0.321569
0.800000 0.678431 0.345098
1.000000 0.682353 0.380392
0.000000 0.858824 0.372549
0.000000 0.858824 0.376471
0.290196 0.858824 0.380392
0.600000 0.854902 0.392157
0.827451 0.850980 0.403922
1.000000 0.850980 0.435294
0.411765 1.000000 0.462745
0.462745 1.000000 0.462745
0.584314 1.000000 0.466667
0.733333 1.000000 0.478431
0.882353 0.996078 0.494118
1.000000 1.000000 0.513725
0.000000 0.003922 0.294118
0.000000 0.031373 0.298039
0.180392 0.078431 0.321569
0.470588 0.125490 0.329412
0.764706 0.164706 0.345098
1.000000 0.215686 0.372549
0.000000 0.192157 0.313725
0.000000 0.203922 0.317647
0.149020 0.239216 0.325490
0.470588 0.270588 0.337255
0.768627 0.290196 0.352941
1.000000 0.321569 0.380392
0.000000 0.450980 0.345098
0.000000 0.458824 0.345098
0.039216 0.470588 0.352941
0.474510 0.482353 0.360784
0.776471 0.486275 0.376471
1.000000 0.501961 0.400000
0.000000 0.678431 0.380392
0.000000 0.678431 0.380392
0.047059 0.682353 0.388235
0.513725 0.682353 0.392157
0.800000 0.678431 0.407843
1.000000 0.682353 0.431373
0.000000 0.858824 0.423529
0.000000 0.858824 0.423529
0.305882 0.854902 0.427451
0.603922 0.854902 0.431373
0.831373 0.850980 0.443137
1.000000 0.850980 0.462745
0.431373 1.000000 0.482353
0.482353 1.000000 0.486275
0.596078 1.000000 0.490196
0.741176 1.000000 0.498039
0.882353 0.996078 0.509804
1.000000 1.000000 0.529412
0.000000 0.019608 0.490196
0.000000 0.039216 0.490196
0.125490 0.082353 0.498039
0.466667 0.129412 0.505882
0.768627 0.160784 0.509804
1.000000 0.219608 0.513725
0.000000 0.203922 0.498039
0.000000 0.215686 0.498039
0.074510 0.243137 0.501961
0.470588 0.270588 0.505882
0.772549 0.286275 0.509804
1.000000 0.325490 0.513725
0.000000 0.458824 0.501961
0.000000 0.462745 0.501961
0.031373 0.470588 0.505882
0.478431 0.482353 0.505882
0.784314 0.486275 0.509804
1.000000 0.505882 0.517647
0.000000 0.678431 0.505882
0.000000 0.678431 0.505882
0.058824 0.682353 0.505882
0.529412 0.682353 0.505882
0.803922 0.678431 0.509804
1.000000 0.686275 0.517647
0.000000 0.858824 0.509804
0.007843 0.858824 0.509804
0.356863 0.854902 0.509804
0.623529 0.850980 0.513725
0.835294 0.850980 0.517647
1.000000 0.850980 0.529412
0.474510 1.000000 0.533333
0.517647 1.000000 0.533333
0.619608 1.000000 0.537255
0.756863 0.996078 0.541176
0.890196 0.996078 0.552941
1.000000 1.000000 0.568627
0.000000 0.043137 0.615686
0.000000 0.058824 0.615686
0.168627 0.094118 0.615686
0.501961 0.133333 0.615686
0.792157 0.164706 0.615686
1.000000 0.235294 0.615686
0.000000 0.223529 0.615686
0.000000 0.231373 0.615686
0.137255 0.250980 0.615686
0.505882 0.274510 0.615686
0.796078 0.290196 0.615686
1.000000 0.333333 0.611765
0.000000 0.466667 0.611765
0.000000 0.466667 0.611765
0.078431 0.474510 0.611765
0.517647 0.482353 0.611765
0.803922 0.490196 0.607843
1.000000 0.513725 0.607843
0.000000 0.682353 0.603922
0.000000 0.682353 0.603922
0.196078 0.682353 0.600000
0.568627 0.682353 0.600000
0.823529 0.682353 0.600000
1.000000 0.690196 0.603922
0.000000 0.858824 0.592157
0.129412 0.854902 0.592157
0.427451 0.854902 0.592157
0.658824 0.850980 0.592157
0.854902 0.850980 0.596078
1.000000 0.850980 0.603922
0.521569 1.000000 0.603922
0.556863 1.000000 0.603922
0.650980 1.000000 0.603922
0.772549 0.996078 0.607843
0.898039 0.996078 0.615686
1.000000 1.000000 0.631373
0.000000 0.074510 0.721569
0.000000 0.082353 0.721569
0.282353 0.109804 0.721569
0.568627 0.145098 0.721569
0.831373 0.180392 0.717647
1.000000 0.250980 0.713725
0.000000 0.243137 0.721569
0.000000 0.247059 0.717647
0.270588 0.262745 0.717647
0.572549 0.282353 0.717647
0.831373 0.298039 0.717647
1.000000 0.345098 0.713725
0.000000 0.474510 0.713725
0.000000 0.474510 0.713725
0.262745 0.482353 0.713725
0.584314 0.486275 0.713725
0.835294 0.494118 0.709804
1.000000 0.517647 0.709804
0.000000 0.682353 0.705882
0.003922 0.682353 0.705882
0.345098 0.682353 0.705882
0.623529 0.682353 0.701961
0.850980 0.682353 0.701961
1.000000 0.694118 0.701961
0.215686 0.854902 0.698039
0.317647 0.854902 0.698039
0.505882 0.850980 0.698039
0.698039 0.850980 0.698039
0.870588 0.850980 0.698039
1.000000 0.854902 0.701961
0.568627 1.000000 0.701961
0.596078 1.000000 0.705882
0.674510 1.000000 0.705882
0.788235 0.996078 0.705882
0.909804 0.996078 0.713725
1.000000 1.000000 0.721569
0.000000 0.117647 0.866667
0.050980 0.125490 0.866667
0.376471 0.149020 0.866667
0.627451 0.184314 0.866667
0.858824 0.231373 0.862745
1.000000 0.305882 0.862745
0.000000 0.266667 0.866667
0.019608 0.270588 0.866667
0.372549 0.286275 0.866667
0.631373 0.301961 0.862745
0.858824 0.329412 0.862745
1.000000 0.384314 0.858824
0.000000 0.482353 0.862745
0.019608 0.482353 0.862745
0.388235 0.486275 0.862745
0.639216 0.498039 0.858824
0.862745 0.509804 0.858824
1.000000 0.541176 0.858824
0.062745 0.682353 0.854902
0.231373 0.682353 0.854902
0.454902 0.682353 0.854902
0.678431 0.682353 0.854902
0.870588 0.690196 0.854902
1.000000 0.701961 0.854902
0.423529 0.854902 0.854902
0.470588 0.854902 0.850980
0.592157 0.854902 0.850980
0.737255 0.850980 0.850980
0.886275 0.850980 0.850980
1.000000 0.854902 0.850980
0.631373 1.000000 0.854902
0.650980 1.000000 0.854902
0.713725 1.000000 0.854902
0.803922 1.000000 0.854902
0.913725 1.000000 0.854902
1.000000 1.000000 0.854902
