luts/Q1.cube
TITLE "Q1"
LUT_3D_SIZE 16
DOMAIN_MIN 0.0 0.0 0.0
DOMAIN_MAX 1.0 1.0 1.0
0.211765 0.211765 0.211765
0.211765 0.211765 0.211765
0.211765 0.211765 0.211765
0.219608 0.219608 0.219608
0.247059 0.247059 0.247059
0.290196 0.290196 0.290196
0.341176 0.341176 0.341176
0.396078 0.396078 0.396078
0.447059 0.447059 0.447059
0.494118 0.494118 0.494118
0.529412 0.529412 0.529412
0.564706 0.564706 0.564706
0.592157 0.592157 0.592157
0.619608 0.619608 0.619608
0.639216 0.639216 0.639216
0.658824 0.658824 0.658824
0.211765 0.211765 0.211765
0.211765 0.211765 0.211765
0.215686 0.215686 0.215686
0.223529 0.223529 0.223529
0.250980 0.250980 0.250980
0.298039 0.298039 0.298039
0.352941 0.352941 0.352941
0.411765 0.411765 0.411765
0.462745 0.462745 0.462745
0.505882 0.505882 0.505882
0.545098 0.545098 0.545098
0.580392 0.580392 0.580392
0.607843 0.607843 0.607843
0.635294 0.635294 0.635294
0.654902 0.654902 0.654902
0.674510 0.674510 0.674510
0.211765 0.211765 0.211765
0.211765 0.211765 0.211765
0.215686 0.215686 0.215686
0.231373 0.231373 0.231373
0.262745 0.262745 0.262745
0.313725 0.313725 0.313725
0.372549 0.372549 0.372549
0.431373 0.431373 0.431373
0.482353 0.482353 0.482353
0.529412 0.529412 0.529412
0.568627 0.568627 0.568627
0.600000 0.600000 0.600000
0.631373 0.631373 0.631373
0.654902 0.654902 0.654902
0.674510 0.674510 0.674510
0.694118 0.694118 0.694118
0.215686 0.215686 0.215686
0.215686 0.215686 0.215686
0.223529 0.223529 0.223529
0.239216 0.239216 0.239216
0.278431 0.278431 0.278431
0.337255 0.337255 0.337255
0.400000 0.400000 0.400000
0.462745 0.462745 0.462745
0.513725 0.513725 0.513725
0.560784 0.560784 0.560784
0.600000 0.600000 0.600000
0.631373 0.631373 0.631373
0.658824 0.658824 0.658824
0.682353 0.682353 0.682353
0.701961 0.701961 0.701961
0.717647 0.717647 0.717647
0.219608 0.219608 0.219608
0.223529 0.223529 0.223529
0.231373 0.231373 0.231373
0.254902 0.254902 0.254902
0.301961 0.301961 0.301961
0.368627 0.368627 0.368627
0.435294 0.435294 0.435294
0.498039 0.498039 0.498039
0.549020 0.549020 0.549020
0.596078 0.596078 0.596078
0.631373 0.631373 0.631373
0.662745 0.662745 0.662745
0.690196 0.690196 0.690196
0.709804 0.709804 0.709804
0.729412 0.729412 0.729412
0.745098 0.745098 0.745098
0.227451 0.227451 0.227451
0.231373 0.231373 0.231373
0.243137 0.243137 0.243137
0.274510 0.274510 0.274510
0.329412 0.329412 0.329412
0.400000 0.400000 0.400000
0.470588 0.470588 0.470588
0.533333 0.533333 0.533333
0.584314 0.584314 0.584314
0.631373 0.631373 0.631373
0.666667 0.666667 0.666667
0.694118 0.694118 0.694118
0.717647 0.717647 0.717647
0.737255 0.737255 0.737255
0.756863 0.756863 0.756863
0.768627 0.768627 0.768627
0.239216 0.239216 0.239216
0.243137 0.243137 0.243137
0.258824 0.258824 0.258824
0.294118 0.294118 0.294118
0.356863 0.356863 0.356863
0.431373 0.431373 0.431373
0.501961 0.501961 0.501961
0.564706 0.564706 0.564706
0.619608 0.619608 0.619608
0.658824 0.658824 0.658824
0.694118 0.694118 0.694118
0.721569 0.721569 0.721569
0.745098 0.745098 0.745098
0.764706 0.764706 0.764706
0.780392 0.780392 0.780392
0.792157 0.792157 0.792157
0.250980 0.250980 0.250980
0.254902 0.254902 0.254902
0.274510 0.274510 0.274510
0.317647 0.317647 0.317647
0.384314 0.384314 0.384314
0.458824 0.458824 0.458824
0.533333 0.533333 0.533333
0.596078 0.596078 0.596078
0.647059 0.647059 0.647059
0.686275 0.686275 0.686275
0.717647 0.717647 0.717647
0.745098 0.745098 0.745098
0.764706 0.764706 0.764706
0.784314 0.784314 0.784314
0.800000 0.800000 0.800000
0.811765 0.811765 0.811765
0.266667 0.266667 0.266667
0.270588 0.270588 0.270588
0.290196 0.290196 0.290196
0.337255 0.337255 0.337255
0.407843 0.407843 0.407843
0.486275 0.486275 0.486275
0.560784 0.560784 0.560784
0.623529 0.623529 0.623529
0.670588 0.670588 0.670588
0.709804 0.709804 0.709804
0.741176 0.741176 0.741176
0.764706 0.764706 0.764706
0.784314 0.784314 0.784314
0.800000 0.800000 0.800000
0.815686 0.815686 0.815686
0.827451 0.827451 0.827451
0.282353 0.282353 0.282353
0.286275 0.286275 0.286275
0.309804 0.309804 0.309804
0.356863 0.356863 0.356863
0.431373 0.431373 0.431373
0.513725 0.513725 0.513725
0.588235 0.588235 0.588235
0.647059 0.647059 0.647059
0.694118 0.694118 0.694118
0.729412 0.729412 0.729412
0.760784 0.760784 0.760784
0.780392 0.780392 0.780392
0.800000 0.800000 0.800000
0.815686 0.815686 0.815686
0.831373 0.831373 0.831373
0.843137 0.843137 0.843137
0.294118 0.294118 0.294118
0.301961 0.301961 0.301961
0.325490 0.325490 0.325490
0.380392 0.380392 0.380392
0.454902 0.454902 0.454902
0.537255 0.537255 0.537255
0.607843 0.607843 0.607843
0.666667 0.666667 0.666667
0.713725 0.713725 0.713725
0.749020 0.749020 0.749020
0.776471 0.776471 0.776471
0.796078 0.796078 0.796078
0.815686 0.815686 0.815686
0.831373 0.831373 0.831373
0.843137 0.843137 0.843137
0.854902 0.854902 0.854902
0.309804 0.309804 0.309804
0.317647 0.317647 0.317647
0.341176 0.341176 0.341176
0.400000 0.400000 0.400000
0.478431 0.478431 0.478431
0.560784 0.560784 0.560784
0.631373 0.631373 0.631373
0.686275 0.686275 0.686275
0.729412 0.729412 0.729412
0.764706 0.764706 0.764706
0.788235 0.788235 0.788235
0.811765 0.811765 0.811765
0.827451 0.827451 0.827451
0.843137 0.843137 0.843137
0.854902 0.854902 0.854902
0.866667 0.866667 0.866667
0.325490 0.325490 0.325490
0.333333 0.333333 0.333333
0.360784 0.360784 0.360784
0.419608 0.419608 0.419608
0.498039 0.498039 0.498039
0.580392 0.580392 0.580392
0.650980 0.650980 0.650980
0.705882 0.705882 0.705882
0.745098 0.745098 0.745098
0.776471 0.776471 0.776471
0.803922 0.803922 0.803922
0.823529 0.823529 0.823529
0.839216 0.839216 0.839216
0.854902 0.854902 0.854902
0.866667 0.866667 0.866667
0.882353 0.882353 0.882353
0.341176 0.341176 0.341176
0.349020 0.349020 0.349020
0.376471 0.376471 0.376471
0.435294 0.435294 0.435294
0.517647 0.517647 0.517647
0.600000 0.600000 0.600000
0.666667 0.666667 0.666667
0.721569 0.721569 0.721569
0.760784 0.760784 0.760784
0.792157 0.792157 0.792157
0.815686 0.815686 0.815686
0.835294 0.835294 0.835294
0.850980 0.850980 0.850980
0.866667 0.866667 0.866667
0.878431 0.878431 0.878431
0.894118 0.894118 0.894118
0.356863 0.356863 0.356863
0.364706 0.364706 0.364706
0.396078 0.396078 0.396078
0.454902 0.454902 0.454902
0.537255 0.537255 0.537255
0.615686 0.615686 0.615686
0.682353 0.682353 0.682353
0.733333 0.733333 0.733333
0.772549 0.772549 0.772549
0.803922 0.803922 0.803922
0.827451 0.827451 0.827451
0.847059 0.847059 0.847059
0.862745 0.862745 0.862745
0.878431 0.878431 0.878431
0.890196 0.890196 0.890196
0.905882 0.905882 0.905882
0.372549 0.372549 0.372549
0.380392 0.380392 0.380392
0.411765 0.411765 0.411765
0.474510 0.474510 0.474510
0.556863 0.556863 0.556863
0.635294 0.635294 0.635294
0.698039 0.698039 0.698039
0.749020 0.749020 0.749020
0.784314 0.784314 0.784314
0.815686 0.815686 0.815686
0.835294 0.835294 0.835294
0.854902 0.854902 0.854902
0.874510 0.874510 0.874510
0.890196 0.890196 0.890196
0.901961 0.901961 0.901961
0.917647 0.917647 0.917647
0.211765 0.211765 0.211765
0.211765 0.211765 0.211765
0.211765 0.211765 0.211765
0.223529 0.223529 0.223529
0.247059 0.247059 0.247059
0.290196 0.290196 0.290196
0.345098 0.345098 0.345098
0.400000 0.400000 0.400000
0.450980 0.450980 0.450980
0.494118 0.494118 0.494118
0.533333 0.533333 0.533333
0.568627 0.568627 0.568627
0.596078 0.596078 0.596078
0.623529 0.623529 0.623529
0.643137 0.643137 0.643137
0.662745 0.662745 0.662745
0.211765 0.211765 0.211765
0.211765 0.211765 0.211765
0.215686 0.215686 0.215686
0.223529 0.223529 0.223529
0.254902 0.254902 0.254902
0.301961 0.301961 0.301961
0.356863 0.356863 0.356863
0.411765 0.411765 0.411765
0.462745 0.462745 0.462745
0.509804 0.509804 0.509804
0.549020 0.549020 0.549020
0.584314 0.584314 0.584314
0.611765 0.611765 0.611765
0.635294 0.635294 0.635294
0.658824 0.658824 0.658824
0.674510 0.674510 0.674510
0.211765 0.211765 0.211765
0.211765 0.211765 0.211765
0.215686 0.215686 0.215686
0.231373 0.231373 0.231373
0.262745 0.262745 0.262745
0.317647 0.317647 0.317647
0.376471 0.376471 0.376471
0.435294 0.435294 0.435294
0.486275 0.486275 0.486275
0.533333 0.533333 0.533333
0.572549 0.572549 0.572549
0.603922 0.603922 0.603922
0.631373 0.631373 0.631373
0.654902 0.654902 0.654902
0.678431 0.678431 0.678431
0.694118 0.694118 0.694118
0.215686 0.215686 0.215686
0.215686 0.215686 0.215686
0.223529 0.223529 0.223529
0.243137 0.243137 0.243137
0.282353 0.282353 0.282353
0.341176 0.341176 0.341176
0.403922 0.403922 0.403922
0.462745 0.462745 0.462745
0.517647 0.517647 0.517647
0.560784 0.560784 0.560784
0.600000 0.600000 0.600000
0.631373 0.631373 0.631373
0.658824 0.658824 0.658824
0.682353 0.682353 0.682353
0.701961 0.701961 0.701961
0.721569 0.721569 0.721569
0.219608 0.219608 0.219608
0.223529 0.223529 0.223529
0.231373 0.231373 0.231373
0.254902 0.254902 0.254902
0.305882 0.305882 0.305882
0.368627 0.368627 0.368627
0.435294 0.435294 0.435294
0.498039 0.498039 0.498039
0.552941 0.552941 0.552941
0.596078 0.596078 0.596078
0.635294 0.635294 0.635294
0.666667 0.666667 0.666667
0.690196 0.690196 0.690196
0.713725 0.713725 0.713725
0.729412 0.729412 0.729412
0.745098 0.745098 0.745098
0.231373 0.231373 0.231373
0.231373 0.231373 0.231373
0.243137 0.243137 0.243137
0.274510 0.274510 0.274510
0.329412 0.329412 0.329412
0.400000 0.400000 0.400000
0.470588 0.470588 0.470588
0.537255 0.537255 0.537255
0.588235 0.588235 0.588235
0.631373 0.631373 0.631373
0.666667 0.666667 0.666667
0.698039 0.698039 0.698039
0.721569 0.721569 0.721569
0.741176 0.741176 0.741176
0.756863 0.756863 0.756863
0.772549 0.772549 0.772549
0.239216 0.239216 0.239216
0.243137 0.243137 0.243137
0.258824 0.258824 0.258824
0.298039 0.298039 0.298039
0.356863 0.356863 0.356863
0.431373 0.431373 0.431373
0.505882 0.505882 0.505882
0.568627 0.568627 0.568627
0.619608 0.619608 0.619608
0.662745 0.662745 0.662745
0.698039 0.698039 0.698039
0.725490 0.725490 0.725490
0.745098 0.745098 0.745098
0.764706 0.764706 0.764706
0.780392 0.780392 0.780392
0.796078 0.796078 0.796078
0.254902 0.254902 0.254902
0.258824 0.258824 0.258824
0.274510 0.274510 0.274510
0.317647 0.317647 0.317647
0.384314 0.384314 0.384314
0.462745 0.462745 0.462745
0.537255 0.537255 0.537255
0.600000 0.600000 0.600000
0.650980 0.650980 0.650980
0.690196 0.690196 0.690196
0.721569 0.721569 0.721569
0.745098 0.745098 0.745098
0.768627 0.768627 0.768627
0.784314 0.784314 0.784314
0.800000 0.800000 0.800000
0.811765 0.811765 0.811765
0.266667 0.266667 0.266667
0.274510 0.274510 0.274510
0.294118 0.294118 0.294118
0.341176 0.341176 0.341176
0.411765 0.411765 0.411765
0.490196 0.490196 0.490196
0.564706 0.564706 0.564706
0.623529 0.623529 0.623529
0.674510 0.674510 0.674510
0.713725 0.713725 0.713725
0.741176 0.741176 0.741176
0.764706 0.764706 0.764706
0.784314 0.784314 0.784314
0.803922 0.803922 0.803922
0.815686 0.815686 0.815686
0.827451 0.827451 0.827451
0.282353 0.282353 0.282353
0.286275 0.286275 0.286275
0.309804 0.309804 0.309804
0.360784 0.360784 0.360784
0.435294 0.435294 0.435294
0.517647 0.517647 0.517647
0.588235 0.588235 0.588235
0.647059 0.647059 0.647059
0.694118 0.694118 0.694118
0.733333 0.733333 0.733333
0.760784 0.760784 0.760784
0.784314 0.784314 0.784314
0.803922 0.803922 0.803922
0.819608 0.819608 0.819608
0.831373 0.831373 0.831373
0.843137 0.843137 0.843137
0.298039 0.298039 0.298039
0.301961 0.301961 0.301961
0.329412 0.329412 0.329412
0.380392 0.380392 0.380392
0.458824 0.458824 0.458824
0.541176 0.541176 0.541176
0.611765 0.611765 0.611765
0.670588 0.670588 0.670588
0.713725 0.713725 0.713725
0.749020 0.749020 0.749020
0.776471 0.776471 0.776471
0.800000 0.800000 0.800000
0.815686 0.815686 0.815686
0.831373 0.831373 0.831373
0.847059 0.847059 0.847059
0.858824 0.858824 0.858824
0.313725 0.313725 0.313725
0.317647 0.317647 0.317647
0.345098 0.345098 0.345098
0.400000 0.400000 0.400000
0.478431 0.478431 0.478431
0.560784 0.560784 0.560784
0.631373 0.631373 0.631373
0.690196 0.690196 0.690196
0.733333 0.733333 0.733333
0.764706 0.764706 0.764706
0.792157 0.792157 0.792157
0.811765 0.811765 0.811765
0.831373 0.831373 0.831373
0.843137 0.843137 0.843137
0.858824 0.858824 0.858824
0.870588 0.870588 0.870588
0.329412 0.329412 0.329412
0.337255 0.337255 0.337255
0.360784 0.360784 0.360784
0.419608 0.419608 0.419608
0.501961 0.501961 0.501961
0.580392 0.580392 0.580392
0.650980 0.650980 0.650980
0.705882 0.705882 0.705882
0.749020 0.749020 0.749020
0.780392 0.780392 0.780392
0.803922 0.803922 0.803922
0.823529 0.823529 0.823529
0.843137 0.843137 0.843137
0.854902 0.854902 0.854902
0.870588 0.870588 0.870588
0.882353 0.882353 0.882353
0.345098 0.345098 0.345098
0.352941 0.352941 0.352941
0.380392 0.380392 0.380392
0.439216 0.439216 0.439216
0.521569 0.521569 0.521569
0.600000 0.600000 0.600000
0.670588 0.670588 0.670588
0.721569 0.721569 0.721569
0.760784 0.760784 0.760784
0.792157 0.792157 0.792157
0.815686 0.815686 0.815686
0.835294 0.835294 0.835294
0.850980 0.850980 0.850980
0.866667 0.866667 0.866667
0.882353 0.882353 0.882353
0.894118 0.894118 0.894118
0.360784 0.360784 0.360784
0.368627 0.368627 0.368627
0.396078 0.396078 0.396078
0.458824 0.458824 0.458824
0.541176 0.541176 0.541176
0.619608 0.619608 0.619608
0.686275 0.686275 0.686275
0.737255 0.737255 0.737255
0.776471 0.776471 0.776471
0.803922 0.803922 0.803922
0.827451 0.827451 0.827451
0.847059 0.847059 0.847059
0.862745 0.862745 0.862745
0.878431 0.878431 0.878431
0.894118 0.894118 0.894118
0.905882 0.905882 0.905882
0.376471 0.376471 0.376471
0.384314 0.384314 0.384314
0.415686 0.415686 0.415686
0.478431 0.478431 0.478431
0.556863 0.556863 0.556863
0.639216 0.639216 0.639216
0.701961 0.701961 0.701961
0.749020 0.749020 0.749020
0.788235 0.788235 0.788235
0.815686 0.815686 0.815686
0.839216 0.839216 0.839216
0.858824 0.858824 0.858824
0.874510 0.874510 0.874510
0.890196 0.890196 0.890196
0.905882 0.905882 0.905882
0.921569 0.921569 0.921569
0.211765 0.211765 0.211765
0.211765 0.211765 0.211765
0.211765 0.211765 0.211765
0.223529 0.223529 0.223529
0.250980 0.250980 0.250980
0.294118 0.294118 0.294118
0.349020 0.349020 0.349020
0.403922 0.403922 0.403922
0.454902 0.454902 0.454902
0.501961 0.501961 0.501961
0.541176 0.541176 0.541176
0.572549 0.572549 0.572549
0.603922 0.603922 0.603922
0.627451 0.627451 0.627451
0.650980 0.650980 0.650980
0.666667 0.666667 0.666667
0.211765 0.211765 0.211765
0.211765 0.211765 0.211765
0.215686 0.215686 0.215686
0.227451 0.227451 0.227451
0.254902 0.254902 0.254902
0.305882 0.305882 0.305882
0.360784 0.360784 0.360784
0.419608 0.419608 0.419608
0.470588 0.470588 0.470588
0.517647 0.517647 0.517647
0.556863 0.556863 0.556863
0.588235 0.588235 0.588235
0.615686 0.615686 0.615686
0.643137 0.643137 0.643137
0.662745 0.662745 0.662745
0.682353 0.682353 0.682353
0.211765 0.211765 0.211765
0.215686 0.215686 0.215686
0.219608 0.219608 0.219608
0.231373 0.231373 0.231373
0.266667 0.266667 0.266667
0.321569 0.321569 0.321569
0.380392 0.380392 0.380392
0.439216 0.439216 0.439216
0.494118 0.494118 0.494118
0.537255 0.537255 0.537255
0.576471 0.576471 0.576471
0.607843 0.607843 0.607843
0.639216 0.639216 0.639216
0.662745 0.662745 0.662745
0.682353 0.682353 0.682353
0.698039 0.698039 0.698039
0.215686 0.215686 0.215686
0.215686 0.215686 0.215686
0.223529 0.223529 0.223529
0.243137 0.243137 0.243137
0.286275 0.286275 0.286275
0.345098 0.345098 0.345098
0.407843 0.407843 0.407843
0.470588 0.470588 0.470588
0.521569 0.521569 0.521569
0.568627 0.568627 0.568627
0.607843 0.607843 0.607843
0.639216 0.639216 0.639216
0.666667 0.666667 0.666667
0.690196 0.690196 0.690196
0.705882 0.705882 0.705882
0.725490 0.725490 0.725490
0.223529 0.223529 0.223529
0.223529 0.223529 0.223529
0.235294 0.235294 0.235294
0.258824 0.258824 0.258824
0.309804 0.309804 0.309804
0.372549 0.372549 0.372549
0.443137 0.443137 0.443137
0.505882 0.505882 0.505882
0.560784 0.560784 0.560784
0.603922 0.603922 0.603922
0.639216 0.639216 0.639216
0.670588 0.670588 0.670588
0.698039 0.698039 0.698039
0.717647 0.717647 0.717647
0.737255 0.737255 0.737255
0.752941 0.752941 0.752941
0.231373 0.231373 0.231373
0.235294 0.235294 0.235294
0.247059 0.247059 0.247059
0.278431 0.278431 0.278431
0.337255 0.337255 0.337255
0.407843 0.407843 0.407843
0.478431 0.478431 0.478431
0.541176 0.541176 0.541176
0.596078 0.596078 0.596078
0.639216 0.639216 0.639216
0.674510 0.674510 0.674510
0.701961 0.701961 0.701961
0.725490 0.725490 0.725490
0.745098 0.745098 0.745098
0.760784 0.760784 0.760784
0.776471 0.776471 0.776471
0.243137 0.243137 0.243137
0.247059 0.247059 0.247059
0.262745 0.262745 0.262745
0.301961 0.301961 0.301961
0.364706 0.364706 0.364706
0.439216 0.439216 0.439216
0.509804 0.509804 0.509804
0.576471 0.576471 0.576471
0.627451 0.627451 0.627451
0.666667 0.666667 0.666667
0.701961 0.701961 0.701961
0.729412 0.729412 0.729412
0.749020 0.749020 0.749020
0.768627 0.768627 0.768627
0.784314 0.784314 0.784314
0.796078 0.796078 0.796078
0.254902 0.254902 0.254902
0.262745 0.262745 0.262745
0.278431 0.278431 0.278431
0.321569 0.321569 0.321569
0.392157 0.392157 0.392157
0.470588 0.470588 0.470588
0.541176 0.541176 0.541176
0.603922 0.603922 0.603922
0.654902 0.654902 0.654902
0.694118 0.694118 0.694118
0.725490 0.725490 0.725490
0.752941 0.752941 0.752941
0.772549 0.772549 0.772549
0.788235 0.788235 0.788235
0.803922 0.803922 0.803922
0.815686 0.815686 0.815686
0.270588 0.270588 0.270588
0.274510 0.274510 0.274510
0.298039 0.298039 0.298039
0.345098 0.345098 0.345098
0.415686 0.415686 0.415686
0.498039 0.498039 0.498039
0.568627 0.568627 0.568627
0.631373 0.631373 0.631373
0.678431 0.678431 0.678431
0.717647 0.717647 0.717647
0.745098 0.745098 0.745098
0.772549 0.772549 0.772549
0.788235 0.788235 0.788235
0.807843 0.807843 0.807843
0.819608 0.819608 0.819608
0.831373 0.831373 0.831373
0.286275 0.286275 0.286275
0.290196 0.290196 0.290196
0.313725 0.313725 0.313725
0.364706 0.364706 0.364706
0.439216 0.439216 0.439216
0.521569 0.521569 0.521569
0.596078 0.596078 0.596078
0.654902 0.654902 0.654902
0.701961 0.701961 0.701961
0.737255 0.737255 0.737255
0.764706 0.764706 0.764706
0.788235 0.788235 0.788235
0.807843 0.807843 0.807843
0.823529 0.823529 0.823529
0.835294 0.835294 0.835294
0.847059 0.847059 0.847059
0.301961 0.301961 0.301961
0.305882 0.305882 0.305882
0.333333 0.333333 0.333333
0.388235 0.388235 0.388235
0.462745 0.462745 0.462745
0.545098 0.545098 0.545098
0.619608 0.619608 0.619608
0.674510 0.674510 0.674510
0.721569 0.721569 0.721569
0.752941 0.752941 0.752941
0.780392 0.780392 0.780392
0.803922 0.803922 0.803922
0.819608 0.819608 0.819608
0.835294 0.835294 0.835294
0.847059 0.847059 0.847059
0.858824 0.858824 0.858824
0.317647 0.317647 0.317647
0.325490 0.325490 0.325490
0.349020 0.349020 0.349020
0.407843 0.407843 0.407843
0.486275 0.486275 0.486275
0.568627 0.568627 0.568627
0.639216 0.639216 0.639216
0.694118 0.694118 0.694118
0.737255 0.737255 0.737255
0.768627 0.768627 0.768627
0.796078 0.796078 0.796078
0.815686 0.815686 0.815686
0.831373 0.831373 0.831373
0.847059 0.847059 0.847059
0.862745 0.862745 0.862745
0.874510 0.874510 0.874510
0.333333 0.333333 0.333333
0.341176 0.341176 0.341176
0.368627 0.368627 0.368627
0.427451 0.427451 0.427451
0.505882 0.505882 0.505882
0.588235 0.588235 0.588235
0.658824 0.658824 0.658824
0.709804 0.709804 0.709804
0.752941 0.752941 0.752941
0.784314 0.784314 0.784314
0.807843 0.807843 0.807843
0.827451 0.827451 0.827451
0.843137 0.843137 0.843137
0.858824 0.858824 0.858824
0.874510 0.874510 0.874510
0.886275 0.886275 0.886275
0.349020 0.349020 0.349020
0.356863 0.356863 0.356863
0.384314 0.384314 0.384314
0.447059 0.447059 0.447059
0.525490 0.525490 0.525490
0.607843 0.607843 0.607843
0.674510 0.674510 0.674510
0.725490 0.725490 0.725490
0.764706 0.764706 0.764706
0.796078 0.796078 0.796078
0.819608 0.819608 0.819608
0.839216 0.839216 0.839216
0.854902 0.854902 0.854902
0.870588 0.870588 0.870588
0.886275 0.886275 0.886275
0.898039 0.898039 0.898039
0.364706 0.364706 0.364706
0.372549 0.372549 0.372549
0.403922 0.403922 0.403922
0.462745 0.462745 0.462745
0.545098 0.545098 0.545098
0.627451 0.627451 0.627451
0.690196 0.690196 0.690196
0.741176 0.741176 0.741176
0.780392 0.780392 0.780392
0.807843 0.807843 0.807843
0.831373 0.831373 0.831373
0.850980 0.850980 0.850980
0.866667 0.866667 0.866667
0.882353 0.882353 0.882353
0.898039 0.898039 0.898039
0.909804 0.909804 0.909804
0.380392 0.380392 0.380392
0.388235 0.388235 0.388235
0.419608 0.419608 0.419608
0.482353 0.482353 0.482353
0.564706 0.564706 0.564706
0.643137 0.643137 0.643137
0.705882 0.705882 0.705882
0.756863 0.756863 0.756863
0.792157 0.792157 0.792157
0.819608 0.819608 0.819608
0.843137 0.843137 0.843137
0.862745 0.862745 0.862745
0.878431 0.878431 0.878431
0.894118 0.894118 0.894118
0.909804 0.909804 0.909804
0.925490 0.925490 0.925490
0.211765 0.211765 0.211765
0.211765 0.211765 0.211765
0.215686 0.215686 0.215686
0.223529 0.223529 0.223529
0.254902 0.254902 0.254902
0.301961 0.301961 0.301961
0.356863 0.356863 0.356863
0.415686 0.415686 0.415686
0.466667 0.466667 0.466667
0.509804 0.509804 0.509804
0.549020 0.549020 0.549020
0.584314 0.584314 0.584314
0.611765 0.611765 0.611765
0.639216 0.639216 0.639216
0.658824 0.658824 0.658824
0.678431 0.678431 0.678431
0.211765 0.211765 0.211765
0.211765 0.211765 0.211765
0.215686 0.215686 0.215686
0.227451 0.227451 0.227451
0.262745 0.262745 0.262745
0.313725 0.313725 0.313725
0.372549 0.372549 0.372549
0.427451 0.427451 0.427451
0.482353 0.482353 0.482353
0.525490 0.525490 0.525490
0.564706 0.564706 0.564706
0.600000 0.600000 0.600000
0.627451 0.627451 0.627451
0.650980 0.650980 0.650980
0.670588 0.670588 0.670588
0.690196 0.690196 0.690196
0.215686 0.215686 0.215686
0.215686 0.215686 0.215686
0.219608 0.219608 0.219608
0.235294 0.235294 0.235294
0.274510 0.274510 0.274510
0.329412 0.329412 0.329412
0.388235 0.388235 0.388235
0.450980 0.450980 0.450980
0.501961 0.501961 0.501961
0.549020 0.549020 0.549020
0.588235 0.588235 0.588235
0.619608 0.619608 0.619608
0.647059 0.647059 0.647059
0.670588 0.670588 0.670588
0.690196 0.690196 0.690196
0.709804 0.709804 0.709804
0.219608 0.219608 0.219608
0.219608 0.219608 0.219608
0.227451 0.227451 0.227451
0.247059 0.247059 0.247059
0.290196 0.290196 0.290196
0.352941 0.352941 0.352941
0.419608 0.419608 0.419608
0.478431 0.478431 0.478431
0.533333 0.533333 0.533333
0.580392 0.580392 0.580392
0.615686 0.615686 0.615686
0.647059 0.647059 0.647059
0.674510 0.674510 0.674510
0.698039 0.698039 0.698039
0.717647 0.717647 0.717647
0.733333 0.733333 0.733333
0.223529 0.223529 0.223529
0.227451 0.227451 0.227451
0.235294 0.235294 0.235294
0.266667 0.266667 0.266667
0.317647 0.317647 0.317647
0.384314 0.384314 0.384314
0.454902 0.454902 0.454902
0.517647 0.517647 0.517647
0.568627 0.568627 0.568627
0.615686 0.615686 0.615686
0.650980 0.650980 0.650980
0.678431 0.678431 0.678431
0.705882 0.705882 0.705882
0.725490 0.725490 0.725490
0.745098 0.745098 0.745098
0.760784 0.760784 0.760784
0.235294 0.235294 0.235294
0.239216 0.239216 0.239216
0.250980 0.250980 0.250980
0.286275 0.286275 0.286275
0.345098 0.345098 0.345098
0.415686 0.415686 0.415686
0.490196 0.490196 0.490196
0.552941 0.552941 0.552941
0.603922 0.603922 0.603922
0.647059 0.647059 0.647059
0.682353 0.682353 0.682353
0.709804 0.709804 0.709804
0.733333 0.733333 0.733333
0.752941 0.752941 0.752941
0.768627 0.768627 0.768627
0.784314 0.784314 0.784314
0.247059 0.247059 0.247059
0.250980 0.250980 0.250980
0.266667 0.266667 0.266667
0.309804 0.309804 0.309804
0.372549 0.372549 0.372549
0.450980 0.450980 0.450980
0.521569 0.521569 0.521569
0.584314 0.584314 0.584314
0.635294 0.635294 0.635294
0.678431 0.678431 0.678431
0.709804 0.709804 0.709804
0.737255 0.737255 0.737255
0.756863 0.756863 0.756863
0.776471 0.776471 0.776471
0.792157 0.792157 0.792157
0.803922 0.803922 0.803922
0.262745 0.262745 0.262745
0.266667 0.266667 0.266667
0.286275 0.286275 0.286275
0.329412 0.329412 0.329412
0.400000 0.400000 0.400000
0.478431 0.478431 0.478431
