luts/Q1.cube
TITLE "Q1"
LUT_3D_SIZE 6
DOMAIN_MIN 0.0 0.0 0.0
DOMAIN_MAX 1.0 1.0 1.0
0.211765 0.211765 0.211765
0.219608 0.219608 0.219608
0.341176 0.341176 0.341176
0.494118 0.494118 0.494118
0.592157 0.592157 0.592157
0.658824 0.658824 0.658824
0.215686 0.215686 0.215686
0.239216 0.239216 0.239216
0.400000 0.400000 0.400000
0.560784 0.560784 0.560784
0.658824 0.658824 0.658824
0.717647 0.717647 0.717647
0.239216 0.239216 0.239216
0.294118 0.294118 0.294118
0.501961 0.501961 0.501961
0.658824 0.658824 0.658824
0.745098 0.745098 0.745098
0.792157 0.792157 0.792157
0.282353 0.282353 0.282353
0.356863 0.356863 0.356863
0.588235 0.588235 0.588235
0.729412 0.729412 0.729412
0.800000 0.800000 0.800000
0.843137 0.843137 0.843137
0.325490 0.325490 0.325490
0.419608 0.419608 0.419608
0.650980 0.650980 0.650980
0.776471 0.776471 0.776471
0.839216 0.839216 0.839216
0.882353 0.882353 0.882353
0.372549 0.372549 0.372549
0.474510 0.474510 0.474510
0.698039 0.698039 0.698039
0.815686 0.815686 0.815686
0.874510 0.874510 0.874510
0.917647 0.917647 0.917647
0.211765 0.211765 0.211765
0.223529 0.223529 0.223529
0.356863 0.356863 0.356863
0.509804 0.509804 0.509804
0.611765 0.611765 0.611765
0.678431 0.678431 0.678431
0.219608 0.219608 0.219608
0.247059 0.247059 0.247059
0.419608 0.419608 0.419608
0.580392 0.580392 0.580392
0.674510 0.674510 0.674510
0.733333 0.733333 0.733333
0.247059 0.247059 0.247059
0.309804 0.309804 0.309804
0.521569 0.521569 0.521569
0.678431 0.678431 0.678431
0.756863 0.756863 0.756863
0.803922 0.803922 0.803922
0.294118 0.294118 0.294118
0.376471 0.376471 0.376471
0.603922 0.603922 0.603922
0.745098 0.745098 0.745098
0.811765 0.811765 0.811765
0.854902 0.854902 0.854902
0.341176 0.341176 0.341176
0.435294 0.435294 0.435294
0.666667 0.666667 0.666667
0.792157 0.792157 0.792157
0.850980 0.850980 0.850980
0.894118 0.894118 0.894118
0.392157 0.392157 0.392157
0.494118 0.494118 0.494118
0.713725 0.713725 0.713725
0.823529 0.823529 0.823529
0.886275 0.886275 0.886275
0.933333 0.933333 0.933333
0.215686 0.215686 0.215686
0.235294 0.235294 0.235294
0.392157 0.392157 0.392157
0.549020 0.549020 0.549020
0.647059 0.647059 0.647059
0.709804 0.709804 0.709804
0.223529 0.223529 0.223529
0.266667 0.266667 0.266667
0.454902 0.454902 0.454902
0.615686 0.615686 0.615686
0.705882 0.705882 0.705882
0.760784 0.760784 0.760784
0.266667 0.266667 0.266667
0.337255 0.337255 0.337255
0.560784 0.560784 0.560784
0.709804 0.709804 0.709804
0.784314 0.784314 0.784314
0.827451 0.827451 0.827451
0.317647 0.317647 0.317647
0.407843 0.407843 0.407843
0.639216 0.639216 0.639216
0.772549 0.772549 0.772549
0.835294 0.835294 0.835294
0.874510 0.874510 0.874510
0.372549 0.372549 0.372549
0.474510 0.474510 0.474510
0.698039 0.698039 0.698039
0.815686 0.815686 0.815686
0.874510 0.874510 0.874510
0.917647 0.917647 0.917647
0.427451 0.427451 0.427451
0.533333 0.533333 0.533333
0.745098 0.745098 0.745098
0.847059 0.847059 0.847059
0.909804 0.909804 0.909804
0.968627 0.968627 0.968627
0.215686 0.215686 0.215686
0.247059 0.247059 0.247059
0.415686 0.415686 0.415686
0.576471 0.576471 0.576471
0.674510 0.674510 0.674510
0.729412 0.729412 0.729412
0.231373 0.231373 0.231373
0.282353 0.282353 0.282353
0.482353 0.482353 0.482353
0.643137 0.643137 0.643137
0.729412 0.729412 0.729412
0.780392 0.780392 0.780392
0.282353 0.282353 0.282353
0.360784 0.360784 0.360784
0.588235 0.588235 0.588235
0.729412 0.729412 0.729412
0.800000 0.800000 0.800000
0.843137 0.843137 0.843137
0.341176 0.341176 0.341176
0.435294 0.435294 0.435294
0.666667 0.666667 0.666667
0.788235 0.788235 0.788235
0.850980 0.850980 0.850980
0.890196 0.890196 0.890196
0.400000 0.400000 0.400000
0.501961 0.501961 0.501961
0.721569 0.721569 0.721569
0.831373 0.831373 0.831373
0.890196 0.890196 0.890196
0.941176 0.941176 0.941176
0.454902 0.454902 0.454902
0.556863 0.556863 0.556863
0.764706 0.764706 0.764706
0.862745 0.862745 0.862745
0.929412 0.929412 0.929412
0.996078 0.996078 0.996078
0.219608 0.219608 0.219608
0.254902 0.254902 0.254902
0.435294 0.435294 0.435294
0.596078 0.596078 0.596078
0.690196 0.690196 0.690196
0.745098 0.745098 0.745098
0.239216 0.239216 0.239216
0.294118 0.294118 0.294118
0.501961 0.501961 0.501961
0.658824 0.658824 0.658824
0.741176 0.741176 0.741176
0.792157 0.792157 0.792157
0.294118 0.294118 0.294118
0.376471 0.376471 0.376471
0.603922 0.603922 0.603922
0.745098 0.745098 0.745098
0.811765 0.811765 0.811765
0.854902 0.854902 0.854902
0.356863 0.356863 0.356863
0.454902 0.454902 0.454902
0.682353 0.682353 0.682353
0.800000 0.800000 0.800000
0.862745 0.862745 0.862745
0.905882 0.905882 0.905882
0.415686 0.415686 0.415686
0.521569 0.521569 0.521569
0.737255 0.737255 0.737255
0.839216 0.839216 0.839216
0.901961 0.901961 0.901961
0.956863 0.956863 0.956863
0.470588 0.470588 0.470588
0.576471 0.576471 0.576471
0.776471 0.776471 0.776471
0.874510 0.874510 0.874510
0.945098 0.945098 0.945098
1.000000 1.000000 1.000000
0.223529 0.223529 0.223529
0.262745 0.262745 0.262745
0.447059 0.447059 0.447059
0.607843 0.607843 0.607843
0.701961 0.701961 0.701961
0.756863 0.756863 0.756863
0.243137 0.243137 0.243137
0.301961 0.301961 0.301961
0.513725 0.513725 0.513725
0.670588 0.670588 0.670588
0.752941 0.752941 0.752941
0.800000 0.800000 0.800000
0.301961 0.301961 0.301961
0.388235 0.388235 0.388235
0.619608 0.619608 0.619608
0.756863 0.756863 0.756863
0.819608 0.819608 0.819608
0.862745 0.862745 0.862745
0.368627 0.368627 0.368627
0.466667 0.466667 0.466667
0.694118 0.694118 0.694118
0.811765 0.811765 0.811765
0.870588 0.870588 0.870588
0.913725 0.913725 0.913725
0.427451 0.427451 0.427451
0.533333 0.533333 0.533333
0.745098 0.745098 0.745098
0.847059 0.847059 0.847059
0.909804 0.909804 0.909804
0.968627 0.968627 0.968627
0.486275 0.486275 0.486275
0.592157 0.592157 0.592157
0.788235 0.788235 0.788235
0.882353 0.882353 0.882353
0.956863 0.956863 0.956863
1.000000 1.000000 1.000000
