luts/S1.cube
TITLE "S1"
LUT_3D_SIZE 6
DOMAIN_MIN 0.0 0.0 0.0
DOMAIN_MAX 1.0 1.0 1.0
0.000000 0.007843 0.011765
0.341176 0.007843 0.011765
0.568627 0.007843 0.011765
0.686275 0.007843 0.011765
0.815686 0.007843 0.011765
0.925490 0.007843 0.011765
0.000000 0.254902 0.011765
0.341176 0.254902 0.011765
0.568627 0.254902 0.011765
0.686275 0.254902 0.011765
0.815686 0.254902 0.011765
0.925490 0.254902 0.011765
0.000000 0.580392 0.011765
0.341176 0.580392 0.011765
0.568627 0.580392 0.011765
0.686275 0.580392 0.011765
0.815686 0.580392 0.011765
0.925490 0.580392 0.011765
0.000000 0.760784 0.011765
0.341176 0.760784 0.011765
0.568627 0.760784 0.011765
0.686275 0.760784 0.011765
0.815686 0.760784 0.011765
0.925490 0.760784 0.011765
0.000000 0.886275 0.011765
0.341176 0.886275 0.011765
0.568627 0.886275 0.011765
0.686275 0.886275 0.011765
0.815686 0.886275 0.011765
0.925490 0.886275 0.011765
0.000000 0.964706 0.011765
0.341176 0.964706 0.011765
0.568627 0.964706 0.011765
0.686275 0.964706 0.011765
0.815686 0.964706 0.011765
0.925490 0.964706 0.011765
0.000000 0.007843 0.356863
0.341176 0.007843 0.356863
0.568627 0.007843 0.356863
0.686275 0.007843 0.356863
0.815686 0.007843 0.356863
0.925490 0.007843 0.356863
0.000000 0.254902 0.356863
0.341176 0.254902 0.356863
0.568627 0.254902 0.356863
0.686275 0.254902 0.356863
0.815686 0.254902 0.356863
0.925490 0.254902 0.356863
0.000000 0.580392 0.356863
0.341176 0.580392 0.356863
0.568627 0.580392 0.356863
0.686275 0.580392 0.356863
0.815686 0.580392 0.356863
0.925490 0.580392 0.356863
0.000000 0.760784 0.356863
0.341176 0.760784 0.356863
0.568627 0.760784 0.356863
0.686275 0.760784 0.356863
0.815686 0.760784 0.356863
0.925490 0.760784 0.356863
0.000000 0.886275 0.356863
0.341176 0.886275 0.356863
0.568627 0.886275 0.356863
0.686275 0.886275 0.356863
0.815686 0.886275 0.356863
0.925490 0.886275 0.356863
0.000000 0.964706 0.356863
0.341176 0.964706 0.356863
0.568627 0.964706 0.356863
0.686275 0.964706 0.356863
0.815686 0.964706 0.356863
0.925490 0.964706 0.356863
0.000000 0.007843 0.513725
0.341176 0.007843 0.513725
0.568627 0.007843 0.513725
0.686275 0.007843 0.513725
0.815686 0.007843 0.513725
0.925490 0.007843 0.513725
0.000000 0.254902 0.513725
0.341176 0.254902 0.513725
0.568627 0.254902 0.513725
0.686275 0.254902 0.513725
0.815686 0.254902 0.513725
0.925490 0.254902 0.513725
0.000000 0.580392 0.513725
0.341176 0.580392 0.513725
0.568627 0.580392 0.513725
0.686275 0.580392 0.513725
0.815686 0.580392 0.513725
0.925490 0.580392 0.513725
0.000000 0.760784 0.513725
0.341176 0.760784 0.513725
0.568627 0.760784 0.513725
0.686275 0.760784 0.513725
0.815686 0.760784 0.513725
0.925490 0.760784 0.513725
0.000000 0.886275 0.513725
0.341176 0.886275 0.513725
0.568627 0.886275 0.513725
0.686275 0.886275 0.513725
0.815686 0.886275 0.513725
0.925490 0.886275 0.513725
0.000000 0.964706 0.513725
0.341176 0.964706 0.513725
0.568627 0.964706 0.513725
0.686275 0.964706 0.513725
0.815686 0.964706 0.513725
0.925490 0.964706 0.513725
0.000000 0.007843 0.698039
0.341176 0.007843 0.698039
0.568627 0.007843 0.698039
0.686275 0.007843 0.698039
0.815686 0.007843 0.698039
0.925490 0.007843 0.698039
0.000000 0.254902 0.698039
0.341176 0.254902 0.698039
0.568627 0.254902 0.698039
0.686275 0.254902 0.698039
0.815686 0.254902 0.698039
0.925490 0.254902 0.698039
0.000000 0.580392 0.698039
0.341176 0.580392 0.698039
0.568627 0.580392 0.698039
0.686275 0.580392 0.698039
0.815686 0.580392 0.698039
0.925490 0.580392 0.698039
0.000000 0.760784 0.698039
0.341176 0.760784 0.698039
0.568627 0.760784 0.698039
0.686275 0.760784 0.698039
0.815686 0.760784 0.698039
0.925490 0.760784 0.698039
0.000000 0.886275 0.698039
0.341176 0.886275 0.698039
0.568627 0.886275 0.698039
0.686275 0.886275 0.698039
0.815686 0.886275 0.698039
0.925490 0.886275 0.698039
0.000000 0.964706 0.698039
0.341176 0.964706 0.698039
0.568627 0.964706 0.698039
0.686275 0.964706 0.698039
0.815686 0.964706 0.698039
0.925490 0.964706 0.698039
0.000000 0.007843 0.913725
0.341176 0.007843 0.913725
0.568627 0.007843 0.913725
0.686275 0.007843 0.913725
0.815686 0.007843 0.913725
0.925490 0.007843 0.913725
0.000000 0.254902 0.913725
0.341176 0.254902 0.913725
0.568627 0.254902 0.913725
0.686275 0.254902 0.913725
0.815686 0.254902 0.913725
0.925490 0.254902 0.913725
0.000000 0.580392 0.913725
0.341176 0.580392 0.913725
0.568627 0.580392 0.913725
0.686275 0.580392 0.913725
0.815686 0.580392 0.913725
0.925490 0.580392 0.913725
0.000000 0.760784 0.913725
0.341176 0.760784 0.913725
0.568627 0.760784 0.913725
0.686275 0.760784 0.913725
0.815686 0.760784 0.913725
0.925490 0.760784 0.913725
0.000000 0.886275 0.913725
0.341176 0.886275 0.913725
0.568627 0.886275 0.913725
0.686275 0.886275 0.913725
0.815686 0.886275 0.913725
0.925490 0.886275 0.913725
0.000000 0.964706 0.913725
0.341176 0.964706 0.913725
0.568627 0.964706 0.913725
0.686275 0.964706 0.913725
0.815686 0.964706 0.913725
0.925490 0.964706 0.913725
0.000000 0.007843 0.984314
0.341176 0.007843 0.984314
0.568627 0.007843 0.984314
0.686275 0.007843 0.984314
0.815686 0.007843 0.984314
0.925490 0.007843 0.984314
0.000000 0.254902 0.984314
0.341176 0.254902 0.984314
0.568627 0.254902 0.984314
0.686275 0.254902 0.984314
0.815686 0.254902 0.984314
0.925490 0.254902 0.984314
0.000000 0.580392 0.984314
0.341176 0.580392 0.984314
0.568627 0.580392 0.984314
0.686275 0.580392 0.984314
0.815686 0.580392 0.984314
0.925490 0.580392 0.984314
0.000000 0.760784 0.984314
0.341176 0.760784 0.984314
0.568627 0.760784 0.984314
0.686275 0.760784 0.984314
0.815686 0.760784 0.984314
0.925490 0.760784 0.984314
0.000000 0.886275 0.984314
0.341176 0.886275 0.984314
0.568627 0.886275 0.984314
0.686275 0.886275 0.984314
0.815686 0.886275 0.984314
0.925490 0.886275 0.984314
0.000000 0.964706 0.984314
0.341176 0.964706 0.984314
0.568627 0.964706 0.984314
0.686275 0.964706 0.984314
0.815686 0.964706 0.984314
0.925490 0.964706 0.984314
