luts/S1.cube
TITLE "S1"
LUT_3D_SIZE 16
DOMAIN_MIN 0.0 0.0 0.0
DOMAIN_MAX 1.0 1.0 1.0
0.000000 0.007843 0.011765
0.109804 0.007843 0.011765
0.231373 0.007843 0.011765
0.341176 0.007843 0.011765
0.435294 0.007843 0.011765
0.509804 0.007843 0.011765
0.568627 0.007843 0.011765
0.615686 0.007843 0.011765
0.650980 0.007843 0.011765
0.686275 0.007843 0.011765
0.725490 0.007843 0.011765
0.768627 0.007843 0.011765
0.815686 0.007843 0.011765
0.862745 0.007843 0.011765
0.905882 0.007843 0.011765
0.925490 0.007843 0.011765
0.000000 0.047059 0.011765
0.109804 0.047059 0.011765
0.231373 0.047059 0.011765
0.341176 0.047059 0.011765
0.435294 0.047059 0.011765
0.509804 0.047059 0.011765
0.568627 0.047059 0.011765
0.615686 0.047059 0.011765
0.650980 0.047059 0.011765
0.686275 0.047059 0.011765
0.725490 0.047059 0.011765
0.768627 0.047059 0.011765
0.815686 0.047059 0.011765
0.862745 0.047059 0.011765
0.905882 0.047059 0.011765
0.925490 0.047059 0.011765
0.000000 0.137255 0.011765
0.109804 0.137255 0.011765
0.231373 0.137255 0.011765
0.341176 0.137255 0.011765
0.435294 0.137255 0.011765
0.509804 0.137255 0.011765
0.568627 0.137255 0.011765
0.615686 0.137255 0.011765
0.650980 0.137255 0.011765
0.686275 0.137255 0.011765
0.725490 0.137255 0.011765
0.768627 0.137255 0.011765
0.815686 0.137255 0.011765
0.862745 0.137255 0.011765
0.905882 0.137255 0.011765
0.925490 0.137255 0.011765
0.000000 0.254902 0.011765
0.109804 0.254902 0.011765
0.231373 0.254902 0.011765
0.341176 0.254902 0.011765
0.435294 0.254902 0.011765
0.509804 0.254902 0.011765
0.568627 0.254902 0.011765
0.615686 0.254902 0.011765
0.650980 0.254902 0.011765
0.686275 0.254902 0.011765
0.725490 0.254902 0.011765
0.768627 0.254902 0.011765
0.815686 0.254902 0.011765
0.862745 0.254902 0.011765
0.905882 0.254902 0.011765
0.925490 0.254902 0.011765
0.000000 0.376471 0.011765
0.109804 0.376471 0.011765
0.231373 0.376471 0.011765
0.341176 0.376471 0.011765
0.435294 0.376471 0.011765
0.509804 0.376471 0.011765
0.568627 0.376471 0.011765
0.615686 0.376471 0.011765
0.650980 0.376471 0.011765
0.686275 0.376471 0.011765
0.725490 0.376471 0.011765
0.768627 0.376471 0.011765
0.815686 0.376471 0.011765
0.862745 0.376471 0.011765
0.905882 0.376471 0.011765
0.925490 0.376471 0.011765
0.000000 0.486275 0.011765
0.109804 0.486275 0.011765
0.231373 0.486275 0.011765
0.341176 0.486275 0.011765
0.435294 0.486275 0.011765
0.509804 0.486275 0.011765
0.568627 0.486275 0.011765
0.615686 0.486275 0.011765
0.650980 0.486275 0.011765
0.686275 0.486275 0.011765
0.725490 0.486275 0.011765
0.768627 0.486275 0.011765
0.815686 0.486275 0.011765
0.862745 0.486275 0.011765
0.905882 0.486275 0.011765
0.925490 0.486275 0.011765
0.000000 0.580392 0.011765
0.109804 0.580392 0.011765
0.231373 0.580392 0.011765
0.341176 0.580392 0.011765
0.435294 0.580392 0.011765
0.509804 0.580392 0.011765
0.568627 0.580392 0.011765
0.615686 0.580392 0.011765
0.650980 0.580392 0.011765
0.686275 0.580392 0.011765
0.725490 0.580392 0.011765
0.768627 0.580392 0.011765
0.815686 0.580392 0.011765
0.862745 0.580392 0.011765
0.905882 0.580392 0.011765
0.925490 0.580392 0.011765
0.000000 0.654902 0.011765
0.109804 0.654902 0.011765
0.231373 0.654902 0.011765
0.341176 0.654902 0.011765
0.435294 0.654902 0.011765
0.509804 0.654902 0.011765
0.568627 0.654902 0.011765
0.615686 0.654902 0.011765
0.650980 0.654902 0.011765
0.686275 0.654902 0.011765
0.725490 0.654902 0.011765
0.768627 0.654902 0.011765
0.815686 0.654902 0.011765
0.862745 0.654902 0.011765
0.905882 0.654902 0.011765
0.925490 0.654902 0.011765
0.000000 0.713725 0.011765
0.109804 0.713725 0.011765
0.231373 0.713725 0.011765
0.341176 0.713725 0.011765
0.435294 0.713725 0.011765
0.509804 0.713725 0.011765
0.568627 0.713725 0.011765
0.615686 0.713725 0.011765
0.650980 0.713725 0.011765
0.686275 0.713725 0.011765
0.725490 0.713725 0.011765
0.768627 0.713725 0.011765
0.815686 0.713725 0.011765
0.862745 0.713725 0.011765
0.905882 0.713725 0.011765
0.925490 0.713725 0.011765
0.000000 0.760784 0.011765
0.109804 0.760784 0.011765
0.231373 0.760784 0.011765
0.341176 0.760784 0.011765
0.435294 0.760784 0.011765
0.509804 0.760784 0.011765
0.568627 0.760784 0.011765
0.615686 0.760784 0.011765
0.650980 0.760784 0.011765
0.686275 0.760784 0.011765
0.725490 0.760784 0.011765
0.768627 0.760784 0.011765
0.815686 0.760784 0.011765
0.862745 0.760784 0.011765
0.905882 0.760784 0.011765
0.925490 0.760784 0.011765
0.000000 0.803922 0.011765
0.109804 0.803922 0.011765
0.231373 0.803922 0.011765
0.341176 0.803922 0.011765
0.435294 0.803922 0.011765
0.509804 0.803922 0.011765
0.568627 0.803922 0.011765
0.615686 0.803922 0.011765
0.650980 0.803922 0.011765
0.686275 0.803922 0.011765
0.725490 0.803922 0.011765
0.768627 0.803922 0.011765
0.815686 0.803922 0.011765
0.862745 0.803922 0.011765
0.905882 0.803922 0.011765
0.925490 0.803922 0.011765
0.000000 0.843137 0.011765
0.109804 0.843137 0.011765
0.231373 0.843137 0.011765
0.341176 0.843137 0.011765
0.435294 0.843137 0.011765
0.509804 0.843137 0.011765
0.568627 0.843137 0.011765
0.615686 0.843137 0.011765
0.650980 0.843137 0.011765
0.686275 0.843137 0.011765
0.725490 0.843137 0.011765
0.768627 0.843137 0.011765
0.815686 0.843137 0.011765
0.862745 0.843137 0.011765
0.905882 0.843137 0.011765
0.925490 0.843137 0.011765
0.000000 0.886275 0.011765
0.109804 0.886275 0.011765
0.231373 0.886275 0.011765
0.341176 0.886275 0.011765
0.435294 0.886275 0.011765
0.509804 0.886275 0.011765
0.568627 0.886275 0.011765
0.615686 0.886275 0.011765
0.650980 0.886275 0.011765
0.686275 0.886275 0.011765
0.725490 0.886275 0.011765
0.768627 0.886275 0.011765
0.815686 0.886275 0.011765
0.862745 0.886275 0.011765
0.905882 0.886275 0.011765
0.925490 0.886275 0.011765
0.000000 0.921569 0.011765
0.109804 0.921569 0.011765
0.231373 0.921569 0.011765
0.341176 0.921569 0.011765
0.435294 0.921569 0.011765
0.509804 0.921569 0.011765
0.568627 0.921569 0.011765
0.615686 0.921569 0.011765
0.650980 0.921569 0.011765
0.686275 0.921569 0.011765
0.725490 0.921569 0.011765
0.768627 0.921569 0.011765
0.815686 0.921569 0.011765
0.862745 0.921569 0.011765
0.905882 0.921569 0.011765
0.925490 0.921569 0.011765
0.000000 0.952941 0.011765
0.109804 0.952941 0.011765
0.231373 0.952941 0.011765
0.341176 0.952941 0.011765
0.435294 0.952941 0.011765
0.509804 0.952941 0.011765
0.568627 0.952941 0.011765
0.615686 0.952941 0.011765
0.650980 0.952941 0.011765
0.686275 0.952941 0.011765
0.725490 0.952941 0.011765
0.768627 0.952941 0.011765
0.815686 0.952941 0.011765
0.862745 0.952941 0.011765
0.905882 0.952941 0.011765
0.925490 0.952941 0.011765
0.000000 0.964706 0.011765
0.109804 0.964706 0.011765
0.231373 0.964706 0.011765
0.341176 0.964706 0.011765
0.435294 0.964706 0.011765
0.509804 0.964706 0.011765
0.568627 0.964706 0.011765
0.615686 0.964706 0.011765
0.650980 0.964706 0.011765
0.686275 0.964706 0.011765
0.725490 0.964706 0.011765
0.768627 0.964706 0.011765
0.815686 0.964706 0.011765
0.862745 0.964706 0.011765
0.905882 0.964706 0.011765
0.925490 0.964706 0.011765
0.000000 0.007843 0.223529
0.109804 0.007843 0.223529
0.231373 0.007843 0.223529
0.341176 0.007843 0.223529
0.435294 0.007843 0.223529
0.509804 0.007843 0.223529
0.568627 0.007843 0.223529
0.615686 0.007843 0.223529
0.650980 0.007843 0.223529
0.686275 0.007843 0.223529
0.725490 0.007843 0.223529
0.768627 0.007843 0.223529
0.815686 0.007843 0.223529
0.862745 0.007843 0.223529
0.905882 0.007843 0.223529
0.925490 0.007843 0.223529
0.000000 0.047059 0.223529
0.109804 0.047059 0.223529
0.231373 0.047059 0.223529
0.341176 0.047059 0.223529
0.435294 0.047059 0.223529
0.509804 0.047059 0.223529
0.568627 0.047059 0.223529
0.615686 0.047059 0.223529
0.650980 0.047059 0.223529
0.686275 0.047059 0.223529
0.725490 0.047059 0.223529
0.768627 0.047059 0.223529
0.815686 0.047059 0.223529
0.862745 0.047059 0.223529
0.905882 0.047059 0.223529
0.925490 0.047059 0.223529
0.000000 0.137255 0.223529
0.109804 0.137255 0.223529
0.231373 0.137255 0.223529
0.341176 0.137255 0.223529
0.435294 0.137255 0.223529
0.509804 0.137255 0.223529
0.568627 0.137255 0.223529
0.615686 0.137255 0.223529
0.650980 0.137255 0.223529
0.686275 0.137255 0.223529
0.725490 0.137255 0.223529
0.768627 0.137255 0.223529
0.815686 0.137255 0.223529
0.862745 0.137255 0.223529
0.905882 0.137255 0.223529
0.925490 0.137255 0.223529
0.000000 0.254902 0.223529
0.109804 0.254902 0.223529
0.231373 0.254902 0.223529
0.341176 0.254902 0.223529
0.435294 0.254902 0.223529
0.509804 0.254902 0.223529
0.568627 0.254902 0.223529
0.615686 0.254902 0.223529
0.650980 0.254902 0.223529
0.686275 0.254902 0.223529
0.725490 0.254902 0.223529
0.768627 0.254902 0.223529
0.815686 0.254902 0.223529
0.862745 0.254902 0.223529
0.905882 0.254902 0.223529
0.925490 0.254902 0.223529
0.000000 0.376471 0.223529
0.109804 0.376471 0.223529
0.231373 0.376471 0.223529
0.341176 0.376471 0.223529
0.435294 0.376471 0.223529
0.509804 0.376471 0.223529
0.568627 0.376471 0.223529
0.615686 0.376471 0.223529
0.650980 0.376471 0.223529
0.686275 0.376471 0.223529
0.725490 0.376471 0.223529
0.768627 0.376471 0.223529
0.815686 0.376471 0.223529
0.862745 0.376471 0.223529
0.905882 0.376471 0.223529
0.925490 0.376471 0.223529
0.000000 0.486275 0.223529
0.109804 0.486275 0.223529
0.231373 0.486275 0.223529
0.341176 0.486275 0.223529
0.435294 0.486275 0.223529
0.509804 0.486275 0.223529
0.568627 0.486275 0.223529
0.615686 0.486275 0.223529
0.650980 0.486275 0.223529
0.686275 0.486275 0.223529
0.725490 0.486275 0.223529
0.768627 0.486275 0.223529
0.815686 0.486275 0.223529
0.862745 0.486275 0.223529
0.905882 0.486275 0.223529
0.925490 0.486275 0.223529
0.000000 0.580392 0.223529
0.109804 0.580392 0.223529
0.231373 0.580392 0.223529
0.341176 0.580392 0.223529
0.435294 0.580392 0.223529
0.509804 0.580392 0.223529
0.568627 0.580392 0.223529
0.615686 0.580392 0.223529
0.650980 0.580392 0.223529
0.686275 0.580392 0.223529
0.725490 0.580392 0.223529
0.768627 0.580392 0.223529
0.815686 0.580392 0.223529
0.862745 0.580392 0.223529
0.905882 0.580392 0.223529
0.925490 0.580392 0.223529
0.000000 0.654902 0.223529
0.109804 0.654902 0.223529
0.231373 0.654902 0.223529
0.341176 0.654902 0.223529
0.435294 0.654902 0.223529
0.509804 0.654902 0.223529
0.568627 0.654902 0.223529
0.615686 0.654902 0.223529
0.650980 0.654902 0.223529
0.686275 0.654902 0.223529
0.725490 0.654902 0.223529
0.768627 0.654902 0.223529
0.815686 0.654902 0.223529
0.862745 0.654902 0.223529
0.905882 0.654902 0.223529
0.925490 0.654902 0.223529
0.000000 0.713725 0.223529
0.109804 0.713725 0.223529
0.231373 0.713725 0.223529
0.341176 0.713725 0.223529
0.435294 0.713725 0.223529
0.509804 0.713725 0.223529
0.568627 0.713725 0.223529
0.615686 0.713725 0.223529
0.650980 0.713725 0.223529
0.686275 0.713725 0.223529
0.725490 0.713725 0.223529
0.768627 0.713725 0.223529
0.815686 0.713725 0.223529
0.862745 0.713725 0.223529
0.905882 0.713725 0.223529
0.925490 0.713725 0.223529
0.000000 0.760784 0.223529
0.109804 0.760784 0.223529
0.231373 0.760784 0.223529
0.341176 0.760784 0.223529
0.435294 0.760784 0.223529
0.509804 0.760784 0.223529
0.568627 0.760784 0.223529
0.615686 0.760784 0.223529
0.650980 0.760784 0.223529
0.686275 0.760784 0.223529
0.725490 0.760784 0.223529
0.768627 0.760784 0.223529
0.815686 0.760784 0.223529
0.862745 0.760784 0.223529
0.905882 0.760784 0.223529
0.925490 0.760784 0.223529
0.000000 0.803922 0.223529
0.109804 0.803922 0.223529
0.231373 0.803922 0.223529
0.341176 0.803922 0.223529
0.435294 0.803922 0.223529
0.509804 0.803922 0.223529
0.568627 0.803922 0.223529
0.615686 0.803922 0.223529
0.650980 0.803922 0.223529
0.686275 0.803922 0.223529
0.725490 0.803922 0.223529
0.768627 0.803922 0.223529
0.815686 0.803922 0.223529
0.862745 0.803922 0.223529
0.905882 0.803922 0.223529
0.925490 0.803922 0.223529
0.000000 0.843137 0.223529
0.109804 0.843137 0.223529
0.231373 0.843137 0.223529
0.341176 0.843137 0.223529
0.435294 0.843137 0.223529
0.509804 0.843137 0.223529
0.568627 0.843137 0.223529
0.615686 0.843137 0.223529
0.650980 0.843137 0.223529
0.686275 0.843137 0.223529
0.725490 0.843137 0.223529
0.768627 0.843137 0.223529
0.815686 0.843137 0.223529
0.862745 0.843137 0.223529
0.905882 0.843137 0.223529
0.925490 0.843137 0.223529
0.000000 0.886275 0.223529
0.109804 0.886275 0.223529
0.231373 0.886275 0.223529
0.341176 0.886275 0.223529
0.435294 0.886275 0.223529
0.509804 0.886275 0.223529
0.568627 0.886275 0.223529
0.615686 0.886275 0.223529
0.650980 0.886275 0.223529
0.686275 0.886275 0.223529
0.725490 0.886275 0.223529
0.768627 0.886275 0.223529
0.815686 0.886275 0.223529
0.862745 0.886275 0.223529
0.905882 0.886275 0.223529
0.925490 0.886275 0.223529
0.000000 0.921569 0.223529
0.109804 0.921569 0.223529
0.231373 0.921569 0.223529
0.341176 0.921569 0.223529
0.435294 0.921569 0.223529
0.509804 0.921569 0.223529
0.568627 0.921569 0.223529
0.615686 0.921569 0.223529
0.650980 0.921569 0.223529
0.686275 0.921569 0.223529
0.725490 0.921569 0.223529
0.768627 0.921569 0.223529
0.815686 0.921569 0.223529
0.862745 0.921569 0.223529
0.905882 0.921569 0.223529
0.925490 0.921569 0.223529
0.000000 0.952941 0.223529
0.109804 0.952941 0.223529
0.231373 0.952941 0.223529
0.341176 0.952941 0.223529
0.435294 0.952941 0.223529
0.509804 0.952941 0.223529
0.568627 0.952941 0.223529
0.615686 0.952941 0.223529
0.650980 0.952941 0.223529
0.686275 0.952941 0.223529
0.725490 0.952941 0.223529
0.768627 0.952941 0.223529
0.815686 0.952941 0.223529
0.862745 0.952941 0.223529
0.905882 0.952941 0.223529
0.925490 0.952941 0.223529
0.000000 0.964706 0.223529
0.109804 0.964706 0.223529
0.231373 0.964706 0.223529
0.341176 0.964706 0.223529
0.435294 0.964706 0.223529
0.509804 0.964706 0.223529
0.568627 0.964706 0.223529
0.615686 0.964706 0.223529
0.650980 0.964706 0.223529
0.686275 0.964706 0.223529
0.725490 0.964706 0.223529
0.768627 0.964706 0.223529
0.815686 0.964706 0.223529
0.862745 0.964706 0.223529
0.905882 0.964706 0.223529
0.925490 0.964706 0.223529
0.000000 0.007843 0.305882
0.109804 0.007843 0.305882
0.231373 0.007843 0.305882
0.341176 0.007843 0.305882
0.435294 0.007843 0.305882
0.509804 0.007843 0.305882
0.568627 0.007843 0.305882
0.615686 0.007843 0.305882
0.650980 0.007843 0.305882
0.686275 0.007843 0.305882
0.725490 0.007843 0.305882
0.768627 0.007843 0.305882
0.815686 0.007843 0.305882
0.862745 0.007843 0.305882
0.905882 0.007843 0.305882
0.925490 0.007843 0.305882
0.000000 0.047059 0.305882
0.109804 0.047059 0.305882
0.231373 0.047059 0.305882
0.341176 0.047059 0.305882
0.435294 0.047059 0.305882
0.509804 0.047059 0.305882
0.568627 0.047059 0.305882
0.615686 0.047059 0.305882
0.650980 0.047059 0.305882
0.686275 0.047059 0.305882
0.725490 0.047059 0.305882
0.768627 0.047059 0.305882
0.815686 0.047059 0.305882
0.862745 0.047059 0.305882
0.905882 0.047059 0.305882
0.925490 0.047059 0.305882
0.000000 0.137255 0.305882
0.109804 0.137255 0.305882
0.231373 0.137255 0.305882
0.341176 0.137255 0.305882
0.435294 0.137255 0.305882
0.509804 0.137255 0.305882
0.568627 0.137255 0.305882
0.615686 0.137255 0.305882
0.650980 0.137255 0.305882
0.686275 0.137255 0.305882
0.725490 0.137255 0.305882
0.768627 0.137255 0.305882
0.815686 0.137255 0.305882
0.862745 0.137255 0.305882
0.905882 0.137255 0.305882
0.925490 0.137255 0.305882
0.000000 0.254902 0.305882
0.109804 0.254902 0.305882
0.231373 0.254902 0.305882
0.341176 0.254902 0.305882
0.435294 0.254902 0.305882
0.509804 0.254902 0.305882
0.568627 0.254902 0.305882
0.615686 0.254902 0.305882
0.650980 0.254902 0.305882
0.686275 0.254902 0.305882
0.725490 0.254902 0.305882
0.768627 0.254902 0.305882
0.815686 0.254902 0.305882
0.862745 0.254902 0.305882
0.905882 0.254902 0.305882
0.925490 0.254902 0.305882
0.000000 0.376471 0.305882
0.109804 0.376471 0.305882
0.231373 0.376471 0.305882
0.341176 0.376471 0.305882
0.435294 0.376471 0.305882
0.509804 0.376471 0.305882
0.568627 0.376471 0.305882
0.615686 0.376471 0.305882
0.650980 0.376471 0.305882
0.686275 0.376471 0.305882
0.725490 0.376471 0.305882
0.768627 0.376471 0.305882
0.815686 0.376471 0.305882
0.862745 0.376471 0.305882
0.905882 0.376471 0.305882
0.925490 0.376471 0.305882
0.000000 0.486275 0.305882
0.109804 0.486275 0.305882
0.231373 0.486275 0.305882
0.341176 0.486275 0.305882
0.435294 0.486275 0.305882
0.509804 0.486275 0.305882
0.568627 0.486275 0.305882
0.615686 0.486275 0.305882
0.650980 0.486275 0.305882
0.686275 0.486275 0.305882
0.725490 0.486275 0.305882
0.768627 0.486275 0.305882
0.815686 0.486275 0.305882
0.862745 0.486275 0.305882
0.905882 0.486275 0.305882
0.925490 0.486275 0.305882
0.000000 0.580392 0.305882
0.109804 0.580392 0.305882
0.231373 0.580392 0.305882
0.341176 0.580392 0.305882
0.435294 0.580392 0.305882
0.509804 0.580392 0.305882
0.568627 0.580392 0.305882
0.615686 0.580392 0.305882
0.650980 0.580392 0.305882
0.686275 0.580392 0.305882
0.725490 0.580392 0.305882
0.768627 0.580392 0.305882
0.815686 0.580392 0.305882
0.862745 0.580392 0.305882
0.905882 0.580392 0.305882
0.925490 0.580392 0.305882
0.000000 0.654902 0.305882
0.109804 0.654902 0.305882
0.231373 0.654902 0.305882
0.341176 0.654902 0.305882
0.435294 0.654902 0.305882
0.509804 0.654902 0.305882
0.568627 0.654902 0.305882
0.615686 0.654902 0.305882
0.650980 0.654902 0.305882
0.686275 0.654902 0.305882
0.725490 0.654902 0.305882
0.768627 0.654902 0.305882
0.815686 0.654902 0.305882
0.862745 0.654902 0.305882
0.905882 0.654902 0.305882
0.925490 0.654902 0.305882
0.000000 0.713725 0.305882
0.109804 0.713725 0.305882
0.231373 0.713725 0.305882
0.341176 0.713725 0.305882
0.435294 0.713725 0.305882
0.509804 0.713725 0.305882
0.568627 0.713725 0.305882
0.615686 0.713725 0.305882
0.650980 0.713725 0.305882
0.686275 0.713725 0.305882
0.725490 0.713725 0.305882
0.768627 0.713725 0.305882
0.815686 0.713725 0.305882
0.862745 0.713725 0.305882
0.905882 0.713725 0.305882
0.925490 0.713725 0.305882
0.000000 0.760784 0.305882
0.109804 0.760784 0.305882
0.231373 0.760784 0.305882
0.341176 0.760784 0.305882
0.435294 0.760784 0.305882
0.509804 0.760784 0.305882
0.568627 0.760784 0.305882
0.615686 0.760784 0.305882
0.650980 0.760784 0.305882
0.686275 0.760784 0.305882
0.725490 0.760784 0.305882
0.768627 0.760784 0.305882
0.815686 0.760784 0.305882
0.862745 0.760784 0.305882
0.905882 0.760784 0.305882
0.925490 0.760784 0.305882
0.000000 0.803922 0.305882
0.109804 0.803922 0.305882
0.231373 0.803922 0.305882
0.341176 0.803922 0.305882
0.435294 0.803922 0.305882
0.509804 0.803922 0.305882
0.568627 0.803922 0.305882
0.615686 0.803922 0.305882
0.650980 0.803922 0.305882
0.686275 0.803922 0.305882
0.725490 0.803922 0.305882
0.768627 0.803922 0.305882
0.815686 0.803922 0.305882
0.862745 0.803922 0.305882
0.905882 0.803922 0.305882
0.925490 0.803922 0.305882
0.000000 0.843137 0.305882
0.109804 0.843137 0.305882
0.231373 0.843137 0.305882
0.341176 0.843137 0.305882
0.435294 0.843137 0.305882
0.509804 0.843137 0.305882
0.568627 0.843137 0.305882
0.615686 0.843137 0.305882
0.650980 0.843137 0.305882
0.686275 0.843137 0.305882
0.725490 0.843137 0.305882
0.768627 0.843137 0.305882
0.815686 0.843137 0.305882
0.862745 0.843137 0.305882
0.905882 0.843137 0.305882
0.925490 0.843137 0.305882
0.000000 0.886275 0.305882
0.109804 0.886275 0.305882
0.231373 0.886275 0.305882
0.341176 0.886275 0.305882
0.435294 0.886275 0.305882
0.509804 0.886275 0.305882
0.568627 0.886275 0.305882
0.615686 0.886275 0.305882
0.650980 0.886275 0.305882
0.686275 0.886275 0.305882
0.725490 0.886275 0.305882
0.768627 0.886275 0.305882
0.815686 0.886275 0.305882
0.862745 0.886275 0.305882
0.905882 0.886275 0.305882
0.925490 0.886275 0.305882
0.000000 0.921569 0.305882
0.109804 0.921569 0.305882
0.231373 0.921569 0.305882
0.341176 0.921569 0.305882
0.435294 0.921569 0.305882
0.509804 0.921569 0.305882
0.568627 0.921569 0.305882
0.615686 0.921569 0.305882
0.650980 0.921569 0.305882
0.686275 0.921569 0.305882
0.725490 0.921569 0.305882
0.768627 0.921569 0.305882
0.815686 0.921569 0.305882
0.862745 0.921569 0.305882
0.905882 0.921569 0.305882
0.925490 0.921569 0.305882
0.000000 0.952941 0.305882
0.109804 0.952941 0.305882
0.231373 0.952941 0.305882
0.341176 0.952941 0.305882
0.435294 0.952941 0.305882
0.509804 0.952941 0.305882
0.568627 0.952941 0.305882
0.615686 0.952941 0.305882
0.650980 0.952941 0.305882
0.686275 0.952941 0.305882
0.725490 0.952941 0.305882
0.768627 0.952941 0.305882
0.815686 0.952941 0.305882
0.862745 0.952941 0.305882
0.905882 0.952941 0.305882
0.925490 0.952941 0.305882
0.000000 0.964706 0.305882
0.109804 0.964706 0.305882
0.231373 0.964706 0.305882
0.341176 0.964706 0.305882
0.435294 0.964706 0.305882
0.509804 0.964706 0.305882
0.568627 0.964706 0.305882
0.615686 0.964706 0.305882
0.650980 0.964706 0.305882
0.686275 0.964706 0.305882
0.725490 0.964706 0.305882
0.768627 0.964706 0.305882
0.815686 0.964706 0.305882
0.862745 0.964706 0.305882
0.905882 0.964706 0.305882
0.925490 0.964706 0.305882
0.000000 0.007843 0.356863
0.109804 0.007843 0.356863
0.231373 0.007843 0.356863
0.341176 0.007843 0.356863
0.435294 0.007843 0.356863
0.509804 0.007843 0.356863
0.568627 0.007843 0.356863
0.615686 0.007843 0.356863
0.650980 0.007843 0.356863
0.686275 0.007843 0.356863
0.725490 0.007843 0.356863
0.768627 0.007843 0.356863
0.815686 0.007843 0.356863
0.862745 0.007843 0.356863
0.905882 0.007843 0.356863
0.925490 0.007843 0.356863
0.000000 0.047059 0.356863
0.109804 0.047059 0.356863
0.231373 0.047059 0.356863
0.341176 0.047059 0.356863
0.435294 0.047059 0.356863
0.509804 0.047059 0.356863
0.568627 0.047059 0.356863
0.615686 0.047059 0.356863
0.650980 0.047059 0.356863
0.686275 0.047059 0.356863
0.725490 0.047059 0.356863
0.768627 0.047059 0.356863
0.815686 0.047059 0.356863
0.862745 0.047059 0.356863
0.905882 0.047059 0.356863
0.925490 0.047059 0.356863
0.000000 0.137255 0.356863
0.109804 0.137255 0.356863
0.231373 0.137255 0.356863
0.341176 0.137255 0.356863
0.435294 0.137255 0.356863
0.509804 0.137255 0.356863
0.568627 0.137255 0.356863
0.615686 0.137255 0.356863
0.650980 0.137255 0.356863
0.686275 0.137255 0.356863
0.725490 0.137255 0.356863
0.768627 0.137255 0.356863
0.815686 0.137255 0.356863
0.862745 0.137255 0.356863
0.905882 0.137255 0.356863
0.925490 0.137255 0.356863
0.000000 0.254902 0.356863
0.109804 0.254902 0.356863
0.231373 0.254902 0.356863
0.341176 0.254902 0.356863
0.435294 0.254902 0.356863
0.509804 0.254902 0.356863
0.568627 0.254902 0.356863
0.615686 0.254902 0.356863
0.650980 0.254902 0.356863
0.686275 0.254902 0.356863
0.725490 0.254902 0.356863
0.768627 0.254902 0.356863
0.815686 0.254902 0.356863
0.862745 0.254902 0.356863
0.905882 0.254902 0.356863
0.925490 0.254902 0.356863
0.000000 0.376471 0.356863
0.109804 0.376471 0.356863
0.231373 0.376471 0.356863
0.341176 0.376471 0.356863
0.435294 0.376471 0.356863
0.509804 0.376471 0.356863
0.568627 0.376471 0.356863
0.615686 0.376471 0.356863
0.650980 0.376471 0.356863
0.686275 0.376471 0.356863
0.725490 0.376471 0.356863
0.768627 0.376471 0.356863
0.815686 0.376471 0.356863
0.862745 0.376471 0.356863
0.905882 0.376471 0.356863
0.925490 0.376471 0.356863
0.000000 0.486275 0.356863
0.109804 0.486275 0.356863
0.231373 0.486275 0.356863
0.341176 0.486275 0.356863
0.435294 0.486275 0.356863
0.509804 0.486275 0.356863
0.568627 0.486275 0.356863
0.615686 0.486275 0.356863
0.650980 0.486275 0.356863
0.686275 0.486275 0.356863
0.725490 0.486275 0.356863
0.768627 0.486275 0.356863
0.815686 0.486275 0.356863
0.862745 0.486275 0.356863
0.905882 0.486275 0.356863
0.925490 0.486275 0.356863
0.000000 0.580392 0.356863
0.109804 0.580392 0.356863
0.231373 0.580392 0.356863
0.341176 0.580392 0.356863
0.435294 0.580392 0.356863
0.509804 0.580392 0.356863
0.568627 0.580392 0.356863
0.615686 0.580392 0.356863
0.650980 0.580392 0.356863
0.686275 0.580392 0.356863
0.725490 0.580392 0.356863
0.768627 0.580392 0.356863
0.815686 0.580392 0.356863
0.862745 0.580392 0.356863
0.905882 0.580392 0.356863
0.925490 0.580392 0.356863
0.000000 0.654902 0.356863
0.109804 0.654902 0.356863
0.231373 0.654902 0.356863
0.341176 0.654902 0.356863
0.435294 0.654902 0.356863
0.509804 0.654902 0.356863
