luts/tonal.cube
TITLE "tonal"
LUT_3D_SIZE 16
DOMAIN_MIN 0.0 0.0 0.0
DOMAIN_MAX 1.0 1.0 1.0
0.094118 0.094118 0.094118
0.109804 0.109804 0.109804
0.129412 0.129412 0.129412
0.149020 0.149020 0.149020
0.168627 0.168627 0.168627
0.188235 0.188235 0.188235
0.207843 0.207843 0.207843
0.227451 0.227451 0.227451
0.250980 0.250980 0.250980
0.270588 0.270588 0.270588
0.290196 0.290196 0.290196
0.309804 0.309804 0.309804
0.333333 0.333333 0.333333
0.356863 0.356863 0.356863
0.376471 0.376471 0.376471
0.396078 0.396078 0.396078
0.125490 0.125490 0.125490
0.145098 0.145098 0.145098
0.168627 0.168627 0.168627
0.184314 0.184314 0.184314
0.203922 0.203922 0.203922
0.223529 0.223529 0.223529
0.247059 0.247059 0.247059
0.266667 0.266667 0.266667
0.286275 0.286275 0.286275
0.309804 0.309804 0.309804
0.329412 0.329412 0.329412
0.352941 0.352941 0.352941
0.376471 0.376471 0.376471
0.396078 0.396078 0.396078
0.415686 0.415686 0.415686
0.435294 0.435294 0.435294
0.168627 0.168627 0.168627
0.184314 0.184314 0.184314
0.207843 0.207843 0.207843
0.223529 0.223529 0.223529
0.247059 0.247059 0.247059
0.266667 0.266667 0.266667
0.290196 0.290196 0.290196
0.309804 0.309804 0.309804
0.329412 0.329412 0.329412
0.352941 0.352941 0.352941
0.376471 0.376471 0.376471
0.396078 0.396078 0.396078
0.415686 0.415686 0.415686
0.435294 0.435294 0.435294
0.458824 0.458824 0.458824
0.482353 0.482353 0.482353
0.203922 0.203922 0.203922
0.223529 0.223529 0.223529
0.247059 0.247059 0.247059
0.266667 0.266667 0.266667
0.290196 0.290196 0.290196
0.309804 0.309804 0.309804
0.329412 0.329412 0.329412
0.349020 0.349020 0.349020
0.372549 0.372549 0.372549
0.392157 0.392157 0.392157
0.415686 0.415686 0.415686
0.435294 0.435294 0.435294
0.458824 0.458824 0.458824
0.478431 0.478431 0.478431
0.501961 0.501961 0.501961
0.521569 0.521569 0.521569
0.243137 0.243137 0.243137
0.266667 0.266667 0.266667
0.290196 0.290196 0.290196
0.309804 0.309804 0.309804
0.329412 0.329412 0.329412
0.349020 0.349020 0.349020
0.372549 0.372549 0.372549
0.392157 0.392157 0.392157
0.415686 0.415686 0.415686
0.435294 0.435294 0.435294
0.458824 0.458824 0.458824
0.482353 0.482353 0.482353
0.501961 0.501961 0.501961
0.521569 0.521569 0.521569
0.545098 0.545098 0.545098
0.564706 0.564706 0.564706
0.286275 0.286275 0.286275
0.305882 0.305882 0.305882
0.329412 0.329412 0.329412
0.349020 0.349020 0.349020
0.368627 0.368627 0.368627
0.392157 0.392157 0.392157
0.411765 0.411765 0.411765
0.435294 0.435294 0.435294
0.454902 0.454902 0.454902
0.478431 0.478431 0.478431
0.498039 0.498039 0.498039
0.521569 0.521569 0.521569
0.541176 0.541176 0.541176
0.560784 0.560784 0.560784
0.584314 0.584314 0.584314
0.603922 0.603922 0.603922
0.329412 0.329412 0.329412
0.349020 0.349020 0.349020
0.368627 0.368627 0.368627
0.392157 0.392157 0.392157
0.415686 0.415686 0.415686
0.435294 0.435294 0.435294
0.454902 0.454902 0.454902
0.478431 0.478431 0.478431
0.501961 0.501961 0.501961
0.521569 0.521569 0.521569
0.541176 0.541176 0.541176
0.560784 0.560784 0.560784
0.584314 0.584314 0.584314
0.603922 0.603922 0.603922
0.623529 0.623529 0.623529
0.643137 0.643137 0.643137
0.368627 0.368627 0.368627
0.392157 0.392157 0.392157
0.411765 0.411765 0.411765
0.431373 0.431373 0.431373
0.454902 0.454902 0.454902
0.474510 0.474510 0.474510
0.498039 0.498039 0.498039
0.517647 0.517647 0.517647
0.541176 0.541176 0.541176
0.560784 0.560784 0.560784
0.584314 0.584314 0.584314
0.603922 0.603922 0.603922
0.619608 0.619608 0.619608
0.639216 0.639216 0.639216
0.658824 0.658824 0.658824
0.674510 0.674510 0.674510
0.411765 0.411765 0.411765
0.435294 0.435294 0.435294
0.454902 0.454902 0.454902
0.474510 0.474510 0.474510
0.498039 0.498039 0.498039
0.517647 0.517647 0.517647
0.541176 0.541176 0.541176
0.560784 0.560784 0.560784
0.584314 0.584314 0.584314
0.603922 0.603922 0.603922
0.619608 0.619608 0.619608
0.639216 0.639216 0.639216
0.658824 0.658824 0.658824
0.678431 0.678431 0.678431
0.694118 0.694118 0.694118
0.709804 0.709804 0.709804
0.454902 0.454902 0.454902
0.474510 0.474510 0.474510
0.494118 0.494118 0.494118
0.517647 0.517647 0.517647
0.541176 0.541176 0.541176
0.560784 0.560784 0.560784
0.580392 0.580392 0.580392
0.600000 0.600000 0.600000
0.619608 0.619608 0.619608
0.639216 0.639216 0.639216
0.658824 0.658824 0.658824
0.674510 0.674510 0.674510
0.690196 0.690196 0.690196
0.709804 0.709804 0.709804
0.725490 0.725490 0.725490
0.741176 0.741176 0.741176
0.494118 0.494118 0.494118
0.517647 0.517647 0.517647
0.541176 0.541176 0.541176
0.560784 0.560784 0.560784
0.580392 0.580392 0.580392
0.600000 0.600000 0.600000
0.619608 0.619608 0.619608
0.639216 0.639216 0.639216
0.658824 0.658824 0.658824
0.674510 0.674510 0.674510
0.694118 0.694118 0.694118
0.709804 0.709804 0.709804
0.725490 0.725490 0.725490
0.741176 0.741176 0.741176
0.756863 0.756863 0.756863
0.768627 0.768627 0.768627
0.537255 0.537255 0.537255
0.556863 0.556863 0.556863
0.580392 0.580392 0.580392
0.600000 0.600000 0.600000
0.619608 0.619608 0.619608
0.639216 0.639216 0.639216
0.658824 0.658824 0.658824
0.674510 0.674510 0.674510
0.690196 0.690196 0.690196
0.705882 0.705882 0.705882
0.721569 0.721569 0.721569
0.737255 0.737255 0.737255
0.756863 0.756863 0.756863
0.768627 0.768627 0.768627
0.780392 0.780392 0.780392
0.796078 0.796078 0.796078
0.580392 0.580392 0.580392
0.600000 0.600000 0.600000
0.619608 0.619608 0.619608
0.639216 0.639216 0.639216
0.658824 0.658824 0.658824
0.674510 0.674510 0.674510
0.690196 0.690196 0.690196
0.705882 0.705882 0.705882
0.721569 0.721569 0.721569
0.737255 0.737255 0.737255
0.756863 0.756863 0.756863
0.768627 0.768627 0.768627
0.784314 0.784314 0.784314
0.796078 0.796078 0.796078
0.807843 0.807843 0.807843
0.819608 0.819608 0.819608
0.615686 0.615686 0.615686
0.635294 0.635294 0.635294
0.654902 0.654902 0.654902
0.674510 0.674510 0.674510
0.690196 0.690196 0.690196
0.705882 0.705882 0.705882
0.721569 0.721569 0.721569
0.737255 0.737255 0.737255
0.752941 0.752941 0.752941
0.768627 0.768627 0.768627
0.780392 0.780392 0.780392
0.792157 0.792157 0.792157
0.807843 0.807843 0.807843
0.819608 0.819608 0.819608
0.831373 0.831373 0.831373
0.847059 0.847059 0.847059
0.654902 0.654902 0.654902
0.674510 0.674510 0.674510
0.690196 0.690196 0.690196
0.705882 0.705882 0.705882
0.721569 0.721569 0.721569
0.737255 0.737255 0.737255
0.752941 0.752941 0.752941
0.768627 0.768627 0.768627
0.780392 0.780392 0.780392
0.796078 0.796078 0.796078
0.807843 0.807843 0.807843
0.819608 0.819608 0.819608
0.831373 0.831373 0.831373
0.847059 0.847059 0.847059
0.854902 0.854902 0.854902
0.866667 0.866667 0.866667
0.690196 0.690196 0.690196
0.705882 0.705882 0.705882
0.721569 0.721569 0.721569
0.737255 0.737255 0.737255
0.752941 0.752941 0.752941
0.764706 0.764706 0.764706
0.780392 0.780392 0.780392
0.792157 0.792157 0.792157
0.807843 0.807843 0.807843
0.819608 0.819608 0.819608
0.831373 0.831373 0.831373
0.843137 0.843137 0.843137
0.854902 0.854902 0.854902
0.866667 0.866667 0.866667
0.874510 0.874510 0.874510
0.882353 0.882353 0.882353
0.098039 0.098039 0.098039
0.117647 0.117647 0.117647
0.133333 0.133333 0.133333
0.152941 0.152941 0.152941
0.176471 0.176471 0.176471
0.196078 0.196078 0.196078
0.215686 0.215686 0.215686
0.235294 0.235294 0.235294
0.254902 0.254902 0.254902
0.274510 0.274510 0.274510
0.298039 0.298039 0.298039
0.317647 0.317647 0.317647
0.337255 0.337255 0.337255
0.364706 0.364706 0.364706
0.384314 0.384314 0.384314
0.403922 0.403922 0.403922
0.133333 0.133333 0.133333
0.152941 0.152941 0.152941
0.172549 0.172549 0.172549
0.192157 0.192157 0.192157
0.211765 0.211765 0.211765
0.231373 0.231373 0.231373
0.254902 0.254902 0.254902
0.274510 0.274510 0.274510
0.298039 0.298039 0.298039
0.317647 0.317647 0.317647
0.337255 0.337255 0.337255
0.360784 0.360784 0.360784
0.380392 0.380392 0.380392
0.403922 0.403922 0.403922
0.423529 0.423529 0.423529
0.443137 0.443137 0.443137
0.172549 0.172549 0.172549
0.192157 0.192157 0.192157
0.211765 0.211765 0.211765
0.231373 0.231373 0.231373
0.254902 0.254902 0.254902
0.274510 0.274510 0.274510
0.298039 0.298039 0.298039
0.317647 0.317647 0.317647
0.337255 0.337255 0.337255
0.360784 0.360784 0.360784
0.384314 0.384314 0.384314
0.403922 0.403922 0.403922
0.423529 0.423529 0.423529
0.443137 0.443137 0.443137
0.470588 0.470588 0.470588
0.490196 0.490196 0.490196
0.211765 0.211765 0.211765
0.231373 0.231373 0.231373
0.254902 0.254902 0.254902
0.274510 0.274510 0.274510
0.294118 0.294118 0.294118
0.317647 0.317647 0.317647
0.337255 0.337255 0.337255
0.360784 0.360784 0.360784
0.380392 0.380392 0.380392
0.400000 0.400000 0.400000
0.423529 0.423529 0.423529
0.443137 0.443137 0.443137
0.466667 0.466667 0.466667
0.486275 0.486275 0.486275
0.509804 0.509804 0.509804
0.529412 0.529412 0.529412
0.250980 0.250980 0.250980
0.274510 0.274510 0.274510
0.298039 0.298039 0.298039
0.317647 0.317647 0.317647
0.337255 0.337255 0.337255
0.356863 0.356863 0.356863
0.380392 0.380392 0.380392
0.400000 0.400000 0.400000
0.423529 0.423529 0.423529
0.443137 0.443137 0.443137
0.466667 0.466667 0.466667
0.486275 0.486275 0.486275
0.509804 0.509804 0.509804
0.529412 0.529412 0.529412
0.552941 0.552941 0.552941
0.572549 0.572549 0.572549
0.294118 0.294118 0.294118
0.313725 0.313725 0.313725
0.333333 0.333333 0.333333
0.356863 0.356863 0.356863
0.380392 0.380392 0.380392
0.400000 0.400000 0.400000
0.423529 0.423529 0.423529
0.443137 0.443137 0.443137
0.462745 0.462745 0.462745
0.486275 0.486275 0.486275
0.505882 0.505882 0.505882
0.525490 0.525490 0.525490
0.549020 0.549020 0.549020
0.568627 0.568627 0.568627
0.592157 0.592157 0.592157
0.611765 0.611765 0.611765
0.337255 0.337255 0.337255
0.356863 0.356863 0.356863
0.376471 0.376471 0.376471
0.400000 0.400000 0.400000
0.423529 0.423529 0.423529
0.443137 0.443137 0.443137
0.462745 0.462745 0.462745
0.486275 0.486275 0.486275
0.509804 0.509804 0.509804
0.529412 0.529412 0.529412
0.549020 0.549020 0.549020
0.572549 0.572549 0.572549
0.592157 0.592157 0.592157
0.611765 0.611765 0.611765
0.631373 0.631373 0.631373
0.650980 0.650980 0.650980
0.376471 0.376471 0.376471
0.400000 0.400000 0.400000
0.419608 0.419608 0.419608
0.439216 0.439216 0.439216
0.462745 0.462745 0.462745
0.482353 0.482353 0.482353
0.505882 0.505882 0.505882
0.525490 0.525490 0.525490
0.549020 0.549020 0.549020
0.568627 0.568627 0.568627
0.588235 0.588235 0.588235
0.607843 0.607843 0.607843
0.627451 0.627451 0.627451
0.647059 0.647059 0.647059
0.666667 0.666667 0.666667
0.682353 0.682353 0.682353
0.419608 0.419608 0.419608
0.443137 0.443137 0.443137
0.462745 0.462745 0.462745
0.482353 0.482353 0.482353
0.505882 0.505882 0.505882
0.525490 0.525490 0.525490
0.549020 0.549020 0.549020
0.568627 0.568627 0.568627
0.592157 0.592157 0.592157
0.607843 0.607843 0.607843
0.631373 0.631373 0.631373
0.647059 0.647059 0.647059
0.666667 0.666667 0.666667
0.682353 0.682353 0.682353
0.698039 0.698039 0.698039
0.713725 0.713725 0.713725
0.462745 0.462745 0.462745
0.482353 0.482353 0.482353
0.501961 0.501961 0.501961
0.525490 0.525490 0.525490
0.549020 0.549020 0.549020
0.568627 0.568627 0.568627
0.588235 0.588235 0.588235
0.607843 0.607843 0.607843
0.627451 0.627451 0.627451
0.647059 0.647059 0.647059
0.662745 0.662745 0.662745
0.682353 0.682353 0.682353
0.698039 0.698039 0.698039
0.713725 0.713725 0.713725
0.729412 0.729412 0.729412
0.745098 0.745098 0.745098
0.501961 0.501961 0.501961
0.525490 0.525490 0.525490
0.549020 0.549020 0.549020
0.568627 0.568627 0.568627
0.588235 0.588235 0.588235
0.607843 0.607843 0.607843
0.627451 0.627451 0.627451
0.647059 0.647059 0.647059
0.666667 0.666667 0.666667
0.682353 0.682353 0.682353
0.698039 0.698039 0.698039
0.713725 0.713725 0.713725
0.729412 0.729412 0.729412
0.745098 0.745098 0.745098
0.760784 0.760784 0.760784
0.772549 0.772549 0.772549
0.545098 0.545098 0.545098
0.564706 0.564706 0.564706
0.588235 0.588235 0.588235
0.607843 0.607843 0.607843
0.627451 0.627451 0.627451
0.643137 0.643137 0.643137
0.662745 0.662745 0.662745
0.678431 0.678431 0.678431
0.698039 0.698039 0.698039
0.713725 0.713725 0.713725
0.729412 0.729412 0.729412
0.745098 0.745098 0.745098
0.760784 0.760784 0.760784
0.772549 0.772549 0.772549
0.788235 0.788235 0.788235
0.800000 0.800000 0.800000
0.588235 0.588235 0.588235
0.603922 0.603922 0.603922
0.623529 0.623529 0.623529
0.643137 0.643137 0.643137
0.662745 0.662745 0.662745
0.678431 0.678431 0.678431
0.698039 0.698039 0.698039
0.713725 0.713725 0.713725
0.729412 0.729412 0.729412
0.741176 0.741176 0.741176
0.760784 0.760784 0.760784
0.772549 0.772549 0.772549
0.788235 0.788235 0.788235
0.800000 0.800000 0.800000
0.811765 0.811765 0.811765
0.823529 0.823529 0.823529
0.623529 0.623529 0.623529
0.643137 0.643137 0.643137
0.662745 0.662745 0.662745
0.678431 0.678431 0.678431
0.694118 0.694118 0.694118
0.709804 0.709804 0.709804
0.725490 0.725490 0.725490
0.745098 0.745098 0.745098
0.760784 0.760784 0.760784
0.772549 0.772549 0.772549
0.784314 0.784314 0.784314
0.800000 0.800000 0.800000
0.811765 0.811765 0.811765
0.823529 0.823529 0.823529
0.835294 0.835294 0.835294
0.850980 0.850980 0.850980
0.662745 0.662745 0.662745
0.678431 0.678431 0.678431
0.698039 0.698039 0.698039
0.709804 0.709804 0.709804
0.729412 0.729412 0.729412
0.741176 0.741176 0.741176
0.760784 0.760784 0.760784
0.772549 0.772549 0.772549
0.788235 0.788235 0.788235
0.800000 0.800000 0.800000
0.811765 0.811765 0.811765
0.823529 0.823529 0.823529
0.835294 0.835294 0.835294
0.850980 0.850980 0.850980
0.858824 0.858824 0.858824
0.870588 0.870588 0.870588
0.694118 0.694118 0.694118
0.709804 0.709804 0.709804
0.725490 0.725490 0.725490
0.741176 0.741176 0.741176
0.756863 0.756863 0.756863
0.772549 0.772549 0.772549
0.784314 0.784314 0.784314
0.800000 0.800000 0.800000
0.811765 0.811765 0.811765
0.823529 0.823529 0.823529
0.835294 0.835294 0.835294
0.847059 0.847059 0.847059
0.858824 0.858824 0.858824
0.870588 0.870588 0.870588
0.878431 0.878431 0.878431
0.886275 0.886275 0.886275
0.105882 0.105882 0.105882
0.121569 0.121569 0.121569
0.141176 0.141176 0.141176
0.164706 0.164706 0.164706
0.184314 0.184314 0.184314
0.203922 0.203922 0.203922
0.223529 0.223529 0.223529
0.243137 0.243137 0.243137
0.262745 0.262745 0.262745
0.286275 0.286275 0.286275
0.305882 0.305882 0.305882
0.325490 0.325490 0.325490
0.349020 0.349020 0.349020
0.372549 0.372549 0.372549
0.392157 0.392157 0.392157
0.411765 0.411765 0.411765
0.141176 0.141176 0.141176
0.160784 0.160784 0.160784
0.180392 0.180392 0.180392
0.200000 0.200000 0.200000
0.219608 0.219608 0.219608
0.243137 0.243137 0.243137
0.262745 0.262745 0.262745
0.282353 0.282353 0.282353
0.305882 0.305882 0.305882
0.325490 0.325490 0.325490
0.349020 0.349020 0.349020
0.368627 0.368627 0.368627
0.388235 0.388235 0.388235
0.411765 0.411765 0.411765
0.431373 0.431373 0.431373
0.454902 0.454902 0.454902
0.180392 0.180392 0.180392
0.200000 0.200000 0.200000
0.219608 0.219608 0.219608
0.239216 0.239216 0.239216
0.262745 0.262745 0.262745
0.282353 0.282353 0.282353
0.305882 0.305882 0.305882
0.325490 0.325490 0.325490
0.345098 0.345098 0.345098
0.368627 0.368627 0.368627
0.392157 0.392157 0.392157
0.411765 0.411765 0.411765
0.431373 0.431373 0.431373
0.454902 0.454902 0.454902
0.478431 0.478431 0.478431
0.498039 0.498039 0.498039
0.219608 0.219608 0.219608
0.239216 0.239216 0.239216
0.262745 0.262745 0.262745
0.282353 0.282353 0.282353
0.305882 0.305882 0.305882
0.325490 0.325490 0.325490
0.345098 0.345098 0.345098
0.368627 0.368627 0.368627
0.388235 0.388235 0.388235
0.407843 0.407843 0.407843
0.431373 0.431373 0.431373
0.454902 0.454902 0.454902
0.474510 0.474510 0.474510
0.494118 0.494118 0.494118
0.517647 0.517647 0.517647
0.537255 0.537255 0.537255
0.258824 0.258824 0.258824
0.282353 0.282353 0.282353
0.305882 0.305882 0.305882
0.325490 0.325490 0.325490
0.345098 0.345098 0.345098
0.364706 0.364706 0.364706
0.388235 0.388235 0.388235
0.407843 0.407843 0.407843
0.431373 0.431373 0.431373
0.450980 0.450980 0.450980
0.474510 0.474510 0.474510
0.498039 0.498039 0.498039
0.517647 0.517647 0.517647
0.537255 0.537255 0.537255
0.560784 0.560784 0.560784
0.580392 0.580392 0.580392
0.301961 0.301961 0.301961
0.321569 0.321569 0.321569
0.345098 0.345098 0.345098
0.364706 0.364706 0.364706
0.388235 0.388235 0.388235
0.407843 0.407843 0.407843
0.431373 0.431373 0.431373
0.450980 0.450980 0.450980
0.470588 0.470588 0.470588
0.494118 0.494118 0.494118
0.513725 0.513725 0.513725
0.537255 0.537255 0.537255
0.556863 0.556863 0.556863
0.576471 0.576471 0.576471
0.600000 0.600000 0.600000
0.615686 0.615686 0.615686
0.345098 0.345098 0.345098
0.364706 0.364706 0.364706
0.388235 0.388235 0.388235
0.407843 0.407843 0.407843
0.431373 0.431373 0.431373
0.450980 0.450980 0.450980
0.474510 0.474510 0.474510
0.494118 0.494118 0.494118
0.517647 0.517647 0.517647
0.537255 0.537255 0.537255
0.556863 0.556863 0.556863
0.580392 0.580392 0.580392
0.600000 0.600000 0.600000
0.619608 0.619608 0.619608
0.639216 0.639216 0.639216
0.654902 0.654902 0.654902
0.384314 0.384314 0.384314
0.407843 0.407843 0.407843
0.427451 0.427451 0.427451
0.450980 0.450980 0.450980
0.470588 0.470588 0.470588
0.490196 0.490196 0.490196
0.513725 0.513725 0.513725
0.533333 0.533333 0.533333
0.556863 0.556863 0.556863
0.576471 0.576471 0.576471
0.596078 0.596078 0.596078
0.615686 0.615686 0.615686
0.635294 0.635294 0.635294
0.654902 0.654902 0.654902
0.674510 0.674510 0.674510
0.690196 0.690196 0.690196
0.427451 0.427451 0.427451
0.450980 0.450980 0.450980
0.470588 0.470588 0.470588
0.490196 0.490196 0.490196
0.513725 0.513725 0.513725
0.533333 0.533333 0.533333
0.556863 0.556863 0.556863
0.576471 0.576471 0.576471
0.600000 0.600000 0.600000
0.615686 0.615686 0.615686
0.635294 0.635294 0.635294
0.654902 0.654902 0.654902
0.674510 0.674510 0.674510
0.690196 0.690196 0.690196
0.705882 0.705882 0.705882
0.721569 0.721569 0.721569
0.470588 0.470588 0.470588
0.490196 0.490196 0.490196
0.513725 0.513725 0.513725
0.533333 0.533333 0.533333
0.556863 0.556863 0.556863
0.576471 0.576471 0.576471
0.596078 0.596078 0.596078
0.615686 0.615686 0.615686
0.635294 0.635294 0.635294
0.654902 0.654902 0.654902
0.670588 0.670588 0.670588
0.686275 0.686275 0.686275
0.705882 0.705882 0.705882
0.721569 0.721569 0.721569
0.737255 0.737255 0.737255
0.749020 0.749020 0.749020
0.509804 0.509804 0.509804
0.533333 0.533333 0.533333
0.556863 0.556863 0.556863
0.576471 0.576471 0.576471
0.596078 0.596078 0.596078
0.615686 0.615686 0.615686
0.635294 0.635294 0.635294
0.654902 0.654902 0.654902
0.670588 0.670588 0.670588
0.690196 0.690196 0.690196
0.705882 0.705882 0.705882
0.721569 0.721569 0.721569
0.737255 0.737255 0.737255
0.752941 0.752941 0.752941
0.768627 0.768627 0.768627
0.780392 0.780392 0.780392
0.552941 0.552941 0.552941
0.572549 0.572549 0.572549
0.596078 0.596078 0.596078
0.615686 0.615686 0.615686
0.635294 0.635294 0.635294
0.650980 0.650980 0.650980
0.670588 0.670588 0.670588
0.686275 0.686275 0.686275
0.701961 0.701961 0.701961
0.717647 0.717647 0.717647
0.733333 0.733333 0.733333
0.749020 0.749020 0.749020
0.764706 0.764706 0.764706
0.780392 0.780392 0.780392
0.792157 0.792157 0.792157
0.803922 0.803922 0.803922
0.596078 0.596078 0.596078
0.611765 0.611765 0.611765
0.631373 0.631373 0.631373
0.650980 0.650980 0.650980
0.670588 0.670588 0.670588
0.686275 0.686275 0.686275
0.701961 0.701961 0.701961
0.717647 0.717647 0.717647
0.733333 0.733333 0.733333
0.749020 0.749020 0.749020
0.764706 0.764706 0.764706
0.780392 0.780392 0.780392
0.792157 0.792157 0.792157
0.803922 0.803922 0.803922
0.815686 0.815686 0.815686
0.831373 0.831373 0.831373
0.631373 0.631373 0.631373
0.650980 0.650980 0.650980
0.670588 0.670588 0.670588
0.686275 0.686275 0.686275
0.701961 0.701961 0.701961
0.717647 0.717647 0.717647
0.733333 0.733333 0.733333
0.749020 0.749020 0.749020
0.764706 0.764706 0.764706
0.776471 0.776471 0.776471
0.792157 0.792157 0.792157
0.803922 0.803922 0.803922
0.815686 0.815686 0.815686
0.831373 0.831373 0.831373
0.843137 0.843137 0.843137
0.854902 0.854902 0.854902
0.670588 0.670588 0.670588
0.686275 0.686275 0.686275
0.701961 0.701961 0.701961
0.717647 0.717647 0.717647
0.733333 0.733333 0.733333
0.749020 0.749020 0.749020
0.764706 0.764706 0.764706
0.776471 0.776471 0.776471
0.792157 0.792157 0.792157
0.803922 0.803922 0.803922
0.819608 0.819608 0.819608
0.831373 0.831373 0.831373
0.843137 0.843137 0.843137
0.854902 0.854902 0.854902
0.862745 0.862745 0.862745
0.874510 0.874510 0.874510
0.701961 0.701961 0.701961
0.717647 0.717647 0.717647
0.733333 0.733333 0.733333
0.749020 0.749020 0.749020
0.764706 0.764706 0.764706
0.776471 0.776471 0.776471
0.792157 0.792157 0.792157
0.803922 0.803922 0.803922
0.815686 0.815686 0.815686
0.827451 0.827451 0.827451
0.839216 0.839216 0.839216
0.850980 0.850980 0.850980
0.862745 0.862745 0.862745
0.874510 0.874510 0.874510
0.882353 0.882353 0.882353
0.890196 0.890196 0.890196
0.113725 0.113725 0.113725
0.129412 0.129412 0.129412
0.149020 0.149020 0.149020
0.172549 0.172549 0.172549
0.192157 0.192157 0.192157
0.207843 0.207843 0.207843
0.231373 0.231373 0.231373
0.250980 0.250980 0.250980
0.270588 0.270588 0.270588
0.294118 0.294118 0.294118
0.313725 0.313725 0.313725
0.333333 0.333333 0.333333
0.356863 0.356863 0.356863
0.376471 0.376471 0.376471
0.400000 0.400000 0.400000
0.419608 0.419608 0.419608
0.149020 0.149020 0.149020
0.168627 0.168627 0.168627
0.188235 0.188235 0.188235
0.207843 0.207843 0.207843
0.227451 0.227451 0.227451
0.250980 0.250980 0.250980
0.270588 0.270588 0.270588
0.290196 0.290196 0.290196
0.313725 0.313725 0.313725
0.333333 0.333333 0.333333
0.356863 0.356863 0.356863
0.376471 0.376471 0.376471
0.396078 0.396078 0.396078
0.419608 0.419608 0.419608
0.439216 0.439216 0.439216
0.462745 0.462745 0.462745
0.188235 0.188235 0.188235
0.207843 0.207843 0.207843
0.227451 0.227451 0.227451
0.247059 0.247059 0.247059
0.270588 0.270588 0.270588
0.294118 0.294118 0.294118
0.313725 0.313725 0.313725
0.333333 0.333333 0.333333
0.356863 0.356863 0.356863
0.376471 0.376471 0.376471
0.400000 0.400000 0.400000
0.419608 0.419608 0.419608
0.439216 0.439216 0.439216
0.462745 0.462745 0.462745
0.486275 0.486275 0.486275
0.505882 0.505882 0.505882
0.227451 0.227451 0.227451
0.247059 0.247059 0.247059
0.270588 0.270588 0.270588
0.290196 0.290196 0.290196
0.309804 0.309804 0.309804
0.329412 0.329412 0.329412
0.356863 0.356863 0.356863
0.376471 0.376471 0.376471
0.396078 0.396078 0.396078
0.419608 0.419608 0.419608
0.439216 0.439216 0.439216
0.462745 0.462745 0.462745
0.482353 0.482353 0.482353
0.501961 0.501961 0.501961
0.525490 0.525490 0.525490
0.545098 0.545098 0.545098
0.270588 0.270588 0.270588
0.290196 0.290196 0.290196
0.313725 0.313725 0.313725
0.333333 0.333333 0.333333
0.352941 0.352941 0.352941
0.376471 0.376471 0.376471
0.396078 0.396078 0.396078
0.415686 0.415686 0.415686
0.439216 0.439216 0.439216
0.458824 0.458824 0.458824
0.482353 0.482353 0.482353
0.505882 0.505882 0.505882
0.525490 0.525490 0.525490
0.545098 0.545098 0.545098
0.568627 0.568627 0.568627
0.588235 0.588235 0.588235
0.309804 0.309804 0.309804
0.329412 0.329412 0.329412
0.352941 0.352941 0.352941
0.372549 0.372549 0.372549
0.396078 0.396078 0.396078
0.415686 0.415686 0.415686
0.439216 0.439216 0.439216
0.458824 0.458824 0.458824
0.478431 0.478431 0.478431
0.501961 0.501961 0.501961
0.521569 0.521569 0.521569
0.545098 0.545098 0.545098
0.564706 0.564706 0.564706
0.588235 0.588235 0.588235
0.607843 0.607843 0.607843
0.627451 0.627451 0.627451
0.352941 0.352941 0.352941
0.372549 0.372549 0.372549
0.396078 0.396078 0.396078
0.415686 0.415686 0.415686
0.439216 0.439216 0.439216
0.458824 0.458824 0.458824
0.482353 0.482353 0.482353
0.501961 0.501961 0.501961
0.525490 0.525490 0.525490
0.545098 0.545098 0.545098
0.568627 0.568627 0.568627
0.588235 0.588235 0.588235
0.607843 0.607843 0.607843
0.627451 0.627451 0.627451
0.647059 0.647059 0.647059
0.662745 0.662745 0.662745
0.396078 0.396078 0.396078
0.415686 0.415686 0.415686
0.435294 0.435294 0.435294
0.458824 0.458824 0.458824
0.478431 0.478431 0.478431
0.501961 0.501961 0.501961
