luts/tonal.cube
TITLE "tonal"
LUT_3D_SIZE 6
DOMAIN_MIN 0.0 0.0 0.0
DOMAIN_MAX 1.0 1.0 1.0
0.094118 0.094118 0.094118
0.149020 0.149020 0.149020
0.207843 0.207843 0.207843
0.270588 0.270588 0.270588
0.333333 0.333333 0.333333
0.396078 0.396078 0.396078
0.203922 0.203922 0.203922
0.266667 0.266667 0.266667
0.329412 0.329412 0.329412
0.392157 0.392157 0.392157
0.458824 0.458824 0.458824
0.521569 0.521569 0.521569
0.329412 0.329412 0.329412
0.392157 0.392157 0.392157
0.454902 0.454902 0.454902
0.521569 0.521569 0.521569
0.584314 0.584314 0.584314
0.643137 0.643137 0.643137
0.454902 0.454902 0.454902
0.517647 0.517647 0.517647
0.580392 0.580392 0.580392
0.639216 0.639216 0.639216
0.690196 0.690196 0.690196
0.741176 0.741176 0.741176
0.580392 0.580392 0.580392
0.639216 0.639216 0.639216
0.690196 0.690196 0.690196
0.737255 0.737255 0.737255
0.784314 0.784314 0.784314
0.819608 0.819608 0.819608
0.690196 0.690196 0.690196
0.737255 0.737255 0.737255
0.780392 0.780392 0.780392
0.819608 0.819608 0.819608
0.854902 0.854902 0.854902
0.882353 0.882353 0.882353
0.113725 0.113725 0.113725
0.172549 0.172549 0.172549
0.231373 0.231373 0.231373
0.294118 0.294118 0.294118
0.356863 0.356863 0.356863
0.419608 0.419608 0.419608
0.227451 0.227451 0.227451
0.290196 0.290196 0.290196
0.356863 0.356863 0.356863
0.419608 0.419608 0.419608
0.482353 0.482353 0.482353
0.545098 0.545098 0.545098
0.352941 0.352941 0.352941
0.415686 0.415686 0.415686
0.482353 0.482353 0.482353
0.545098 0.545098 0.545098
0.607843 0.607843 0.607843
0.662745 0.662745 0.662745
0.478431 0.478431 0.478431
0.541176 0.541176 0.541176
0.603922 0.603922 0.603922
0.658824 0.658824 0.658824
0.709804 0.709804 0.709804
0.756863 0.756863 0.756863
0.600000 0.600000 0.600000
0.658824 0.658824 0.658824
0.709804 0.709804 0.709804
0.756863 0.756863 0.756863
0.796078 0.796078 0.796078
0.835294 0.835294 0.835294
0.705882 0.705882 0.705882
0.752941 0.752941 0.752941
0.796078 0.796078 0.796078
0.831373 0.831373 0.831373
0.866667 0.866667 0.866667
0.894118 0.894118 0.894118
0.133333 0.133333 0.133333
0.192157 0.192157 0.192157
0.254902 0.254902 0.254902
0.317647 0.317647 0.317647
0.380392 0.380392 0.380392
0.443137 0.443137 0.443137
0.250980 0.250980 0.250980
0.313725 0.313725 0.313725
0.380392 0.380392 0.380392
0.443137 0.443137 0.443137
0.505882 0.505882 0.505882
0.568627 0.568627 0.568627
0.376471 0.376471 0.376471
0.443137 0.443137 0.443137
0.505882 0.505882 0.505882
0.568627 0.568627 0.568627
0.627451 0.627451 0.627451
0.682353 0.682353 0.682353
0.501961 0.501961 0.501961
0.564706 0.564706 0.564706
0.627451 0.627451 0.627451
0.678431 0.678431 0.678431
0.729412 0.729412 0.729412
0.772549 0.772549 0.772549
0.623529 0.623529 0.623529
0.678431 0.678431 0.678431
0.725490 0.725490 0.725490
0.772549 0.772549 0.772549
0.811765 0.811765 0.811765
0.847059 0.847059 0.847059
0.725490 0.725490 0.725490
0.768627 0.768627 0.768627
0.811765 0.811765 0.811765
0.847059 0.847059 0.847059
0.878431 0.878431 0.878431
0.901961 0.901961 0.901961
0.156863 0.156863 0.156863
0.215686 0.215686 0.215686
0.278431 0.278431 0.278431
0.341176 0.341176 0.341176
0.407843 0.407843 0.407843
0.470588 0.470588 0.470588
0.274510 0.274510 0.274510
0.337255 0.337255 0.337255
0.403922 0.403922 0.403922
0.466667 0.466667 0.466667
0.529412 0.529412 0.529412
0.596078 0.596078 0.596078
0.403922 0.403922 0.403922
0.466667 0.466667 0.466667
0.529412 0.529412 0.529412
0.592157 0.592157 0.592157
0.650980 0.650980 0.650980
0.701961 0.701961 0.701961
0.529412 0.529412 0.529412
0.588235 0.588235 0.588235
0.647059 0.647059 0.647059
0.698039 0.698039 0.698039
0.745098 0.745098 0.745098
0.788235 0.788235 0.788235
0.647059 0.647059 0.647059
0.698039 0.698039 0.698039
0.745098 0.745098 0.745098
0.788235 0.788235 0.788235
0.827451 0.827451 0.827451
0.858824 0.858824 0.858824
0.745098 0.745098 0.745098
0.784314 0.784314 0.784314
0.823529 0.823529 0.823529
0.858824 0.858824 0.858824
0.886275 0.886275 0.886275
0.909804 0.909804 0.909804
0.180392 0.180392 0.180392
0.239216 0.239216 0.239216
0.301961 0.301961 0.301961
0.364706 0.364706 0.364706
0.431373 0.431373 0.431373
0.494118 0.494118 0.494118
0.298039 0.298039 0.298039
0.364706 0.364706 0.364706
0.427451 0.427451 0.427451
0.490196 0.490196 0.490196
0.556863 0.556863 0.556863
0.615686 0.615686 0.615686
0.427451 0.427451 0.427451
0.490196 0.490196 0.490196
0.556863 0.556863 0.556863
0.615686 0.615686 0.615686
0.670588 0.670588 0.670588
0.721569 0.721569 0.721569
0.552941 0.552941 0.552941
0.611765 0.611765 0.611765
0.666667 0.666667 0.666667
0.717647 0.717647 0.717647
0.760784 0.760784 0.760784
0.803922 0.803922 0.803922
0.666667 0.666667 0.666667
0.717647 0.717647 0.717647
0.760784 0.760784 0.760784
0.803922 0.803922 0.803922
0.839216 0.839216 0.839216
0.870588 0.870588 0.870588
0.760784 0.760784 0.760784
0.800000 0.800000 0.800000
0.839216 0.839216 0.839216
0.870588 0.870588 0.870588
0.898039 0.898039 0.898039
0.917647 0.917647 0.917647
0.200000 0.200000 0.200000
0.262745 0.262745 0.262745
0.325490 0.325490 0.325490
0.392157 0.392157 0.392157
0.454902 0.454902 0.454902
0.517647 0.517647 0.517647
0.321569 0.321569 0.321569
0.388235 0.388235 0.388235
0.450980 0.450980 0.450980
0.513725 0.513725 0.513725
0.580392 0.580392 0.580392
0.639216 0.639216 0.639216
0.450980 0.450980 0.450980
0.513725 0.513725 0.513725
0.580392 0.580392 0.580392
0.635294 0.635294 0.635294
0.690196 0.690196 0.690196
0.737255 0.737255 0.737255
0.576471 0.576471 0.576471
0.631373 0.631373 0.631373
0.686275 0.686275 0.686275
0.737255 0.737255 0.737255
0.776471 0.776471 0.776471
0.819608 0.819608 0.819608
0.686275 0.686275 0.686275
0.737255 0.737255 0.737255
0.776471 0.776471 0.776471
0.815686 0.815686 0.815686
0.850980 0.850980 0.850980
0.882353 0.882353 0.882353
0.776471 0.776471 0.776471
0.815686 0.815686 0.815686
0.850980 0.850980 0.850980
0.882353 0.882353 0.882353
0.905882 0.905882 0.905882
0.921569 0.921569 0.921569
