luts/transfer.cube
TITLE "transfer"
LUT_3D_SIZE 6
DOMAIN_MIN 0.0 0.0 0.0
DOMAIN_MAX 1.0 1.0 1.0
0.003922 0.003922 0.011765
0.086275 0.003922 0.015686
0.450980 0.047059 0.050980
0.713725 0.090196 0.078431
0.854902 0.121569 0.090196
0.913725 0.129412 0.090196
0.011765 0.149020 0.023529
0.098039 0.152941 0.023529
0.454902 0.188235 0.054902
0.713725 0.215686 0.078431
0.854902 0.219608 0.090196
0.913725 0.200000 0.090196
0.047059 0.431373 0.050980
0.137255 0.431373 0.054902
0.454902 0.435294 0.054902
0.713725 0.458824 0.078431
0.854902 0.470588 0.090196
0.913725 0.462745 0.090196
0.070588 0.654902 0.074510
0.168627 0.658824 0.078431
0.478431 0.658824 0.078431
0.713725 0.662745 0.078431
0.854902 0.674510 0.090196
0.913725 0.670588 0.090196
0.086275 0.807843 0.086275
0.196078 0.807843 0.086275
0.498039 0.807843 0.086275
0.721569 0.807843 0.086275
0.854902 0.811765 0.090196
0.913725 0.811765 0.090196
0.086275 0.890196 0.086275
0.235294 0.894118 0.090196
0.517647 0.894118 0.090196
0.725490 0.894118 0.090196
0.850980 0.894118 0.090196
0.913725 0.894118 0.090196
0.015686 0.039216 0.125490
0.090196 0.027451 0.129412
0.450980 0.047059 0.176471
0.713725 0.094118 0.203922
0.858824 0.129412 0.215686
0.921569 0.141176 0.219608
0.019608 0.133333 0.113725
0.101961 0.145098 0.125490
0.466667 0.196078 0.188235
0.721569 0.223529 0.211765
0.862745 0.227451 0.223529
0.921569 0.207843 0.223529
0.047059 0.423529 0.164706
0.141176 0.435294 0.176471
0.466667 0.447059 0.188235
0.721569 0.470588 0.211765
0.866667 0.478431 0.223529
0.925490 0.474510 0.223529
0.070588 0.654902 0.196078
0.168627 0.658824 0.200000
0.490196 0.666667 0.207843
0.721569 0.674510 0.211765
0.866667 0.686275 0.223529
0.925490 0.682353 0.223529
0.086275 0.807843 0.207843
0.203922 0.815686 0.211765
0.509804 0.819608 0.219608
0.733333 0.819608 0.219608
0.866667 0.819608 0.223529
0.925490 0.819608 0.223529
0.086275 0.890196 0.207843
0.247059 0.905882 0.223529
0.525490 0.905882 0.223529
0.741176 0.905882 0.223529
0.862745 0.905882 0.223529
0.921569 0.905882 0.223529
0.047059 0.094118 0.290196
0.105882 0.078431 0.290196
0.454902 0.058824 0.349020
0.713725 0.109804 0.376471
0.858824 0.141176 0.392157
0.921569 0.145098 0.392157
0.047059 0.196078 0.290196
0.129412 0.203922 0.294118
0.462745 0.192157 0.360784
0.721569 0.219608 0.384314
0.866667 0.223529 0.392157
0.921569 0.211765 0.392157
0.054902 0.345098 0.239216
0.149020 0.360784 0.258824
0.490196 0.466667 0.380392
0.745098 0.494118 0.403922
0.886275 0.498039 0.411765
0.945098 0.494118 0.411765
0.082353 0.584314 0.290196
0.180392 0.607843 0.317647
0.509804 0.686275 0.400000
0.745098 0.690196 0.403922
0.886275 0.705882 0.411765
0.945098 0.701961 0.411765
0.094118 0.752941 0.321569
0.207843 0.784314 0.352941
0.533333 0.839216 0.411765
0.752941 0.839216 0.411765
0.886275 0.843137 0.411765
0.945098 0.843137 0.411765
0.094118 0.839216 0.329412
0.247059 0.890196 0.384314
0.549020 0.921569 0.411765
0.760784 0.921569 0.411765
0.886275 0.921569 0.411765
0.945098 0.921569 0.411765
0.078431 0.160784 0.454902
0.152941 0.160784 0.462745
0.462745 0.090196 0.541176
0.717647 0.129412 0.560784
0.862745 0.152941 0.572549
0.921569 0.160784 0.572549
0.078431 0.254902 0.454902
0.164706 0.258824 0.466667
0.466667 0.196078 0.541176
0.721569 0.211765 0.560784
0.862745 0.223529 0.572549
0.921569 0.223529 0.572549
0.074510 0.407843 0.415686
0.164706 0.419608 0.435294
0.498039 0.490196 0.556863
0.752941 0.498039 0.592157
0.894118 0.505882 0.600000
0.956863 0.498039 0.600000
0.090196 0.525490 0.376471
0.184314 0.541176 0.396078
0.529412 0.682353 0.564706
0.768627 0.713725 0.603922
0.909804 0.725490 0.611765
0.968627 0.721569 0.611765
0.105882 0.674510 0.392157
0.219608 0.701961 0.427451
0.549020 0.850980 0.596078
0.776471 0.862745 0.607843
0.909804 0.862745 0.611765
0.968627 0.862745 0.611765
0.109804 0.760784 0.400000
0.262745 0.811765 0.458824
0.560784 0.937255 0.603922
0.780392 0.945098 0.611765
0.909804 0.945098 0.611765
0.968627 0.945098 0.611765
0.105882 0.227451 0.607843
0.180392 0.231373 0.611765
0.423529 0.145098 0.678431
0.721569 0.149020 0.717647
0.866667 0.176471 0.729412
0.925490 0.180392 0.733333
0.105882 0.298039 0.607843
0.184314 0.301961 0.611765
0.423529 0.211765 0.678431
0.721569 0.215686 0.721569
0.866667 0.235294 0.729412
0.925490 0.239216 0.733333
0.098039 0.478431 0.592157
0.184314 0.486275 0.600000
0.517647 0.533333 0.701961
0.752941 0.498039 0.745098
0.894118 0.501961 0.752941
0.956863 0.494118 0.752941
0.098039 0.556863 0.521569
0.192157 0.572549 0.537255
0.537255 0.690196 0.694118
0.776471 0.729412 0.768627
0.921569 0.737255 0.780392
0.980392 0.733333 0.780392
0.105882 0.654902 0.498039
0.219608 0.674510 0.525490
0.552941 0.792157 0.678431
0.796078 0.878431 0.780392
0.929412 0.882353 0.788235
0.988235 0.882353 0.788235
0.109804 0.733333 0.498039
0.262745 0.772549 0.549020
0.572549 0.878431 0.690196
0.803922 0.960784 0.784314
0.929412 0.964706 0.788235
0.988235 0.964706 0.788235
0.117647 0.274510 0.717647
0.192157 0.278431 0.721569
0.407843 0.188235 0.784314
0.733333 0.184314 0.847059
0.866667 0.196078 0.847059
0.929412 0.200000 0.847059
0.117647 0.337255 0.717647
0.196078 0.337255 0.721569
0.411765 0.250980 0.788235
0.733333 0.243137 0.847059
0.866667 0.258824 0.847059
0.929412 0.258824 0.847059
0.113725 0.509804 0.705882
0.200000 0.513725 0.713725
0.525490 0.552941 0.811765
0.752941 0.498039 0.870588
0.894118 0.494118 0.874510
0.952941 0.486275 0.870588
0.109804 0.611765 0.654902
0.203922 0.623529 0.670588
0.552941 0.729412 0.815686
0.768627 0.741176 0.878431
0.921569 0.733333 0.894118
0.980392 0.733333 0.894118
0.109804 0.670588 0.603922
0.219608 0.694118 0.631373
0.556863 0.807843 0.780392
0.800000 0.878431 0.882353
0.937255 0.890196 0.909804
0.996078 0.890196 0.909804
0.109804 0.733333 0.596078
0.262745 0.772549 0.643137
0.572549 0.870588 0.776471
0.807843 0.945098 0.870588
0.937255 0.976471 0.913725
1.000000 0.976471 0.913725
