luts/transfer.cube
TITLE "transfer"
LUT_3D_SIZE 16
DOMAIN_MIN 0.0 0.0 0.0
DOMAIN_MAX 1.0 1.0 1.0
0.003922 0.003922 0.011765
0.023529 0.003922 0.011765
0.043137 0.003922 0.011765
0.086275 0.003922 0.015686
0.215686 0.019608 0.027451
0.329412 0.035294 0.043137
0.450980 0.047059 0.050980
0.552941 0.058824 0.062745
0.643137 0.078431 0.074510
0.713725 0.090196 0.078431
0.776471 0.109804 0.086275
0.827451 0.113725 0.090196
0.854902 0.121569 0.090196
0.874510 0.125490 0.090196
0.898039 0.129412 0.090196
0.913725 0.129412 0.090196
0.003922 0.023529 0.011765
0.023529 0.023529 0.011765
0.043137 0.023529 0.011765
0.086275 0.027451 0.015686
0.215686 0.039216 0.027451
0.329412 0.054902 0.043137
0.450980 0.066667 0.050980
0.552941 0.078431 0.062745
0.643137 0.098039 0.074510
0.713725 0.109804 0.078431
0.776471 0.125490 0.086275
0.827451 0.133333 0.090196
0.854902 0.141176 0.090196
0.874510 0.145098 0.090196
0.898039 0.149020 0.090196
0.913725 0.149020 0.090196
0.003922 0.054902 0.011765
0.023529 0.054902 0.011765
0.043137 0.054902 0.011765
0.086275 0.050980 0.019608
0.215686 0.070588 0.031373
0.333333 0.082353 0.043137
0.454902 0.101961 0.054902
0.552941 0.109804 0.062745
0.643137 0.121569 0.074510
0.713725 0.133333 0.078431
0.776471 0.149020 0.086275
0.827451 0.156863 0.090196
0.854902 0.160784 0.090196
0.874510 0.164706 0.090196
0.898039 0.168627 0.090196
0.913725 0.168627 0.090196
0.011765 0.149020 0.023529
0.031373 0.149020 0.023529
0.050980 0.149020 0.023529
0.098039 0.152941 0.023529
0.219608 0.160784 0.031373
0.333333 0.172549 0.043137
0.454902 0.188235 0.054902
0.552941 0.196078 0.062745
0.643137 0.207843 0.074510
0.713725 0.215686 0.078431
0.776471 0.219608 0.086275
0.827451 0.223529 0.090196
0.854902 0.219608 0.090196
0.874510 0.211765 0.090196
0.898039 0.203922 0.090196
0.913725 0.200000 0.090196
0.023529 0.247059 0.031373
0.043137 0.247059 0.031373
0.066667 0.247059 0.031373
0.113725 0.247059 0.035294
0.223529 0.250980 0.035294
0.333333 0.258824 0.043137
0.454902 0.270588 0.054902
0.552941 0.282353 0.062745
0.643137 0.294118 0.074510
0.713725 0.301961 0.078431
0.776471 0.301961 0.086275
0.827451 0.309804 0.090196
0.854902 0.305882 0.090196
0.874510 0.301961 0.090196
0.898039 0.301961 0.090196
0.913725 0.290196 0.090196
0.035294 0.337255 0.043137
0.054902 0.337255 0.043137
0.074510 0.337255 0.043137
0.125490 0.341176 0.047059
0.235294 0.341176 0.047059
0.337255 0.341176 0.047059
0.454902 0.349020 0.054902
0.552941 0.360784 0.062745
0.643137 0.372549 0.074510
0.713725 0.380392 0.078431
0.776471 0.384314 0.086275
0.827451 0.388235 0.090196
0.854902 0.392157 0.090196
0.874510 0.388235 0.090196
0.898039 0.384314 0.090196
0.913725 0.376471 0.090196
0.047059 0.431373 0.050980
0.066667 0.431373 0.050980
0.086275 0.431373 0.050980
0.137255 0.431373 0.054902
0.243137 0.431373 0.054902
0.349020 0.431373 0.054902
0.454902 0.435294 0.054902
0.552941 0.443137 0.062745
0.643137 0.454902 0.074510
0.713725 0.458824 0.078431
0.776471 0.466667 0.086275
0.827451 0.470588 0.090196
0.854902 0.470588 0.090196
0.874510 0.470588 0.090196
0.898039 0.466667 0.090196
0.913725 0.462745 0.090196
0.054902 0.509804 0.058824
0.074510 0.509804 0.058824
0.094118 0.509804 0.058824
0.149020 0.513725 0.062745
0.254902 0.513725 0.062745
0.356863 0.513725 0.062745
0.462745 0.517647 0.062745
0.552941 0.521569 0.066667
0.643137 0.529412 0.074510
0.713725 0.533333 0.078431
0.776471 0.541176 0.086275
0.827451 0.545098 0.090196
0.854902 0.545098 0.090196
0.874510 0.545098 0.090196
0.898039 0.545098 0.090196
0.913725 0.537255 0.090196
0.062745 0.592157 0.070588
0.082353 0.588235 0.070588
0.101961 0.592157 0.070588
0.160784 0.592157 0.070588
0.266667 0.592157 0.070588
0.368627 0.592157 0.070588
0.470588 0.592157 0.070588
0.556863 0.592157 0.070588
0.643137 0.596078 0.074510
0.713725 0.603922 0.078431
0.776471 0.611765 0.086275
0.827451 0.611765 0.090196
0.854902 0.615686 0.090196
0.874510 0.611765 0.090196
0.898039 0.611765 0.090196
0.913725 0.611765 0.090196
0.070588 0.654902 0.074510
0.090196 0.654902 0.074510
0.109804 0.654902 0.074510
0.168627 0.658824 0.078431
0.274510 0.658824 0.078431
0.376471 0.658824 0.078431
0.478431 0.658824 0.078431
0.564706 0.658824 0.078431
0.639216 0.658824 0.078431
0.713725 0.662745 0.078431
0.776471 0.666667 0.086275
0.827451 0.670588 0.090196
0.854902 0.674510 0.090196
0.874510 0.670588 0.090196
0.898039 0.670588 0.090196
0.913725 0.670588 0.090196
0.078431 0.709804 0.078431
0.094118 0.709804 0.078431
0.117647 0.709804 0.078431
0.176471 0.713725 0.078431
0.282353 0.713725 0.078431
0.380392 0.713725 0.078431
0.490196 0.713725 0.078431
0.572549 0.717647 0.078431
0.647059 0.717647 0.078431
0.713725 0.717647 0.078431
0.776471 0.717647 0.086275
0.827451 0.725490 0.090196
0.854902 0.725490 0.090196
0.874510 0.725490 0.090196
0.898039 0.725490 0.090196
0.913725 0.725490 0.090196
0.078431 0.760784 0.078431
0.098039 0.760784 0.078431
0.117647 0.760784 0.078431
0.184314 0.760784 0.082353
0.286275 0.760784 0.082353
0.392157 0.760784 0.082353
0.494118 0.760784 0.082353
0.576471 0.760784 0.082353
0.654902 0.760784 0.082353
0.713725 0.764706 0.082353
0.776471 0.764706 0.086275
0.827451 0.768627 0.090196
0.854902 0.768627 0.090196
0.874510 0.768627 0.090196
0.898039 0.768627 0.090196
0.913725 0.768627 0.090196
0.086275 0.807843 0.086275
0.101961 0.807843 0.086275
0.125490 0.807843 0.086275
0.196078 0.807843 0.086275
0.301961 0.807843 0.086275
0.400000 0.807843 0.086275
0.498039 0.807843 0.086275
0.580392 0.807843 0.086275
0.658824 0.807843 0.086275
0.721569 0.807843 0.086275
0.776471 0.807843 0.086275
0.827451 0.807843 0.090196
0.854902 0.811765 0.090196
0.874510 0.811765 0.090196
0.898039 0.811765 0.090196
0.913725 0.811765 0.090196
0.086275 0.843137 0.086275
0.101961 0.843137 0.086275
0.129412 0.843137 0.086275
0.207843 0.843137 0.090196
0.309804 0.843137 0.090196
0.403922 0.843137 0.090196
0.505882 0.843137 0.090196
0.588235 0.843137 0.090196
0.662745 0.843137 0.090196
0.725490 0.843137 0.090196
0.780392 0.843137 0.090196
0.823529 0.843137 0.090196
0.854902 0.843137 0.090196
0.874510 0.843137 0.090196
0.898039 0.843137 0.090196
0.913725 0.843137 0.090196
0.086275 0.870588 0.086275
0.105882 0.870588 0.086275
0.129412 0.870588 0.086275
0.219608 0.874510 0.090196
0.321569 0.874510 0.090196
0.411765 0.874510 0.090196
0.509804 0.874510 0.090196
0.596078 0.874510 0.090196
0.666667 0.874510 0.090196
0.725490 0.874510 0.090196
0.780392 0.874510 0.090196
0.827451 0.874510 0.090196
0.850980 0.874510 0.090196
0.874510 0.874510 0.090196
0.894118 0.874510 0.090196
0.913725 0.874510 0.090196
0.086275 0.890196 0.086275
0.105882 0.890196 0.086275
0.145098 0.894118 0.090196
0.235294 0.894118 0.090196
0.329412 0.894118 0.090196
0.419608 0.894118 0.090196
0.517647 0.894118 0.090196
0.596078 0.894118 0.090196
0.670588 0.894118 0.090196
0.725490 0.894118 0.090196
0.784314 0.894118 0.090196
0.831373 0.894118 0.090196
0.850980 0.894118 0.090196
0.874510 0.894118 0.090196
0.894118 0.894118 0.090196
0.913725 0.894118 0.090196
0.003922 0.003922 0.031373
0.023529 0.003922 0.031373
0.043137 0.003922 0.031373
0.086275 0.003922 0.035294
0.215686 0.019608 0.047059
0.329412 0.035294 0.062745
0.450980 0.047059 0.070588
0.552941 0.058824 0.082353
0.643137 0.078431 0.094118
0.713725 0.090196 0.098039
0.776471 0.109804 0.101961
0.827451 0.113725 0.109804
0.854902 0.121569 0.109804
0.874510 0.125490 0.109804
0.898039 0.129412 0.109804
0.913725 0.129412 0.109804
0.003922 0.023529 0.031373
0.023529 0.023529 0.031373
0.043137 0.023529 0.031373
0.086275 0.027451 0.035294
0.215686 0.039216 0.047059
0.329412 0.054902 0.062745
0.450980 0.066667 0.070588
0.552941 0.078431 0.082353
0.643137 0.098039 0.094118
0.713725 0.109804 0.098039
0.776471 0.125490 0.101961
0.827451 0.133333 0.109804
0.854902 0.141176 0.109804
0.874510 0.145098 0.109804
0.898039 0.149020 0.109804
0.913725 0.149020 0.109804
0.003922 0.054902 0.031373
0.023529 0.054902 0.031373
0.043137 0.054902 0.031373
0.086275 0.050980 0.039216
0.215686 0.066667 0.047059
0.333333 0.082353 0.062745
0.450980 0.098039 0.074510
0.552941 0.105882 0.086275
0.643137 0.121569 0.094118
0.713725 0.133333 0.098039
0.776471 0.149020 0.101961
0.827451 0.156863 0.109804
0.854902 0.160784 0.109804
0.874510 0.164706 0.109804
0.898039 0.168627 0.109804
0.913725 0.168627 0.109804
0.011765 0.149020 0.039216
0.031373 0.149020 0.039216
0.050980 0.149020 0.039216
0.098039 0.152941 0.047059
0.219608 0.160784 0.050980
0.333333 0.172549 0.062745
0.454902 0.188235 0.074510
0.552941 0.196078 0.086275
0.643137 0.207843 0.094118
0.713725 0.211765 0.098039
0.776471 0.219608 0.101961
0.827451 0.223529 0.109804
0.854902 0.219608 0.109804
0.874510 0.211765 0.109804
0.898039 0.203922 0.109804
0.913725 0.200000 0.109804
0.023529 0.247059 0.050980
0.043137 0.247059 0.050980
0.066667 0.247059 0.050980
0.113725 0.247059 0.054902
0.223529 0.247059 0.054902
0.333333 0.258824 0.062745
0.454902 0.270588 0.074510
0.552941 0.282353 0.086275
0.643137 0.294118 0.094118
0.713725 0.298039 0.098039
0.776471 0.301961 0.101961
0.827451 0.309804 0.109804
0.854902 0.305882 0.109804
0.874510 0.301961 0.109804
0.898039 0.301961 0.109804
0.913725 0.290196 0.109804
0.035294 0.337255 0.062745
0.054902 0.337255 0.062745
0.074510 0.337255 0.062745
0.125490 0.341176 0.066667
0.235294 0.341176 0.066667
0.337255 0.341176 0.066667
0.454902 0.349020 0.074510
0.552941 0.360784 0.086275
0.643137 0.372549 0.094118
0.713725 0.380392 0.098039
0.776471 0.384314 0.101961
0.827451 0.388235 0.109804
0.854902 0.392157 0.109804
0.874510 0.388235 0.109804
0.898039 0.384314 0.109804
0.913725 0.376471 0.109804
0.047059 0.431373 0.070588
0.066667 0.431373 0.070588
0.086275 0.431373 0.070588
0.137255 0.431373 0.074510
0.243137 0.431373 0.074510
0.349020 0.431373 0.074510
0.454902 0.435294 0.074510
0.552941 0.443137 0.086275
0.643137 0.454902 0.094118
0.713725 0.458824 0.098039
0.776471 0.466667 0.101961
0.827451 0.470588 0.109804
0.854902 0.470588 0.109804
0.874510 0.470588 0.109804
0.898039 0.466667 0.109804
0.913725 0.462745 0.109804
0.054902 0.509804 0.078431
0.074510 0.509804 0.078431
0.094118 0.509804 0.078431
0.149020 0.513725 0.082353
0.254902 0.513725 0.082353
0.356863 0.513725 0.082353
0.462745 0.517647 0.082353
0.552941 0.517647 0.086275
0.643137 0.529412 0.094118
0.713725 0.533333 0.098039
0.776471 0.541176 0.101961
0.827451 0.545098 0.109804
0.854902 0.545098 0.109804
0.874510 0.545098 0.109804
0.898039 0.545098 0.109804
0.913725 0.537255 0.109804
0.062745 0.588235 0.090196
0.082353 0.588235 0.090196
0.101961 0.592157 0.090196
0.160784 0.592157 0.090196
0.266667 0.592157 0.090196
0.368627 0.592157 0.090196
0.470588 0.592157 0.090196
0.556863 0.592157 0.090196
0.643137 0.596078 0.094118
0.713725 0.603922 0.098039
0.776471 0.611765 0.101961
0.827451 0.611765 0.109804
0.854902 0.615686 0.109804
0.874510 0.611765 0.109804
0.898039 0.611765 0.109804
0.913725 0.611765 0.109804
0.070588 0.654902 0.094118
0.090196 0.654902 0.094118
0.109804 0.654902 0.094118
0.168627 0.658824 0.094118
0.274510 0.658824 0.094118
0.376471 0.658824 0.094118
0.478431 0.658824 0.094118
0.564706 0.658824 0.094118
0.639216 0.658824 0.094118
0.713725 0.662745 0.098039
0.776471 0.666667 0.101961
0.827451 0.670588 0.109804
0.854902 0.674510 0.109804
0.874510 0.670588 0.109804
0.898039 0.670588 0.109804
0.913725 0.670588 0.109804
0.078431 0.709804 0.098039
0.094118 0.709804 0.098039
0.117647 0.709804 0.098039
0.176471 0.713725 0.098039
0.282353 0.713725 0.098039
0.380392 0.713725 0.098039
0.490196 0.713725 0.098039
0.572549 0.713725 0.098039
0.647059 0.717647 0.098039
0.713725 0.717647 0.098039
0.776471 0.717647 0.101961
0.827451 0.725490 0.109804
0.854902 0.725490 0.109804
0.874510 0.725490 0.109804
0.898039 0.725490 0.109804
0.913725 0.721569 0.109804
0.078431 0.760784 0.098039
0.098039 0.760784 0.098039
0.117647 0.760784 0.098039
0.184314 0.760784 0.101961
0.286275 0.760784 0.101961
0.392157 0.760784 0.101961
0.494118 0.760784 0.101961
0.576471 0.760784 0.101961
0.654902 0.760784 0.101961
0.713725 0.764706 0.101961
0.776471 0.764706 0.101961
0.827451 0.768627 0.109804
0.854902 0.768627 0.109804
0.874510 0.768627 0.109804
0.898039 0.768627 0.109804
0.913725 0.768627 0.109804
0.086275 0.807843 0.101961
0.101961 0.807843 0.101961
0.125490 0.807843 0.101961
0.196078 0.807843 0.105882
0.301961 0.807843 0.105882
0.400000 0.807843 0.105882
0.498039 0.807843 0.105882
0.580392 0.807843 0.105882
0.658824 0.807843 0.105882
0.721569 0.807843 0.105882
0.776471 0.807843 0.105882
0.827451 0.807843 0.109804
0.854902 0.811765 0.109804
0.874510 0.811765 0.109804
0.898039 0.811765 0.109804
0.913725 0.811765 0.109804
0.086275 0.843137 0.101961
0.101961 0.843137 0.101961
0.129412 0.843137 0.101961
0.207843 0.843137 0.109804
0.309804 0.843137 0.109804
0.403922 0.843137 0.109804
0.505882 0.843137 0.109804
0.588235 0.843137 0.109804
0.662745 0.843137 0.109804
0.725490 0.843137 0.109804
0.780392 0.843137 0.109804
0.823529 0.843137 0.109804
0.854902 0.843137 0.109804
0.874510 0.843137 0.109804
0.898039 0.843137 0.109804
0.913725 0.843137 0.109804
0.086275 0.870588 0.105882
0.105882 0.870588 0.105882
0.129412 0.870588 0.105882
0.219608 0.874510 0.109804
0.321569 0.874510 0.109804
0.411765 0.874510 0.109804
0.509804 0.874510 0.109804
0.596078 0.874510 0.109804
0.666667 0.874510 0.109804
0.725490 0.874510 0.109804
0.780392 0.874510 0.109804
0.827451 0.874510 0.109804
0.850980 0.874510 0.109804
0.874510 0.874510 0.109804
0.894118 0.874510 0.109804
0.913725 0.874510 0.109804
0.086275 0.890196 0.105882
0.105882 0.890196 0.105882
0.145098 0.894118 0.109804
0.235294 0.894118 0.109804
0.329412 0.894118 0.109804
0.419608 0.894118 0.109804
0.517647 0.894118 0.109804
0.596078 0.894118 0.109804
0.670588 0.894118 0.109804
0.725490 0.894118 0.109804
0.784314 0.894118 0.109804
0.831373 0.894118 0.109804
0.850980 0.894118 0.109804
0.874510 0.894118 0.109804
0.894118 0.894118 0.109804
0.913725 0.894118 0.109804
0.007843 0.015686 0.066667
0.027451 0.015686 0.066667
0.047059 0.015686 0.066667
0.082353 0.007843 0.070588
0.215686 0.019608 0.090196
0.329412 0.035294 0.101961
0.450980 0.047059 0.113725
0.552941 0.058824 0.121569
0.643137 0.078431 0.133333
0.713725 0.090196 0.141176
0.776471 0.109804 0.145098
0.831373 0.117647 0.156863
0.858824 0.129412 0.156863
0.878431 0.129412 0.156863
0.898039 0.133333 0.156863
0.917647 0.137255 0.156863
0.007843 0.039216 0.066667
0.027451 0.039216 0.066667
0.047059 0.039216 0.066667
0.082353 0.027451 0.070588
0.215686 0.039216 0.090196
0.329412 0.054902 0.101961
0.450980 0.066667 0.113725
0.552941 0.078431 0.121569
0.643137 0.098039 0.133333
0.713725 0.109804 0.141176
0.776471 0.129412 0.145098
0.831373 0.137255 0.156863
0.858824 0.149020 0.156863
0.878431 0.149020 0.156863
0.898039 0.149020 0.156863
0.917647 0.156863 0.156863
0.007843 0.058824 0.066667
0.027451 0.058824 0.066667
0.047059 0.058824 0.066667
0.082353 0.050980 0.070588
0.215686 0.066667 0.090196
0.333333 0.078431 0.101961
0.450980 0.094118 0.113725
0.552941 0.105882 0.121569
0.643137 0.125490 0.133333
0.713725 0.137255 0.141176
0.776471 0.152941 0.145098
0.831373 0.156863 0.156863
0.858824 0.168627 0.156863
0.878431 0.168627 0.156863
0.898039 0.172549 0.156863
0.917647 0.180392 0.156863
0.015686 0.141176 0.070588
0.035294 0.141176 0.070588
0.054902 0.141176 0.070588
0.098039 0.149020 0.082353
0.223529 0.164706 0.094118
0.337255 0.176471 0.105882
0.454902 0.192157 0.117647
0.552941 0.200000 0.125490
0.647059 0.211765 0.137255
0.713725 0.219608 0.145098
0.780392 0.223529 0.149020
0.831373 0.227451 0.156863
0.858824 0.219608 0.156863
0.878431 0.215686 0.156863
0.898039 0.211765 0.156863
0.917647 0.203922 0.156863
0.023529 0.243137 0.094118
0.043137 0.243137 0.094118
0.066667 0.243137 0.094118
0.113725 0.247059 0.094118
0.227451 0.250980 0.098039
0.337255 0.258824 0.105882
0.454902 0.274510 0.117647
0.552941 0.286275 0.125490
0.647059 0.294118 0.137255
0.713725 0.301961 0.145098
0.780392 0.305882 0.149020
0.831373 0.313725 0.156863
0.858824 0.309804 0.156863
0.878431 0.305882 0.156863
0.898039 0.305882 0.156863
0.917647 0.294118 0.156863
0.035294 0.333333 0.101961
0.054902 0.333333 0.101961
0.074510 0.333333 0.101961
0.129412 0.341176 0.105882
0.239216 0.341176 0.109804
0.341176 0.345098 0.109804
0.458824 0.352941 0.117647
0.552941 0.364706 0.125490
0.647059 0.376471 0.137255
0.713725 0.384314 0.145098
0.780392 0.388235 0.149020
0.831373 0.392157 0.156863
0.858824 0.392157 0.156863
0.878431 0.388235 0.156863
0.898039 0.388235 0.156863
0.917647 0.380392 0.156863
0.047059 0.431373 0.113725
0.066667 0.431373 0.113725
0.086275 0.431373 0.113725
0.141176 0.435294 0.117647
0.250980 0.435294 0.117647
0.352941 0.435294 0.117647
0.458824 0.439216 0.121569
0.552941 0.447059 0.125490
0.647059 0.454902 0.137255
0.713725 0.466667 0.145098
0.780392 0.470588 0.149020
0.831373 0.474510 0.152941
0.858824 0.474510 0.156863
0.878431 0.470588 0.156863
0.898039 0.470588 0.156863
0.917647 0.466667 0.156863
0.054902 0.509804 0.121569
0.074510 0.509804 0.121569
0.094118 0.509804 0.121569
0.149020 0.517647 0.125490
0.262745 0.517647 0.125490
0.360784 0.517647 0.125490
0.466667 0.517647 0.125490
0.556863 0.521569 0.129412
0.647059 0.529412 0.137255
0.713725 0.537255 0.145098
0.780392 0.545098 0.149020
0.831373 0.549020 0.152941
0.858824 0.545098 0.156863
0.878431 0.545098 0.156863
0.898039 0.545098 0.156863
0.917647 0.541176 0.156863
0.062745 0.588235 0.125490
0.082353 0.588235 0.125490
0.101961 0.588235 0.125490
0.160784 0.592157 0.129412
0.270588 0.596078 0.133333
0.368627 0.596078 0.133333
0.474510 0.596078 0.133333
0.560784 0.596078 0.133333
0.647059 0.600000 0.137255
0.713725 0.607843 0.141176
0.776471 0.611765 0.145098
0.831373 0.619608 0.152941
0.858824 0.619608 0.156863
0.878431 0.615686 0.156863
0.898039 0.615686 0.156863
0.917647 0.615686 0.156863
0.070588 0.654902 0.133333
0.090196 0.654902 0.133333
0.109804 0.654902 0.133333
0.168627 0.658824 0.137255
0.278431 0.658824 0.137255
0.376471 0.658824 0.137255
0.482353 0.658824 0.137255
0.568627 0.658824 0.137255
0.647059 0.662745 0.137255
0.713725 0.662745 0.141176
0.776471 0.670588 0.145098
0.831373 0.678431 0.152941
0.858824 0.674510 0.152941
0.878431 0.674510 0.156863
0.898039 0.674510 0.156863
0.917647 0.674510 0.156863
0.078431 0.709804 0.137255
0.094118 0.709804 0.137255
0.117647 0.709804 0.137255
0.180392 0.717647 0.145098
0.286275 0.717647 0.145098
0.388235 0.717647 0.145098
0.494118 0.717647 0.145098
0.576471 0.717647 0.145098
0.650980 0.717647 0.141176
0.713725 0.717647 0.141176
0.776471 0.721569 0.145098
0.831373 0.725490 0.152941
0.858824 0.729412 0.152941
0.878431 0.729412 0.156863
0.898039 0.729412 0.156863
0.917647 0.725490 0.156863
0.078431 0.760784 0.141176
0.098039 0.760784 0.141176
0.117647 0.760784 0.141176
0.192157 0.764706 0.145098
0.294118 0.764706 0.145098
0.396078 0.764706 0.145098
0.498039 0.764706 0.145098
0.580392 0.764706 0.145098
0.654902 0.764706 0.145098
0.717647 0.764706 0.145098
0.776471 0.768627 0.145098
0.831373 0.772549 0.152941
0.858824 0.776471 0.152941
0.878431 0.772549 0.156863
0.898039 0.772549 0.156863
0.917647 0.772549 0.156863
0.086275 0.807843 0.145098
0.101961 0.807843 0.145098
0.125490 0.807843 0.145098
0.203922 0.811765 0.152941
0.305882 0.811765 0.152941
0.403922 0.811765 0.152941
0.501961 0.811765 0.152941
0.588235 0.811765 0.152941
0.662745 0.811765 0.152941
0.721569 0.811765 0.149020
0.776471 0.811765 0.149020
0.831373 0.811765 0.152941
0.858824 0.811765 0.152941
0.878431 0.811765 0.156863
0.898039 0.811765 0.156863
0.917647 0.811765 0.156863
0.086275 0.843137 0.145098
0.101961 0.843137 0.145098
0.129412 0.843137 0.145098
0.211765 0.847059 0.152941
0.309804 0.850980 0.152941
0.407843 0.850980 0.152941
0.509804 0.850980 0.152941
0.588235 0.850980 0.152941
0.666667 0.850980 0.152941
0.725490 0.850980 0.152941
0.780392 0.850980 0.152941
0.827451 0.850980 0.152941
0.858824 0.850980 0.156863
0.878431 0.850980 0.156863
0.898039 0.850980 0.156863
0.917647 0.850980 0.156863
0.086275 0.870588 0.149020
0.105882 0.870588 0.149020
0.129412 0.870588 0.149020
0.223529 0.878431 0.156863
0.321569 0.878431 0.156863
0.415686 0.878431 0.156863
0.509804 0.878431 0.156863
0.596078 0.878431 0.156863
0.666667 0.878431 0.156863
0.729412 0.878431 0.156863
0.784314 0.878431 0.156863
0.831373 0.878431 0.156863
0.854902 0.878431 0.156863
0.874510 0.878431 0.156863
0.898039 0.878431 0.156863
0.913725 0.878431 0.156863
0.086275 0.890196 0.152941
0.105882 0.890196 0.152941
0.145098 0.894118 0.152941
0.239216 0.894118 0.156863
0.333333 0.894118 0.156863
0.423529 0.894118 0.156863
0.517647 0.894118 0.156863
0.600000 0.894118 0.156863
0.674510 0.894118 0.156863
0.733333 0.894118 0.156863
0.784314 0.894118 0.156863
0.831373 0.894118 0.156863
0.854902 0.894118 0.156863
0.874510 0.894118 0.156863
0.898039 0.894118 0.156863
0.913725 0.894118 0.156863
0.015686 0.039216 0.125490
0.035294 0.039216 0.125490
0.058824 0.039216 0.125490
0.090196 0.027451 0.129412
0.211765 0.019608 0.149020
0.329412 0.035294 0.160784
0.450980 0.047059 0.176471
0.552941 0.062745 0.184314
0.643137 0.082353 0.196078
0.713725 0.094118 0.203922
0.776471 0.113725 0.207843
0.831373 0.117647 0.211765
0.858824 0.129412 0.215686
0.882353 0.133333 0.215686
0.901961 0.141176 0.219608
0.921569 0.141176 0.219608
0.015686 0.058824 0.125490
0.035294 0.058824 0.125490
0.058824 0.058824 0.125490
0.090196 0.047059 0.129412
0.215686 0.039216 0.149020
0.329412 0.054902 0.160784
0.450980 0.066667 0.176471
0.552941 0.082353 0.184314
0.643137 0.098039 0.196078
0.713725 0.113725 0.203922
0.776471 0.129412 0.207843
0.831373 0.141176 0.211765
0.858824 0.149020 0.215686
0.882353 0.152941 0.215686
0.901961 0.156863 0.219608
0.921569 0.156863 0.219608
0.015686 0.082353 0.125490
0.039216 0.082353 0.129412
0.058824 0.082353 0.129412
0.090196 0.070588 0.129412
0.215686 0.062745 0.149020
0.333333 0.078431 0.160784
0.450980 0.094118 0.176471
0.552941 0.109804 0.184314
0.643137 0.125490 0.196078
0.713725 0.137255 0.203922
0.776471 0.152941 0.207843
0.831373 0.160784 0.211765
0.858824 0.168627 0.215686
0.882353 0.172549 0.215686
0.901961 0.180392 0.219608
0.921569 0.180392 0.219608
0.019608 0.133333 0.113725
0.039216 0.133333 0.113725
0.058824 0.133333 0.113725
0.101961 0.145098 0.125490
0.231373 0.172549 0.160784
0.345098 0.180392 0.176471
0.466667 0.196078 0.188235
0.564706 0.207843 0.196078
0.650980 0.215686 0.203922
0.721569 0.223529 0.211765
0.784314 0.227451 0.215686
0.839216 0.231373 0.219608
0.862745 0.227451 0.223529
0.882353 0.223529 0.219608
0.901961 0.211765 0.219608
0.921569 0.207843 0.223529
0.027451 0.215686 0.121569
0.050980 0.215686 0.121569
0.070588 0.215686 0.121569
0.117647 0.231373 0.137255
0.235294 0.258824 0.168627
0.345098 0.266667 0.176471
0.466667 0.278431 0.188235
0.564706 0.290196 0.196078
0.654902 0.301961 0.207843
0.721569 0.309804 0.211765
0.784314 0.313725 0.215686
0.839216 0.317647 0.223529
0.866667 0.321569 0.223529
0.886275 0.313725 0.223529
0.905882 0.309804 0.223529
0.925490 0.301961 0.223529
0.039216 0.313725 0.141176
0.058824 0.313725 0.141176
0.078431 0.313725 0.141176
0.129412 0.333333 0.160784
0.247059 0.349020 0.176471
0.349020 0.352941 0.176471
0.466667 0.360784 0.188235
0.564706 0.372549 0.196078
0.654902 0.384314 0.207843
0.721569 0.392157 0.211765
0.784314 0.392157 0.215686
0.839216 0.400000 0.223529
0.866667 0.396078 0.223529
0.886275 0.396078 0.223529
0.905882 0.392157 0.223529
0.925490 0.388235 0.223529
0.047059 0.423529 0.164706
0.066667 0.423529 0.164706
0.090196 0.423529 0.164706
0.141176 0.435294 0.176471
0.258824 0.443137 0.184314
0.360784 0.443137 0.184314
0.466667 0.447059 0.188235
0.564706 0.454902 0.196078
0.654902 0.466667 0.207843
0.721569 0.470588 0.211765
0.784314 0.478431 0.215686
0.839216 0.482353 0.223529
0.866667 0.478431 0.223529
0.886275 0.478431 0.223529
0.905882 0.478431 0.223529
0.925490 0.474510 0.223529
0.054902 0.509804 0.176471
0.074510 0.509804 0.176471
0.094118 0.509804 0.176471
0.149020 0.517647 0.184314
0.270588 0.525490 0.192157
0.368627 0.525490 0.192157
