luts/X1.cube
TITLE "X1"
LUT_3D_SIZE 16
DOMAIN_MIN 0.0 0.0 0.0
DOMAIN_MAX 1.0 1.0 1.0
0.094118 0.105882 0.176471
0.164706 0.105882 0.176471
0.243137 0.105882 0.176471
0.317647 0.105882 0.176471
0.388235 0.105882 0.176471
0.458824 0.105882 0.176471
0.525490 0.105882 0.176471
0.584314 0.105882 0.176471
0.643137 0.105882 0.176471
0.698039 0.105882 0.176471
0.749020 0.105882 0.176471
0.800000 0.105882 0.176471
0.847059 0.105882 0.176471
0.890196 0.105882 0.176471
0.929412 0.105882 0.176471
0.968627 0.105882 0.176471
0.094118 0.109804 0.176471
0.164706 0.109804 0.176471
0.243137 0.109804 0.176471
0.317647 0.109804 0.176471
0.388235 0.109804 0.176471
0.458824 0.109804 0.176471
0.525490 0.109804 0.176471
0.584314 0.109804 0.176471
0.643137 0.109804 0.176471
0.698039 0.109804 0.176471
0.749020 0.109804 0.176471
0.800000 0.109804 0.176471
0.847059 0.109804 0.176471
0.890196 0.109804 0.176471
0.929412 0.109804 0.176471
0.968627 0.109804 0.176471
0.094118 0.145098 0.176471
0.164706 0.145098 0.176471
0.243137 0.145098 0.176471
0.317647 0.145098 0.176471
0.388235 0.145098 0.176471
0.458824 0.145098 0.176471
0.525490 0.145098 0.176471
0.584314 0.145098 0.176471
0.643137 0.145098 0.176471
0.698039 0.145098 0.176471
0.749020 0.145098 0.176471
0.800000 0.145098 0.176471
0.847059 0.145098 0.176471
0.890196 0.145098 0.176471
0.929412 0.145098 0.176471
0.968627 0.145098 0.176471
0.094118 0.227451 0.176471
0.164706 0.227451 0.176471
0.243137 0.227451 0.176471
0.317647 0.227451 0.176471
0.388235 0.227451 0.176471
0.458824 0.227451 0.176471
0.525490 0.227451 0.176471
0.584314 0.227451 0.176471
0.643137 0.227451 0.176471
0.698039 0.227451 0.176471
0.749020 0.227451 0.176471
0.800000 0.227451 0.176471
0.847059 0.227451 0.176471
0.890196 0.227451 0.176471
0.929412 0.227451 0.176471
0.968627 0.227451 0.176471
0.094118 0.341176 0.176471
0.164706 0.341176 0.176471
0.243137 0.341176 0.176471
0.317647 0.341176 0.176471
0.388235 0.341176 0.176471
0.458824 0.341176 0.176471
0.525490 0.341176 0.176471
0.584314 0.341176 0.176471
0.643137 0.341176 0.176471
0.698039 0.341176 0.176471
0.749020 0.341176 0.176471
0.800000 0.341176 0.176471
0.847059 0.341176 0.176471
0.890196 0.341176 0.176471
0.929412 0.341176 0.176471
0.968627 0.341176 0.176471
0.094118 0.458824 0.176471
0.164706 0.458824 0.176471
0.243137 0.458824 0.176471
0.317647 0.458824 0.176471
0.388235 0.458824 0.176471
0.458824 0.458824 0.176471
0.525490 0.458824 0.176471
0.584314 0.458824 0.176471
0.643137 0.458824 0.176471
0.698039 0.458824 0.176471
0.749020 0.458824 0.176471
0.800000 0.458824 0.176471
0.847059 0.458824 0.176471
0.890196 0.458824 0.176471
0.929412 0.458824 0.176471
0.968627 0.458824 0.176471
0.094118 0.560784 0.176471
0.164706 0.560784 0.176471
0.243137 0.560784 0.176471
0.317647 0.560784 0.176471
0.388235 0.560784 0.176471
0.458824 0.560784 0.176471
0.525490 0.560784 0.176471
0.584314 0.560784 0.176471
0.643137 0.560784 0.176471
0.698039 0.560784 0.176471
0.749020 0.560784 0.176471
0.800000 0.560784 0.176471
0.847059 0.560784 0.176471
0.890196 0.560784 0.176471
0.929412 0.560784 0.176471
0.968627 0.560784 0.176471
0.094118 0.647059 0.176471
0.164706 0.647059 0.176471
0.243137 0.647059 0.176471
0.317647 0.647059 0.176471
0.388235 0.647059 0.176471
0.458824 0.647059 0.176471
0.525490 0.647059 0.176471
0.584314 0.647059 0.176471
0.643137 0.647059 0.176471
0.698039 0.647059 0.176471
0.749020 0.647059 0.176471
0.800000 0.647059 0.176471
0.847059 0.647059 0.176471
0.890196 0.647059 0.176471
0.929412 0.647059 0.176471
0.968627 0.647059 0.176471
0.094118 0.717647 0.176471
0.164706 0.717647 0.176471
0.243137 0.717647 0.176471
0.317647 0.717647 0.176471
0.388235 0.717647 0.176471
0.458824 0.717647 0.176471
0.525490 0.717647 0.176471
0.584314 0.717647 0.176471
0.643137 0.717647 0.176471
0.698039 0.717647 0.176471
0.749020 0.717647 0.176471
0.800000 0.717647 0.176471
0.847059 0.717647 0.176471
0.890196 0.717647 0.176471
0.929412 0.717647 0.176471
0.968627 0.717647 0.176471
0.094118 0.776471 0.176471
0.164706 0.776471 0.176471
0.243137 0.776471 0.176471
0.317647 0.776471 0.176471
0.388235 0.776471 0.176471
0.458824 0.776471 0.176471
0.525490 0.776471 0.176471
0.584314 0.776471 0.176471
0.643137 0.776471 0.176471
0.698039 0.776471 0.176471
0.749020 0.776471 0.176471
0.800000 0.776471 0.176471
0.847059 0.776471 0.176471
0.890196 0.776471 0.176471
0.929412 0.776471 0.176471
0.968627 0.776471 0.176471
0.094118 0.823529 0.176471
0.164706 0.823529 0.176471
0.243137 0.823529 0.176471
0.317647 0.823529 0.176471
0.388235 0.823529 0.176471
0.458824 0.823529 0.176471
0.525490 0.823529 0.176471
0.584314 0.823529 0.176471
0.643137 0.823529 0.176471
0.698039 0.823529 0.176471
0.749020 0.823529 0.176471
0.800000 0.823529 0.176471
0.847059 0.823529 0.176471
0.890196 0.823529 0.176471
0.929412 0.823529 0.176471
0.968627 0.823529 0.176471
0.094118 0.862745 0.176471
0.164706 0.862745 0.176471
0.243137 0.862745 0.176471
0.317647 0.862745 0.176471
0.388235 0.862745 0.176471
0.458824 0.862745 0.176471
0.525490 0.862745 0.176471
0.584314 0.862745 0.176471
0.643137 0.862745 0.176471
0.698039 0.862745 0.176471
0.749020 0.862745 0.176471
0.800000 0.862745 0.176471
0.847059 0.862745 0.176471
0.890196 0.862745 0.176471
0.929412 0.862745 0.176471
0.968627 0.862745 0.176471
0.094118 0.898039 0.176471
0.164706 0.898039 0.176471
0.243137 0.898039 0.176471
0.317647 0.898039 0.176471
0.388235 0.898039 0.176471
0.458824 0.898039 0.176471
0.525490 0.898039 0.176471
0.584314 0.898039 0.176471
0.643137 0.898039 0.176471
0.698039 0.898039 0.176471
0.749020 0.898039 0.176471
0.800000 0.898039 0.176471
0.847059 0.898039 0.176471
0.890196 0.898039 0.176471
0.929412 0.898039 0.176471
0.968627 0.898039 0.176471
0.094118 0.925490 0.176471
0.164706 0.925490 0.176471
0.243137 0.925490 0.176471
0.317647 0.925490 0.176471
0.388235 0.925490 0.176471
0.458824 0.925490 0.176471
0.525490 0.925490 0.176471
0.584314 0.925490 0.176471
0.643137 0.925490 0.176471
0.698039 0.925490 0.176471
0.749020 0.925490 0.176471
0.800000 0.925490 0.176471
0.847059 0.925490 0.176471
0.890196 0.925490 0.176471
0.929412 0.925490 0.176471
0.968627 0.925490 0.176471
0.094118 0.952941 0.176471
0.164706 0.952941 0.176471
0.243137 0.952941 0.176471
0.317647 0.952941 0.176471
0.388235 0.952941 0.176471
0.458824 0.952941 0.176471
0.525490 0.952941 0.176471
0.584314 0.952941 0.176471
0.643137 0.952941 0.176471
0.698039 0.952941 0.176471
0.749020 0.952941 0.176471
0.800000 0.952941 0.176471
0.847059 0.952941 0.176471
0.890196 0.952941 0.176471
0.929412 0.952941 0.176471
0.968627 0.952941 0.176471
0.094118 0.972549 0.176471
0.164706 0.972549 0.176471
0.243137 0.972549 0.176471
0.317647 0.972549 0.176471
0.388235 0.972549 0.176471
0.458824 0.972549 0.176471
0.525490 0.972549 0.176471
0.584314 0.972549 0.176471
0.643137 0.972549 0.176471
0.698039 0.972549 0.176471
0.749020 0.972549 0.176471
0.800000 0.972549 0.176471
0.847059 0.972549 0.176471
0.890196 0.972549 0.176471
0.929412 0.972549 0.176471
0.968627 0.972549 0.176471
0.094118 0.105882 0.176471
0.164706 0.105882 0.176471
0.243137 0.105882 0.176471
0.317647 0.105882 0.176471
0.388235 0.105882 0.176471
0.458824 0.105882 0.176471
0.525490 0.105882 0.176471
0.584314 0.105882 0.176471
0.643137 0.105882 0.176471
0.698039 0.105882 0.176471
0.749020 0.105882 0.176471
0.800000 0.105882 0.176471
0.847059 0.105882 0.176471
0.890196 0.105882 0.176471
0.929412 0.105882 0.176471
0.968627 0.105882 0.176471
0.094118 0.109804 0.176471
0.164706 0.109804 0.176471
0.243137 0.109804 0.176471
0.317647 0.109804 0.176471
0.388235 0.109804 0.176471
0.458824 0.109804 0.176471
0.525490 0.109804 0.176471
0.584314 0.109804 0.176471
0.643137 0.109804 0.176471
0.698039 0.109804 0.176471
0.749020 0.109804 0.176471
0.800000 0.109804 0.176471
0.847059 0.109804 0.176471
0.890196 0.109804 0.176471
0.929412 0.109804 0.176471
0.968627 0.109804 0.176471
0.094118 0.145098 0.176471
0.164706 0.145098 0.176471
0.243137 0.145098 0.176471
0.317647 0.145098 0.176471
0.388235 0.145098 0.176471
0.458824 0.145098 0.176471
0.525490 0.145098 0.176471
0.584314 0.145098 0.176471
0.643137 0.145098 0.176471
0.698039 0.145098 0.176471
0.749020 0.145098 0.176471
0.800000 0.145098 0.176471
0.847059 0.145098 0.176471
0.890196 0.145098 0.176471
0.929412 0.145098 0.176471
0.968627 0.145098 0.176471
0.094118 0.227451 0.176471
0.164706 0.227451 0.176471
0.243137 0.227451 0.176471
0.317647 0.227451 0.176471
0.388235 0.227451 0.176471
0.458824 0.227451 0.176471
0.525490 0.227451 0.176471
0.584314 0.227451 0.176471
0.643137 0.227451 0.176471
0.698039 0.227451 0.176471
0.749020 0.227451 0.176471
0.800000 0.227451 0.176471
0.847059 0.227451 0.176471
0.890196 0.227451 0.176471
0.929412 0.227451 0.176471
0.968627 0.227451 0.176471
0.094118 0.341176 0.176471
0.164706 0.341176 0.176471
0.243137 0.341176 0.176471
0.317647 0.341176 0.176471
0.388235 0.341176 0.176471
0.458824 0.341176 0.176471
0.525490 0.341176 0.176471
0.584314 0.341176 0.176471
0.643137 0.341176 0.176471
0.698039 0.341176 0.176471
0.749020 0.341176 0.176471
0.800000 0.341176 0.176471
0.847059 0.341176 0.176471
0.890196 0.341176 0.176471
0.929412 0.341176 0.176471
0.968627 0.341176 0.176471
0.094118 0.458824 0.176471
0.164706 0.458824 0.176471
0.243137 0.458824 0.176471
0.317647 0.458824 0.176471
0.388235 0.458824 0.176471
0.458824 0.458824 0.176471
0.525490 0.458824 0.176471
0.584314 0.458824 0.176471
0.643137 0.458824 0.176471
0.698039 0.458824 0.176471
0.749020 0.458824 0.176471
0.800000 0.458824 0.176471
0.847059 0.458824 0.176471
0.890196 0.458824 0.176471
0.929412 0.458824 0.176471
0.968627 0.458824 0.176471
0.094118 0.560784 0.176471
0.164706 0.560784 0.176471
0.243137 0.560784 0.176471
0.317647 0.560784 0.176471
0.388235 0.560784 0.176471
0.458824 0.560784 0.176471
0.525490 0.560784 0.176471
0.584314 0.560784 0.176471
0.643137 0.560784 0.176471
0.698039 0.560784 0.176471
0.749020 0.560784 0.176471
0.800000 0.560784 0.176471
0.847059 0.560784 0.176471
0.890196 0.560784 0.176471
0.929412 0.560784 0.176471
0.968627 0.560784 0.176471
0.094118 0.647059 0.176471
0.164706 0.647059 0.176471
0.243137 0.647059 0.176471
0.317647 0.647059 0.176471
0.388235 0.647059 0.176471
0.458824 0.647059 0.176471
0.525490 0.647059 0.176471
0.584314 0.647059 0.176471
0.643137 0.647059 0.176471
0.698039 0.647059 0.176471
0.749020 0.647059 0.176471
0.800000 0.647059 0.176471
0.847059 0.647059 0.176471
0.890196 0.647059 0.176471
0.929412 0.647059 0.176471
0.968627 0.647059 0.176471
0.094118 0.717647 0.176471
0.164706 0.717647 0.176471
0.243137 0.717647 0.176471
0.317647 0.717647 0.176471
0.388235 0.717647 0.176471
0.458824 0.717647 0.176471
0.525490 0.717647 0.176471
0.584314 0.717647 0.176471
0.643137 0.717647 0.176471
0.698039 0.717647 0.176471
0.749020 0.717647 0.176471
0.800000 0.717647 0.176471
0.847059 0.717647 0.176471
0.890196 0.717647 0.176471
0.929412 0.717647 0.176471
0.968627 0.717647 0.176471
0.094118 0.776471 0.176471
0.164706 0.776471 0.176471
0.243137 0.776471 0.176471
0.317647 0.776471 0.176471
0.388235 0.776471 0.176471
0.458824 0.776471 0.176471
0.525490 0.776471 0.176471
0.584314 0.776471 0.176471
0.643137 0.776471 0.176471
0.698039 0.776471 0.176471
0.749020 0.776471 0.176471
0.800000 0.776471 0.176471
0.847059 0.776471 0.176471
0.890196 0.776471 0.176471
0.929412 0.776471 0.176471
0.968627 0.776471 0.176471
0.094118 0.823529 0.176471
0.164706 0.823529 0.176471
0.243137 0.823529 0.176471
0.317647 0.823529 0.176471
0.388235 0.823529 0.176471
0.458824 0.823529 0.176471
0.525490 0.823529 0.176471
0.584314 0.823529 0.176471
0.643137 0.823529 0.176471
0.698039 0.823529 0.176471
0.749020 0.823529 0.176471
0.800000 0.823529 0.176471
0.847059 0.823529 0.176471
0.890196 0.823529 0.176471
0.929412 0.823529 0.176471
0.968627 0.823529 0.176471
0.094118 0.862745 0.176471
0.164706 0.862745 0.176471
0.243137 0.862745 0.176471
0.317647 0.862745 0.176471
0.388235 0.862745 0.176471
0.458824 0.862745 0.176471
0.525490 0.862745 0.176471
0.584314 0.862745 0.176471
0.643137 0.862745 0.176471
0.698039 0.862745 0.176471
0.749020 0.862745 0.176471
0.800000 0.862745 0.176471
0.847059 0.862745 0.176471
0.890196 0.862745 0.176471
0.929412 0.862745 0.176471
0.968627 0.862745 0.176471
0.094118 0.898039 0.176471
0.164706 0.898039 0.176471
0.243137 0.898039 0.176471
0.317647 0.898039 0.176471
0.388235 0.898039 0.176471
0.458824 0.898039 0.176471
0.525490 0.898039 0.176471
0.584314 0.898039 0.176471
0.643137 0.898039 0.176471
0.698039 0.898039 0.176471
0.749020 0.898039 0.176471
0.800000 0.898039 0.176471
0.847059 0.898039 0.176471
0.890196 0.898039 0.176471
0.929412 0.898039 0.176471
0.968627 0.898039 0.176471
0.094118 0.925490 0.176471
0.164706 0.925490 0.176471
0.243137 0.925490 0.176471
0.317647 0.925490 0.176471
0.388235 0.925490 0.176471
0.458824 0.925490 0.176471
0.525490 0.925490 0.176471
0.584314 0.925490 0.176471
0.643137 0.925490 0.176471
0.698039 0.925490 0.176471
0.749020 0.925490 0.176471
0.800000 0.925490 0.176471
0.847059 0.925490 0.176471
0.890196 0.925490 0.176471
0.929412 0.925490 0.176471
0.968627 0.925490 0.176471
0.094118 0.952941 0.176471
0.164706 0.952941 0.176471
0.243137 0.952941 0.176471
0.317647 0.952941 0.176471
0.388235 0.952941 0.176471
0.458824 0.952941 0.176471
0.525490 0.952941 0.176471
0.584314 0.952941 0.176471
0.643137 0.952941 0.176471
0.698039 0.952941 0.176471
0.749020 0.952941 0.176471
0.800000 0.952941 0.176471
0.847059 0.952941 0.176471
0.890196 0.952941 0.176471
0.929412 0.952941 0.176471
0.968627 0.952941 0.176471
0.094118 0.972549 0.176471
0.164706 0.972549 0.176471
0.243137 0.972549 0.176471
0.317647 0.972549 0.176471
0.388235 0.972549 0.176471
0.458824 0.972549 0.176471
0.525490 0.972549 0.176471
0.584314 0.972549 0.176471
0.643137 0.972549 0.176471
0.698039 0.972549 0.176471
0.749020 0.972549 0.176471
0.800000 0.972549 0.176471
0.847059 0.972549 0.176471
0.890196 0.972549 0.176471
0.929412 0.972549 0.176471
0.968627 0.972549 0.176471
0.094118 0.105882 0.180392
0.164706 0.105882 0.180392
0.243137 0.105882 0.180392
0.317647 0.105882 0.180392
0.388235 0.105882 0.180392
0.458824 0.105882 0.180392
0.525490 0.105882 0.180392
0.584314 0.105882 0.180392
0.643137 0.105882 0.180392
0.698039 0.105882 0.180392
0.749020 0.105882 0.180392
0.800000 0.105882 0.180392
0.847059 0.105882 0.180392
0.890196 0.105882 0.180392
0.929412 0.105882 0.180392
0.968627 0.105882 0.180392
0.094118 0.109804 0.180392
0.164706 0.109804 0.180392
0.243137 0.109804 0.180392
0.317647 0.109804 0.180392
0.388235 0.109804 0.180392
0.458824 0.109804 0.180392
0.525490 0.109804 0.180392
0.584314 0.109804 0.180392
0.643137 0.109804 0.180392
0.698039 0.109804 0.180392
0.749020 0.109804 0.180392
0.800000 0.109804 0.180392
0.847059 0.109804 0.180392
0.890196 0.109804 0.180392
0.929412 0.109804 0.180392
0.968627 0.109804 0.180392
0.094118 0.145098 0.180392
0.164706 0.145098 0.180392
0.243137 0.145098 0.180392
0.317647 0.145098 0.180392
0.388235 0.145098 0.180392
0.458824 0.145098 0.180392
0.525490 0.145098 0.180392
0.584314 0.145098 0.180392
0.643137 0.145098 0.180392
0.698039 0.145098 0.180392
0.749020 0.145098 0.180392
0.800000 0.145098 0.180392
0.847059 0.145098 0.180392
0.890196 0.145098 0.180392
0.929412 0.145098 0.180392
0.968627 0.145098 0.180392
0.094118 0.227451 0.180392
0.164706 0.227451 0.180392
0.243137 0.227451 0.180392
0.317647 0.227451 0.180392
0.388235 0.227451 0.180392
0.458824 0.227451 0.180392
0.525490 0.227451 0.180392
0.584314 0.227451 0.180392
0.643137 0.227451 0.180392
0.698039 0.227451 0.180392
0.749020 0.227451 0.180392
0.800000 0.227451 0.180392
0.847059 0.227451 0.180392
0.890196 0.227451 0.180392
0.929412 0.227451 0.180392
0.968627 0.227451 0.180392
0.094118 0.341176 0.180392
0.164706 0.341176 0.180392
0.243137 0.341176 0.180392
0.317647 0.341176 0.180392
0.388235 0.341176 0.180392
0.458824 0.341176 0.180392
0.525490 0.341176 0.180392
0.584314 0.341176 0.180392
0.643137 0.341176 0.180392
0.698039 0.341176 0.180392
0.749020 0.341176 0.180392
0.800000 0.341176 0.180392
0.847059 0.341176 0.180392
0.890196 0.341176 0.180392
0.929412 0.341176 0.180392
0.968627 0.341176 0.180392
0.094118 0.458824 0.180392
0.164706 0.458824 0.180392
0.243137 0.458824 0.180392
0.317647 0.458824 0.180392
0.388235 0.458824 0.180392
0.458824 0.458824 0.180392
0.525490 0.458824 0.180392
0.584314 0.458824 0.180392
0.643137 0.458824 0.180392
0.698039 0.458824 0.180392
0.749020 0.458824 0.180392
0.800000 0.458824 0.180392
0.847059 0.458824 0.180392
0.890196 0.458824 0.180392
0.929412 0.458824 0.180392
0.968627 0.458824 0.180392
0.094118 0.560784 0.180392
0.164706 0.560784 0.180392
0.243137 0.560784 0.180392
0.317647 0.560784 0.180392
0.388235 0.560784 0.180392
0.458824 0.560784 0.180392
0.525490 0.560784 0.180392
0.584314 0.560784 0.180392
0.643137 0.560784 0.180392
0.698039 0.560784 0.180392
0.749020 0.560784 0.180392
0.800000 0.560784 0.180392
0.847059 0.560784 0.180392
0.890196 0.560784 0.180392
0.929412 0.560784 0.180392
0.968627 0.560784 0.180392
0.094118 0.647059 0.180392
0.164706 0.647059 0.180392
0.243137 0.647059 0.180392
0.317647 0.647059 0.180392
0.388235 0.647059 0.180392
0.458824 0.647059 0.180392
0.525490 0.647059 0.180392
0.584314 0.647059 0.180392
0.643137 0.647059 0.180392
0.698039 0.647059 0.180392
0.749020 0.647059 0.180392
0.800000 0.647059 0.180392
0.847059 0.647059 0.180392
0.890196 0.647059 0.180392
0.929412 0.647059 0.180392
0.968627 0.647059 0.180392
0.094118 0.717647 0.180392
0.164706 0.717647 0.180392
0.243137 0.717647 0.180392
0.317647 0.717647 0.180392
0.388235 0.717647 0.180392
0.458824 0.717647 0.180392
0.525490 0.717647 0.180392
0.584314 0.717647 0.180392
0.643137 0.717647 0.180392
0.698039 0.717647 0.180392
0.749020 0.717647 0.180392
0.800000 0.717647 0.180392
0.847059 0.717647 0.180392
0.890196 0.717647 0.180392
0.929412 0.717647 0.180392
0.968627 0.717647 0.180392
0.094118 0.776471 0.180392
0.164706 0.776471 0.180392
0.243137 0.776471 0.180392
0.317647 0.776471 0.180392
0.388235 0.776471 0.180392
0.458824 0.776471 0.180392
0.525490 0.776471 0.180392
0.584314 0.776471 0.180392
0.643137 0.776471 0.180392
0.698039 0.776471 0.180392
0.749020 0.776471 0.180392
0.800000 0.776471 0.180392
0.847059 0.776471 0.180392
0.890196 0.776471 0.180392
0.929412 0.776471 0.180392
0.968627 0.776471 0.180392
0.094118 0.823529 0.180392
0.164706 0.823529 0.180392
0.243137 0.823529 0.180392
0.317647 0.823529 0.180392
0.388235 0.823529 0.180392
0.458824 0.823529 0.180392
0.525490 0.823529 0.180392
0.584314 0.823529 0.180392
0.643137 0.823529 0.180392
0.698039 0.823529 0.180392
0.749020 0.823529 0.180392
0.800000 0.823529 0.180392
0.847059 0.823529 0.180392
0.890196 0.823529 0.180392
0.929412 0.823529 0.180392
0.968627 0.823529 0.180392
0.094118 0.862745 0.180392
0.164706 0.862745 0.180392
0.243137 0.862745 0.180392
0.317647 0.862745 0.180392
0.388235 0.862745 0.180392
0.458824 0.862745 0.180392
0.525490 0.862745 0.180392
0.584314 0.862745 0.180392
0.643137 0.862745 0.180392
0.698039 0.862745 0.180392
0.749020 0.862745 0.180392
0.800000 0.862745 0.180392
0.847059 0.862745 0.180392
0.890196 0.862745 0.180392
0.929412 0.862745 0.180392
0.968627 0.862745 0.180392
0.094118 0.898039 0.180392
0.164706 0.898039 0.180392
0.243137 0.898039 0.180392
0.317647 0.898039 0.180392
0.388235 0.898039 0.180392
0.458824 0.898039 0.180392
0.525490 0.898039 0.180392
0.584314 0.898039 0.180392
0.643137 0.898039 0.180392
0.698039 0.898039 0.180392
0.749020 0.898039 0.180392
0.800000 0.898039 0.180392
0.847059 0.898039 0.180392
0.890196 0.898039 0.180392
0.929412 0.898039 0.180392
0.968627 0.898039 0.180392
0.094118 0.925490 0.180392
0.164706 0.925490 0.180392
0.243137 0.925490 0.180392
0.317647 0.925490 0.180392
0.388235 0.925490 0.180392
0.458824 0.925490 0.180392
0.525490 0.925490 0.180392
0.584314 0.925490 0.180392
0.643137 0.925490 0.180392
0.698039 0.925490 0.180392
0.749020 0.925490 0.180392
0.800000 0.925490 0.180392
0.847059 0.925490 0.180392
0.890196 0.925490 0.180392
0.929412 0.925490 0.180392
0.968627 0.925490 0.180392
0.094118 0.952941 0.180392
0.164706 0.952941 0.180392
0.243137 0.952941 0.180392
0.317647 0.952941 0.180392
0.388235 0.952941 0.180392
0.458824 0.952941 0.180392
0.525490 0.952941 0.180392
0.584314 0.952941 0.180392
0.643137 0.952941 0.180392
0.698039 0.952941 0.180392
0.749020 0.952941 0.180392
0.800000 0.952941 0.180392
0.847059 0.952941 0.180392
0.890196 0.952941 0.180392
0.929412 0.952941 0.180392
0.968627 0.952941 0.180392
0.094118 0.972549 0.180392
0.164706 0.972549 0.180392
0.243137 0.972549 0.180392
0.317647 0.972549 0.180392
0.388235 0.972549 0.180392
0.458824 0.972549 0.180392
0.525490 0.972549 0.180392
0.584314 0.972549 0.180392
0.643137 0.972549 0.180392
0.698039 0.972549 0.180392
0.749020 0.972549 0.180392
0.800000 0.972549 0.180392
0.847059 0.972549 0.180392
0.890196 0.972549 0.180392
0.929412 0.972549 0.180392
0.968627 0.972549 0.180392
0.094118 0.105882 0.211765
0.164706 0.105882 0.211765
0.243137 0.105882 0.211765
0.317647 0.105882 0.211765
0.388235 0.105882 0.211765
0.458824 0.105882 0.211765
0.525490 0.105882 0.211765
0.584314 0.105882 0.211765
0.643137 0.105882 0.211765
0.698039 0.105882 0.211765
0.749020 0.105882 0.211765
0.800000 0.105882 0.211765
0.847059 0.105882 0.211765
0.890196 0.105882 0.211765
0.929412 0.105882 0.211765
0.968627 0.105882 0.211765
0.094118 0.109804 0.211765
0.164706 0.109804 0.211765
0.243137 0.109804 0.211765
0.317647 0.109804 0.211765
0.388235 0.109804 0.211765
0.458824 0.109804 0.211765
0.525490 0.109804 0.211765
0.584314 0.109804 0.211765
0.643137 0.109804 0.211765
0.698039 0.109804 0.211765
0.749020 0.109804 0.211765
0.800000 0.109804 0.211765
0.847059 0.109804 0.211765
0.890196 0.109804 0.211765
0.929412 0.109804 0.211765
0.968627 0.109804 0.211765
0.094118 0.145098 0.211765
0.164706 0.145098 0.211765
0.243137 0.145098 0.211765
0.317647 0.145098 0.211765
0.388235 0.145098 0.211765
0.458824 0.145098 0.211765
0.525490 0.145098 0.211765
0.584314 0.145098 0.211765
0.643137 0.145098 0.211765
0.698039 0.145098 0.211765
0.749020 0.145098 0.211765
0.800000 0.145098 0.211765
0.847059 0.145098 0.211765
0.890196 0.145098 0.211765
0.929412 0.145098 0.211765
0.968627 0.145098 0.211765
0.094118 0.227451 0.211765
0.164706 0.227451 0.211765
0.243137 0.227451 0.211765
0.317647 0.227451 0.211765
0.388235 0.227451 0.211765
0.458824 0.227451 0.211765
0.525490 0.227451 0.211765
0.584314 0.227451 0.211765
0.643137 0.227451 0.211765
0.698039 0.227451 0.211765
0.749020 0.227451 0.211765
0.800000 0.227451 0.211765
0.847059 0.227451 0.211765
0.890196 0.227451 0.211765
0.929412 0.227451 0.211765
0.968627 0.227451 0.211765
0.094118 0.341176 0.211765
0.164706 0.341176 0.211765
0.243137 0.341176 0.211765
0.317647 0.341176 0.211765
0.388235 0.341176 0.211765
0.458824 0.341176 0.211765
0.525490 0.341176 0.211765
0.584314 0.341176 0.211765
0.643137 0.341176 0.211765
0.698039 0.341176 0.211765
0.749020 0.341176 0.211765
0.800000 0.341176 0.211765
0.847059 0.341176 0.211765
0.890196 0.341176 0.211765
0.929412 0.341176 0.211765
0.968627 0.341176 0.211765
0.094118 0.458824 0.211765
0.164706 0.458824 0.211765
0.243137 0.458824 0.211765
0.317647 0.458824 0.211765
0.388235 0.458824 0.211765
0.458824 0.458824 0.211765
0.525490 0.458824 0.211765
0.584314 0.458824 0.211765
0.643137 0.458824 0.211765
0.698039 0.458824 0.211765
0.749020 0.458824 0.211765
0.800000 0.458824 0.211765
0.847059 0.458824 0.211765
0.890196 0.458824 0.211765
0.929412 0.458824 0.211765
0.968627 0.458824 0.211765
0.094118 0.560784 0.211765
0.164706 0.560784 0.211765
0.243137 0.560784 0.211765
0.317647 0.560784 0.211765
0.388235 0.560784 0.211765
0.458824 0.560784 0.211765
0.525490 0.560784 0.211765
0.584314 0.560784 0.211765
0.643137 0.560784 0.211765
0.698039 0.560784 0.211765
0.749020 0.560784 0.211765
0.800000 0.560784 0.211765
0.847059 0.560784 0.211765
0.890196 0.560784 0.211765
0.929412 0.560784 0.211765
0.968627 0.560784 0.211765
0.094118 0.647059 0.211765
0.164706 0.647059 0.211765
0.243137 0.647059 0.211765
0.317647 0.647059 0.211765
0.388235 0.647059 0.211765
0.458824 0.647059 0.211765
