luts/X1.cube
TITLE "X1"
LUT_3D_SIZE 6
DOMAIN_MIN 0.0 0.0 0.0
DOMAIN_MAX 1.0 1.0 1.0
0.094118 0.105882 0.176471
0.317647 0.105882 0.176471
0.525490 0.105882 0.176471
0.698039 0.105882 0.176471
0.847059 0.105882 0.176471
0.968627 0.105882 0.176471
0.094118 0.227451 0.176471
0.317647 0.227451 0.176471
0.525490 0.227451 0.176471
0.698039 0.227451 0.176471
0.847059 0.227451 0.176471
0.968627 0.227451 0.176471
0.094118 0.560784 0.176471
0.317647 0.560784 0.176471
0.525490 0.560784 0.176471
0.698039 0.560784 0.176471
0.847059 0.560784 0.176471
0.968627 0.560784 0.176471
0.094118 0.776471 0.176471
0.317647 0.776471 0.176471
0.525490 0.776471 0.176471
0.698039 0.776471 0.176471
0.847059 0.776471 0.176471
0.968627 0.776471 0.176471
0.094118 0.898039 0.176471
0.317647 0.898039 0.176471
0.525490 0.898039 0.176471
0.698039 0.898039 0.176471
0.847059 0.898039 0.176471
0.968627 0.898039 0.176471
0.094118 0.972549 0.176471
0.317647 0.972549 0.176471
0.525490 0.972549 0.176471
0.698039 0.972549 0.176471
0.847059 0.972549 0.176471
0.968627 0.972549 0.176471
0.094118 0.105882 0.211765
0.317647 0.105882 0.211765
0.525490 0.105882 0.211765
0.698039 0.105882 0.211765
0.847059 0.105882 0.211765
0.968627 0.105882 0.211765
0.094118 0.227451 0.211765
0.317647 0.227451 0.211765
0.525490 0.227451 0.211765
0.698039 0.227451 0.211765
0.847059 0.227451 0.211765
0.968627 0.227451 0.211765
0.094118 0.560784 0.211765
0.317647 0.560784 0.211765
0.525490 0.560784 0.211765
0.698039 0.560784 0.211765
0.847059 0.560784 0.211765
0.968627 0.560784 0.211765
0.094118 0.776471 0.211765
0.317647 0.776471 0.211765
0.525490 0.776471 0.211765
0.698039 0.776471 0.211765
0.847059 0.776471 0.211765
0.968627 0.776471 0.211765
0.094118 0.898039 0.211765
0.317647 0.898039 0.211765
0.525490 0.898039 0.211765
0.698039 0.898039 0.211765
0.847059 0.898039 0.211765
0.968627 0.898039 0.211765
0.094118 0.972549 0.211765
0.317647 0.972549 0.211765
0.525490 0.972549 0.211765
0.698039 0.972549 0.211765
0.847059 0.972549 0.211765
0.968627 0.972549 0.211765
0.094118 0.105882 0.552941
0.317647 0.105882 0.552941
0.525490 0.105882 0.552941
0.698039 0.105882 0.552941
0.847059 0.105882 0.552941
0.968627 0.105882 0.552941
0.094118 0.227451 0.552941
0.317647 0.227451 0.552941
0.525490 0.227451 0.552941
0.698039 0.227451 0.552941
0.847059 0.227451 0.552941
0.968627 0.227451 0.552941
0.094118 0.560784 0.552941
0.317647 0.560784 0.552941
0.525490 0.560784 0.552941
0.698039 0.560784 0.552941
0.847059 0.560784 0.552941
0.968627 0.560784 0.552941
0.094118 0.776471 0.552941
0.317647 0.776471 0.552941
0.525490 0.776471 0.552941
0.698039 0.776471 0.552941
0.847059 0.776471 0.552941
0.968627 0.776471 0.552941
0.094118 0.898039 0.552941
0.317647 0.898039 0.552941
0.525490 0.898039 0.552941
0.698039 0.898039 0.552941
0.847059 0.898039 0.552941
0.968627 0.898039 0.552941
0.094118 0.972549 0.552941
0.317647 0.972549 0.552941
0.525490 0.972549 0.552941
0.698039 0.972549 0.552941
0.847059 0.972549 0.552941
0.968627 0.972549 0.552941
0.094118 0.105882 0.800000
0.317647 0.105882 0.800000
0.525490 0.105882 0.800000
0.698039 0.105882 0.800000
0.847059 0.105882 0.800000
0.968627 0.105882 0.800000
0.094118 0.227451 0.800000
0.317647 0.227451 0.800000
0.525490 0.227451 0.800000
0.698039 0.227451 0.800000
0.847059 0.227451 0.800000
0.968627 0.227451 0.800000
0.094118 0.560784 0.800000
0.317647 0.560784 0.800000
0.525490 0.560784 0.800000
0.698039 0.560784 0.800000
0.847059 0.560784 0.800000
0.968627 0.560784 0.800000
0.094118 0.776471 0.800000
0.317647 0.776471 0.800000
0.525490 0.776471 0.800000
0.698039 0.776471 0.800000
0.847059 0.776471 0.800000
0.968627 0.776471 0.800000
0.094118 0.898039 0.800000
0.317647 0.898039 0.800000
0.525490 0.898039 0.800000
0.698039 0.898039 0.800000
0.847059 0.898039 0.800000
0.968627 0.898039 0.800000
0.094118 0.972549 0.800000
0.317647 0.972549 0.800000
0.525490 0.972549 0.800000
0.698039 0.972549 0.800000
0.847059 0.972549 0.800000
0.968627 0.972549 0.800000
0.094118 0.105882 0.929412
0.317647 0.105882 0.929412
0.525490 0.105882 0.929412
0.698039 0.105882 0.929412
0.847059 0.105882 0.929412
0.968627 0.105882 0.929412
0.094118 0.227451 0.929412
0.317647 0.227451 0.929412
0.525490 0.227451 0.929412
0.698039 0.227451 0.929412
0.847059 0.227451 0.929412
0.968627 0.227451 0.929412
0.094118 0.560784 0.929412
0.317647 0.560784 0.929412
0.525490 0.560784 0.929412
0.698039 0.560784 0.929412
0.847059 0.560784 0.929412
0.968627 0.560784 0.929412
0.094118 0.776471 0.929412
0.317647 0.776471 0.929412
0.525490 0.776471 0.929412
0.698039 0.776471 0.929412
0.847059 0.776471 0.929412
0.968627 0.776471 0.929412
0.094118 0.898039 0.929412
0.317647 0.898039 0.929412
0.525490 0.898039 0.929412
0.698039 0.898039 0.929412
0.847059 0.898039 0.929412
0.968627 0.898039 0.929412
0.094118 0.972549 0.929412
0.317647 0.972549 0.929412
0.525490 0.972549 0.929412
0.698039 0.972549 0.929412
0.847059 0.972549 0.929412
0.968627 0.972549 0.929412
0.094118 0.105882 1.000000
0.317647 0.105882 1.000000
0.525490 0.105882 1.000000
0.698039 0.105882 1.000000
0.847059 0.105882 1.000000
0.968627 0.105882 1.000000
0.094118 0.227451 1.000000
0.317647 0.227451 1.000000
0.525490 0.227451 1.000000
0.698039 0.227451 1.000000
0.847059 0.227451 1.000000
0.968627 0.227451 1.000000
0.094118 0.560784 1.000000
0.317647 0.560784 1.000000
0.525490 0.560784 1.000000
0.698039 0.560784 1.000000
0.847059 0.560784 1.000000
0.968627 0.560784 1.000000
0.094118 0.776471 1.000000
0.317647 0.776471 1.000000
0.525490 0.776471 1.000000
0.698039 0.776471 1.000000
0.847059 0.776471 1.000000
0.968627 0.776471 1.000000
0.094118 0.898039 1.000000
0.317647 0.898039 1.000000
0.525490 0.898039 1.000000
0.698039 0.898039 1.000000
0.847059 0.898039 1.000000
0.968627 0.898039 1.000000
0.094118 0.972549 1.000000
0.317647 0.972549 1.000000
0.525490 0.972549 1.000000
0.698039 0.972549 1.000000
0.847059 0.972549 1.000000
0.968627 0.972549 1.000000
